!!!!SEGMENT: pl-wtm--r-1540--005_stefani-jozef--missa-offertorium.krn
!!!cenid: 18xx:1773
!!!COM: Stefani, Józef
!!!COM-rismid: pe30024097
!!!CDT: 1800/04/16-1876/03/19
!!!CNT: Polish
!!!OPR: Missa
!!!OTL: Offertorium
!!!OMV: 005
!!!PDT:
!!!AGN: Sacred; Mass
!!!SMS-siglum: PL-Wtm
!!!SMS-shelfmark: R 1540
!!!SMS-shelfwork: 001-005 M
!!!SMS-variant:
!!!SMS-altvar:
!!!NIFC-rismid: 1001120486
!!!URL-scan: http://repozytorium.nifc.pl/skany/pl-wtm-nut--r1540
!!!ONB-nifc: UWAGA: części Mszy: 1. Kyrie, 2. Gloria, 3. Graduale, 4. Credo, 5. Offertorium, 6. Sanctus, 7. Benedictus, 8. Agnus Dei. Na końcu rękopisu parte puzonów, trąbek i kotłów
**kern	**kern	**kern	**kern	**kern	**kern	**text	**dynam	**kern	**text	**dynam	**kern	**text	**dynam	**kern	**kern	**kern	**text	**dynam	**kern	**dynam	**kern	**dynam	**kern	**dynam	**kern	**dynam	**kern	**dynam	**kern	**dynam	**kern	**dynam	**kern	**dynam	**kern	**dynam
*part19	*part18	*part17	*part16	*part16	*part15	*part15	*part15	*part14	*part14	*part14	*part13	*part13	*part13	*part12	*part11	*part10	*part10	*part10	*part9	*part9	*part8	*part8	*part7	*part7	*part6	*part6	*part5	*part5	*part4	*part4	*part3	*part3	*part2	*part2	*part1	*part1
*	*	*	*group3	*group3	*	*	*	*group2	*	*	*group2	*	*	*	*	*	*	*	*	*	*	*	*group1	*	*group1	*	*	*	*	*	*	*	*	*	*	*
*	*	*	*I""Organo	*I""Organo	*	*	*	*I""Tenori	*	*	*I""Tenori	*	*	*	*	*	*	*	*	*	*	*	*I""Violini	*	*I""Violini	*	*	*	*	*	*	*	*	*	*	*
*staff20	*staff19	*staff18	*staff17	*staff16	*staff15	*staff15	*	*staff14	*staff14	*	*staff13	*staff13	*	*staff12	*staff11	*staff10	*staff10	*	*staff9	*	*staff8	*	*staff7	*	*staff6	*	*staff5	*	*staff4	*	*staff3	*	*staff2	*	*staff1	*
*Itimpa	*Itromt	*Itromp	*Iempty	*Iempty	*Iempty	*	*	*Iempty	*	*	*Iempty	*	*	*Ialto	*Isoprn	*Isoprn	*	*	*Iempty	*	*Iviola	*	*Iempty	*	*Iempty	*	*Ifagot	*	*Icor	*	*Iclars	*	*Ioboe	*	*Iflt	*
*I"Timpani C. G.	*I"Trombone	*I"Trombe in C	*	*	*I"Baſso	*	*	*	*	*	*	*	*	*I"[Alto]	*I"2.do Soprano	*I"1.o Soprano	*	*	*I"Baſsi	*	*I"Viole	*	*	*	*	*	*I"Fagoto	*	*I"Corni in C	*	*I"Clarinetti in C	*	*I"Oboe	*	*I"Flauto	*
*I'timp	*I'trb	*I'tr	*I''org	*I''org	*I'B	*	*	*I''T	*	*	*I''T	*	*	*I'A	*I'S 2	*I'S 1	*	*	*I'b	*	*I'vla	*	*I''vl	*	*I''vl	*	*I'fag	*	*I'cor	*	*I'cl	*	*I'ob	*	*I'fl	*
*clefF4	*clefF4	*clefG2	*clefF4	*clefG2	*clefF4	*	*	*clefC4	*	*	*clefC4	*	*	*clefG2	*clefG2	*clefG2	*	*	*clefF4	*	*clefC3	*	*clefG2	*	*clefG2	*	*clefF4	*	*clefG2	*	*clefG2	*	*clefG2	*	*clefG2	*
*	*	*	*	*	*	*	*	*	*	*	*	*	*	*	*	*	*	*	*	*	*	*	*	*	*	*	*	*	*Trd0c0	*	*	*	*	*	*	*
*k[f#]	*k[f#]	*k[f#]	*k[f#]	*k[f#]	*k[f#]	*	*	*k[f#]	*	*	*k[f#]	*	*	*k[f#]	*k[f#]	*k[f#]	*	*	*k[f#]	*	*k[f#]	*	*k[f#]	*	*k[f#]	*	*k[f#]	*	*k[f#]	*	*k[f#]	*	*k[f#]	*	*k[f#]	*
*G:	*G:	*G:	*G:	*G:	*G:	*	*	*G:	*	*	*G:	*	*	*G:	*G:	*G:	*	*	*G:	*	*G:	*	*G:	*	*G:	*	*G:	*	*G:	*	*G:	*	*G:	*	*G:	*
*M4/4	*M4/4	*M4/4	*M4/4	*M4/4	*M4/4	*	*	*M4/4	*	*	*M4/4	*	*	*M4/4	*M4/4	*M4/4	*	*	*M4/4	*	*M4/4	*	*M4/4	*	*M4/4	*	*M4/4	*	*M4/4	*	*M4/4	*	*M4/4	*	*M4/4	*
*met(c)	*met(c)	*met(c)	*met(c)	*met(c)	*met(c)	*	*	*met(c)	*	*	*met(c)	*	*	*met(c)	*met(c)	*met(c)	*	*	*met(c)	*	*met(c)	*	*met(c)	*	*met(c)	*	*met(c)	*	*met(c)	*	*met(c)	*	*met(c)	*	*met(c)	*
=1	=1	=1	=1	=1	=1	=1	=1	=1	=1	=1	=1	=1	=1	=1	=1	=1	=1	=1	=1	=1	=1	=1	=1	=1	=1	=1	=1	=1	=1	=1	=1	=1	=1	=1	=1	=1
*	*	*	*	*	*	*	*	*	*	*	*	*	*	*	*	*	*	*	*	*	*2\right	*	*	*	*	*	*	*	*	*	*	*	*	*	*	*
!	!	!	!	!	!	!	!	!	!	!	!	!	!	!	!	!	!	!	!	!	!	!LO:DY:a:rj	!	!	!	!	!	!	!	!LO:DY:a:rj	!	!	!	!	!LO:TX:a:B:t=Andantino.	!
!	!	!LO:TX:a:t=Offertorium tacet	!	!	!	!	!	!	!	!	!	!	!	!	!	!	!	!	!	!	!	!LO:HP:a	!	!	!	!	!	!	!	!LO:HP:a	!	!	!	!	!LO:TX:a:t=O! Salutaris\nHostia	!
1ryy	1ryy	1ryy	1ryy	1ryy	1ryy	.	.	1ryy	.	.	1ryy	.	.	1ryy	1ryy	1ryy	.	.	1r	.	2g 2G\	f >	1r	.	1r	.	1r	.	2g 2G/	f >	1r	.	1r	.	1r	.
.	.	.	.	.	.	.	.	.	.	.	.	.	.	.	.	.	.	.	.	.	4.g 4.G\	.	.	.	.	.	.	.	4.g 4.G/	.	.	.	.	.	.	.
.	.	.	.	.	.	.	.	.	.	.	.	.	.	.	.	.	.	.	.	.	8g 8G\	]	.	.	.	.	.	.	8g 8G/	]]	.	.	.	.	.	.
=2	=2	=2	=2	=2	=2	=2	=2	=2	=2	=2	=2	=2	=2	=2	=2	=2	=2	=2	=2	=2	=2	=2	=2	=2	=2	=2	=2	=2	=2	=2	=2	=2	=2	=2	=2	=2
!	!	!	!	!	!	!	!	!	!	!	!	!	!	!	!	!	!	!	!	!	!	!LO:DY:a:rj	!	!	!LO:SIC:v:n=1:s=2.fn:t=kasownik dopisany ołówkiem	!LO:DY:rj	!	!	!	!LO:DY:a	!	!	!	!	!	!
1ryy	1ryy	1ryy	1ryy	1ryy	1ryy	.	.	1ryy	.	.	1ryy	.	.	1ryy	1ryy	1ryy	.	.	2.GG/	.	2.g 2.G\	p	2.d 2.B/	.	2.f# 2.G/	p	1r	.	2.g 2.G/	p	1r	.	1r	.	16r	.
.	.	.	.	.	.	.	.	.	.	.	.	.	.	.	.	.	.	.	.	.	.	.	.	.	.	.	.	.	.	.	.	.	.	.	(16fffn\LL	.
.	.	.	.	.	.	.	.	.	.	.	.	.	.	.	.	.	.	.	.	.	.	.	.	.	.	.	.	.	.	.	.	.	.	.	16ddd\	.
.	.	.	.	.	.	.	.	.	.	.	.	.	.	.	.	.	.	.	.	.	.	.	.	.	.	.	.	.	.	.	.	.	.	.	16bb\JJ	.
.	.	.	.	.	.	.	.	.	.	.	.	.	.	.	.	.	.	.	.	.	.	.	.	.	.	.	.	.	.	.	.	.	.	.	16gg\LL	.
.	.	.	.	.	.	.	.	.	.	.	.	.	.	.	.	.	.	.	.	.	.	.	.	.	.	.	.	.	.	.	.	.	.	.	16ffn\	.
.	.	.	.	.	.	.	.	.	.	.	.	.	.	.	.	.	.	.	.	.	.	.	.	.	.	.	.	.	.	.	.	.	.	.	16dd\	.
.	.	.	.	.	.	.	.	.	.	.	.	.	.	.	.	.	.	.	.	.	.	.	.	.	.	.	.	.	.	.	.	.	.	.	16b\JJ	.
.	.	.	.	.	.	.	.	.	.	.	.	.	.	.	.	.	.	.	.	.	.	.	.	.	.	.	.	.	.	.	.	.	.	.	4g/)	.
.	.	.	.	.	.	.	.	.	.	.	.	.	.	.	.	.	.	.	4r	.	4r	.	4r	.	4r	.	.	.	4r	.	.	.	.	.	4r	.
=3	=3	=3	=3	=3	=3	=3	=3	=3	=3	=3	=3	=3	=3	=3	=3	=3	=3	=3	=3	=3	=3	=3	=3	=3	=3	=3	=3	=3	=3	=3	=3	=3	=3	=3	=3	=3
*	*	*	*	*	*	*	*	*	*	*	*	*	*	*	*	*	*	*	*	*	*	*^	*	*	*	*	*	*	*	*^	*	*	*	*	*	*
!	!	!	!	!	!	!	!	!	!	!	!	!	!	!	!	!	!	!	!	!	!	!	!LO:DY:a:rj	!	!	!	!	!	!	!	!	!LO:DY:rj	!	!	!	!	!	!
!	!	!	!	!	!	!	!	!	!	!	!	!	!	!	!	!	!	!	!	!	!	!LO:HP:a	!	!	!	!	!	!	!	!	!LO:HP:a	!	!	!	!	!	!	!
1ryy	1ryy	1ryy	1ryy	1ryy	1ryy	.	.	1ryy	.	.	1ryy	.	.	1ryy	1ryy	1ryy	.	.	1r	.	2g 2G\	>	f	1r	.	1r	.	1r	.	2g 2G/	>	f	1r	.	1r	.	1r	.
!	!	!	!	!	!	!	!	!	!	!	!	!	!	!	!	!	!	!	!	!	!	!	!LO:DY:rj	!	!	!	!	!	!	!	!	!LO:DY:rj	!	!	!	!	!	!
.	.	.	.	.	.	.	.	.	.	.	.	.	.	.	.	.	.	.	.	.	4.g 4.G/	.	p	.	.	.	.	.	.	4.g 4.G/	.	p	.	.	.	.	.	.
.	.	.	.	.	.	.	.	.	.	.	.	.	.	.	.	.	.	.	.	.	8g 8G/	]]	.	.	.	.	.	.	.	8g 8G/	]]	.	.	.	.	.	.	.
*	*	*	*	*	*	*	*	*	*	*	*	*	*	*	*	*	*	*	*	*	*	*v	*v	*	*	*	*	*	*	*	*v	*v	*	*	*	*	*	*
=4	=4	=4	=4	=4	=4	=4	=4	=4	=4	=4	=4	=4	=4	=4	=4	=4	=4	=4	=4	=4	=4	=4	=4	=4	=4	=4	=4	=4	=4	=4	=4	=4	=4	=4	=4	=4
!	!	!	!	!	!	!	!	!	!	!	!	!	!	!	!	!	!	!	!	!	!	!	!	!	!	!	!	!	!	!	!LO:N:vis=2	!	!LO:N:vis=2	!	!	!
1ryy	1ryy	1ryy	1ryy	1ryy	1ryy	.	.	1ryy	.	.	1ryy	.	.	1ryy	1ryy	1ryy	.	.	2C/	.	2g 2G\	.	2c/	.	2e 2G/	.	2r	.	2g 2G/	.	4r	.	4r	.	16r	.
.	.	.	.	.	.	.	.	.	.	.	.	.	.	.	.	.	.	.	.	.	.	.	.	.	.	.	.	.	.	.	.	.	.	.	(16g/LL	.
.	.	.	.	.	.	.	.	.	.	.	.	.	.	.	.	.	.	.	.	.	.	.	.	.	.	.	.	.	.	.	.	.	.	.	16cc/	.
.	.	.	.	.	.	.	.	.	.	.	.	.	.	.	.	.	.	.	.	.	.	.	.	.	.	.	.	.	.	.	.	.	.	.	16ee/JJ	.
.	.	.	.	.	.	.	.	.	.	.	.	.	.	.	.	.	.	.	.	.	.	f	.	f	.	f	.	.	.	f	4r	.	4r	.	16gg\LL	.
.	.	.	.	.	.	.	.	.	.	.	.	.	.	.	.	.	.	.	.	.	.	.	.	.	.	.	.	.	.	.	.	.	.	.	16ccc\	.
.	.	.	.	.	.	.	.	.	.	.	.	.	.	.	.	.	.	.	.	f	.	.	.	.	.	.	.	.	.	.	.	.	.	.	16eee\	.
.	.	.	.	.	.	.	.	.	.	.	.	.	.	.	.	.	.	.	.	.	.	.	.	.	.	.	.	.	.	.	.	.	.	.	16ccc\JJ	.
.	.	.	.	.	.	.	.	.	.	.	.	.	.	.	.	.	.	.	4GG/	.	4g 4G\	.	4d 4B/	.	4gg 4b 4d\	.	4G\	.	4g 4G/	.	4gg 4b\	.	4bb\	.	4ggg\)	.
*	*	*	*	*	*	*	*	*	*	*	*	*	*	*	*	*	*	*	*clefC4	*	*	*	*	*	*	*	*	*	*	*	*	*	*	*	*	*
.	.	.	.	.	.	.	.	.	.	.	.	.	.	.	.	.	.	.	(8g\L	.	(8g\L	.	(8b/L	.	(4dd\	.	4r	.	4r	.	4r	.	4r	.	4r	.
.	.	.	.	.	.	.	.	.	.	.	.	.	.	.	.	.	.	.	8f#\J)	.	8f#\J)	.	8a/J)	.	.	.	.	.	.	.	.	.	.	.	.	.
!!LO:PB:g=original
=5	=5	=5	=5	=5	=5	=5	=5	=5	=5	=5	=5	=5	=5	=5	=5	=5	=5	=5	=5	=5	=5	=5	=5	=5	=5	=5	=5	=5	=5	=5	=5	=5	=5	=5	=5	=5
*	*	*	*	*	*	*	*	*	*	*	*	*	*	*	*	*	*	*	*^	*	*	*	*	*	*	*	*	*	*	*	*	*	*	*	*	*
1ryy	1ryy	1ryy	1ryy	1ryy	1ryy	.	.	1ryy	.	.	1ryy	.	.	1ryy	1ryy	1ryy	.	.	4e/	1rE	.	4e\	.	(2.g/	.	4dd\	.	1r	.	1r	.	1r	.	1r	.	1r	.
.	.	.	.	.	.	.	.	.	.	.	.	.	.	.	.	.	.	.	(4e-X/	.	.	(4e-X\	.	.	.	4cc\	.	.	.	.	.	.	.	.	.	.	.
.	.	.	.	.	.	.	.	.	.	.	.	.	.	.	.	.	.	.	4d/	.	.	4d\	.	.	.	4b\	.	.	.	.	.	.	.	.	.	.	.
.	.	.	.	.	.	.	.	.	.	.	.	.	.	.	.	.	.	.	4c/	.	.	4c\	.	4f#/)	.	4a\)	.	.	.	.	.	.	.	.	.	.	.
=6	=6	=6	=6	=6	=6	=6	=6	=6	=6	=6	=6	=6	=6	=6	=6	=6	=6	=6	=6	=6	=6	=6	=6	=6	=6	=6	=6	=6	=6	=6	=6	=6	=6	=6	=6	=6	=6
*	*	*	*	*	*	*	*	*	*	*	*	*	*	*	*	*	*	*	*	*	*	*	*	*	*	*2\right	*	*	*	*	*	*	*	*	*	*	*
1ryy	1ryy	1ryy	1ryy	1ryy	1ryy	.	.	1ryy	.	.	1ryy	.	.	1ryy	1ryy	1ryy	.	.	2B/)	2r	.	2B/)	.	2g/	.	2dd\	.	1r	.	1r	.	1r	.	1r	.	2r	.
*	*	*	*	*	*	*	*	*	*	*	*	*	*	*	*	*	*	*	*clefF4	*	*	*	*	*	*	*	*	*	*	*	*	*	*	*	*	*2\right	*
*	*	*	*	*	*	*	*	*	*	*	*	*	*	*	*	*	*	*	*	*2\right	*	*	*	*	*	*	*	*	*	*	*	*	*	*	*	*	*
.	.	.	.	.	.	.	.	.	.	.	.	.	.	.	.	.	.	.	2BB/	2BB\	.	2f#X\	.	(2a/	.	2ddT\	.	.	.	.	.	.	.	.	.	2ddd#Xt\	.
*	*	*	*	*	*	*	*	*	*	*	*	*	*	*	*	*	*	*	*v	*v	*	*	*	*	*	*	*	*	*	*	*	*	*	*	*	*	*
=7	=7	=7	=7	=7	=7	=7	=7	=7	=7	=7	=7	=7	=7	=7	=7	=7	=7	=7	=7	=7	=7	=7	=7	=7	=7	=7	=7	=7	=7	=7	=7	=7	=7	=7	=7	=7
1ryy	1ryy	1ryy	1ryy	1ryy	1ryy	.	.	1ryy	.	.	1ryy	.	.	1ryy	1ryy	1ryy	.	.	4C/	.	(2.g\	.	4g/	.	(4ee\	.	1r	.	1r	.	1r	.	1r	.	(4eee\	.
.	.	.	.	.	.	.	.	.	.	.	.	.	.	.	.	.	.	.	4C#X/	.	.	.	4b-X/	.	4gg\	.	.	.	.	.	.	.	.	.	4ggg\	.
.	.	.	.	.	.	.	.	.	.	.	.	.	.	.	.	.	.	.	2D\	.	.	.	2a/)	.	4a/	.	.	.	.	.	.	.	.	.	4aa\	.
.	.	.	.	.	.	.	.	.	.	.	.	.	.	.	.	.	.	.	.	.	4f#X\	.	.	.	4dd\)	.	.	.	.	.	.	.	.	.	4ddd\	.
=8	=8	=8	=8	=8	=8	=8	=8	=8	=8	=8	=8	=8	=8	=8	=8	=8	=8	=8	=8	=8	=8	=8	=8	=8	=8	=8	=8	=8	=8	=8	=8	=8	=8	=8	=8	=8
*	*	*	*	*	*	*	*	*	*	*	*	*	*	*	*	*	*	*	*	*	*	*	*	*	*	*	*	*	*^	*	*	*	*	*	*	*
1ryy	1ryy	1ryy	1ryy	1ryy	1ryy	.	.	1ryy	.	.	1ryy	.	.	1ryy	1ryy	1ryy	.	.	4E\	.	4g\)	.	4g/	.	4b\	.	4r	.	4r	4ryy	.	4r	.	4r	.	4bb\)	.
.	.	.	.	.	.	.	.	.	.	.	.	.	.	.	.	.	.	.	8.r	.	8.r	.	8.r	.	8.r	.	8.r	.	8.r	8.ryy	.	8.r	.	8.r	.	8.r	.
!	!	!	!	!	!	!	!	!	!	!	!	!	!	!	!	!	!	!	!	!	!	!	!	!	!	!LO:DY:rj	!	!	!	!	!LO:DY:rj	!	!	!	!	!	!
.	.	.	.	.	.	.	.	.	.	.	.	.	.	.	.	.	.	.	16AA/	.	16e 16A/	f	16cc#X 16e/	.	16gg 16a\	f	16A\	.	16ee/	16cc#X\	f	16gg 16a\	.	16ccc#X\	.	16ggg\	.
*	*	*	*	*	*	*	*	*	*	*	*	*	*	*	*	*	*	*	*	*	*	*	*	*	*	*	*	*	*	*2\right	*	*2\right	*	*2\right	*	*	*
.	.	.	.	.	.	.	.	.	.	.	.	.	.	.	.	.	.	.	2AA/	.	2e 2A/	.	2cc# 2e/	.	2gg 2a\	.	2A\	.	2ee/	2cc#\	.	2gg 2a\	.	2ccc#\	.	2ggg\	.
=9	=9	=9	=9	=9	=9	=9	=9	=9	=9	=9	=9	=9	=9	=9	=9	=9	=9	=9	=9	=9	=9	=9	=9	=9	=9	=9	=9	=9	=9	=9	=9	=9	=9	=9	=9	=9	=9
1ryy	1ryy	1ryy	1ryy	1ryy	1ryy	.	.	1ryy	.	.	1ryy	.	.	1ryy	1ryy	1ryy	.	.	8AA/	.	8e 8A/	.	8cc#X 8e/	.	8gg 8a\	.	8A\	.	8ee/	8cc#X\	.	8gg 8a\	.	8ccc#X\	.	16ggg\LL	.
.	.	.	.	.	.	.	.	.	.	.	.	.	.	.	.	.	.	.	.	.	.	.	.	.	.	.	.	.	.	.	.	.	.	.	.	(16fff#\	.
.	.	.	.	.	.	.	.	.	.	.	.	.	.	.	.	.	.	.	8r	.	8r	.	8r	.	8r	.	8r	.	8r	8ryy	.	8r	.	8r	.	16eee\	.
.	.	.	.	.	.	.	.	.	.	.	.	.	.	.	.	.	.	.	.	.	.	.	.	.	.	.	.	.	.	.	.	.	.	.	.	16ddd\JJ	.
!	!	!	!	!	!	!	!	!	!	!	!	!	!	!	!	!	!	!	!	!LO:DY:rj	!	!LO:DY:rj	!	!LO:DY:rj	!	!LO:DY:rj	!	!	!	!	!	!	!	!	!	!	!
.	.	.	.	.	.	.	.	.	.	.	.	.	.	.	.	.	.	.	2.AA/	p	2.A/	p	2.e/	p	(2.g/	p	4r	.	4r	4ryy	.	4r	.	4r	.	16ccc#X\LL	.
.	.	.	.	.	.	.	.	.	.	.	.	.	.	.	.	.	.	.	.	.	.	.	.	.	.	.	.	.	.	.	.	.	.	.	.	16bb\	.
.	.	.	.	.	.	.	.	.	.	.	.	.	.	.	.	.	.	.	.	.	.	.	.	.	.	.	.	.	.	.	.	.	.	.	.	16aa\	.
.	.	.	.	.	.	.	.	.	.	.	.	.	.	.	.	.	.	.	.	.	.	.	.	.	.	.	.	.	.	.	.	.	.	.	.	16gg\JJ	.
.	.	.	.	.	.	.	.	.	.	.	.	.	.	.	.	.	.	.	.	.	.	.	.	.	.	.	2r	.	2r	2ryy	.	2r	.	2r	.	16ff#X\LL	.
.	.	.	.	.	.	.	.	.	.	.	.	.	.	.	.	.	.	.	.	.	.	.	.	.	.	.	.	.	.	.	.	.	.	.	.	16ee\	.
.	.	.	.	.	.	.	.	.	.	.	.	.	.	.	.	.	.	.	.	.	.	.	.	.	.	.	.	.	.	.	.	.	.	.	.	16dd\	.
.	.	.	.	.	.	.	.	.	.	.	.	.	.	.	.	.	.	.	.	.	.	.	.	.	.	.	.	.	.	.	.	.	.	.	.	16cc#X\JJ	.
.	.	.	.	.	.	.	.	.	.	.	.	.	.	.	.	.	.	.	.	.	.	.	.	.	.	.	.	.	.	.	.	.	.	.	.	16b/LL	.
.	.	.	.	.	.	.	.	.	.	.	.	.	.	.	.	.	.	.	.	.	.	.	.	.	.	.	.	.	.	.	.	.	.	.	.	16a/	.
.	.	.	.	.	.	.	.	.	.	.	.	.	.	.	.	.	.	.	.	.	.	.	.	.	.	.	.	.	.	.	.	.	.	.	.	16b/	.
.	.	.	.	.	.	.	.	.	.	.	.	.	.	.	.	.	.	.	.	.	.	.	.	.	.	.	.	.	.	.	.	.	.	.	.	16cc#/JJ	.
*	*	*	*	*	*	*	*	*	*	*	*	*	*	*	*	*	*	*	*	*	*	*	*	*	*	*	*	*	*v	*v	*	*	*	*	*	*	*
!!LO:PB:g=original
=10	=10	=10	=10	=10	=10	=10	=10	=10	=10	=10	=10	=10	=10	=10	=10	=10	=10	=10	=10	=10	=10	=10	=10	=10	=10	=10	=10	=10	=10	=10	=10	=10	=10	=10	=10	=10
1ryy	1ryy	1ryy	1ryy	1ryy	1ryy	.	.	1ryy	.	.	1ryy	.	.	1ryy	1ryy	1ryy	.	.	[1D	.	[1A	.	[1d	.	[1f#)	.	1r	.	1r	.	1r	.	1r	.	[2ddT\)	.
.	.	.	.	.	.	.	.	.	.	.	.	.	.	.	.	.	.	.	.	.	.	.	.	.	.	.	.	.	.	.	.	.	.	.	8dd\L]	.
.	.	.	.	.	.	.	.	.	.	.	.	.	.	.	.	.	.	.	.	.	.	.	.	.	.	.	.	.	.	.	.	.	.	.	(16cc#X\L	.
.	.	.	.	.	.	.	.	.	.	.	.	.	.	.	.	.	.	.	.	.	.	.	.	.	.	.	.	.	.	.	.	.	.	.	16dd\JJ)	.
.	.	.	.	.	.	.	.	.	.	.	.	.	.	.	.	.	.	.	.	.	.	.	.	.	.	.	.	.	.	.	.	.	.	.	(16ee#X\LL	.
.	.	.	.	.	.	.	.	.	.	.	.	.	.	.	.	.	.	.	.	.	.	.	.	.	.	.	.	.	.	.	.	.	.	.	16ff#\JJ)	.
.	.	.	.	.	.	.	.	.	.	.	.	.	.	.	.	.	.	.	.	.	.	.	.	.	.	.	.	.	.	.	.	.	.	.	(16gg#X\LL	.
.	.	.	.	.	.	.	.	.	.	.	.	.	.	.	.	.	.	.	.	.	.	.	.	.	.	.	.	.	.	.	.	.	.	.	16aa\JJ)	.
=11	=11	=11	=11	=11	=11	=11	=11	=11	=11	=11	=11	=11	=11	=11	=11	=11	=11	=11	=11	=11	=11	=11	=11	=11	=11	=11	=11	=11	=11	=11	=11	=11	=11	=11	=11	=11
*	*	*	*	*	*	*	*	*	*	*	*	*	*	*	*	*	*	*	*	*	*	*	*	*	*	*	*	*	*^	*	*	*	*	*	*	*
!	!	!	!	!	!	!	!	!	!	!	!	!	!	!	!	!	!	!	!	!	!LO:TX:a:t=P:problem:dopisane ołówkiem 1c	!	!	!	!	!	!	!	!	!	!	!	!	!	!	!	!
1ryy	1ryy	1ryy	1ryy	1ryy	1ryy	.	.	1ryy	.	.	1ryy	.	.	1ryy	1ryy	1ryy	.	.	2D\]	.	2A/]	.	2d/]	.	2f#/]	.	2r	.	2r	2ryy	.	2r	.	2r	.	8ddd'\L	.
.	.	.	.	.	.	.	.	.	.	.	.	.	.	.	.	.	.	.	.	.	.	.	.	.	.	.	.	.	.	.	.	.	.	.	.	(16ccc#X\L	.
.	.	.	.	.	.	.	.	.	.	.	.	.	.	.	.	.	.	.	.	.	.	.	.	.	.	.	.	.	.	.	.	.	.	.	.	16ddd\JJ)	.
.	.	.	.	.	.	.	.	.	.	.	.	.	.	.	.	.	.	.	.	.	.	.	.	.	.	.	.	.	.	.	.	.	.	.	.	(16fff#\LL	.
.	.	.	.	.	.	.	.	.	.	.	.	.	.	.	.	.	.	.	.	.	.	.	.	.	.	.	.	.	.	.	.	.	.	.	.	16ddd\)	.
.	.	.	.	.	.	.	.	.	.	.	.	.	.	.	.	.	.	.	.	.	.	.	.	.	.	.	.	.	.	.	.	.	.	.	.	16aa'\	.
!	!	!	!	!	!	!	!	!	!	!	!	!	!	!	!	!	!	!	!	!	!	!	!	!	!	!	!	!LO:DY:a	!	!	!	!	!	!	!	!	!
.	.	.	.	.	.	.	.	.	.	.	.	.	.	.	.	.	.	.	.	.	.	f	.	.	.	f	.	f	.	.	.	.	.	.	f	16ff#'\JJ	.
.	.	.	.	.	.	.	.	.	.	.	.	.	.	.	.	.	.	.	4.D;\	.	4.A;/	.	4.d;/	.	4.f#;/	.	4.D;</	.	4.dd;/	4.dd\	.	4.a 4.f#X;/	.	4.dd;\	.	4.dd;\	.
.	.	.	.	.	.	.	.	.	.	.	.	.	.	.	.	.	.	.	8r	.	8r	.	8r	.	8r	.	8r	.	8r	8ryy	.	8r	.	8r	.	8ddd\	.
*	*	*	*	*	*	*	*	*	*	*	*	*	*	*	*	*	*	*	*	*	*	*	*	*	*	*	*	*	*v	*v	*	*	*	*	*	*	*
=12	=12	=12	=12	=12	=12	=12	=12	=12	=12	=12	=12	=12	=12	=12	=12	=12	=12	=12	=12	=12	=12	=12	=12	=12	=12	=12	=12	=12	=12	=12	=12	=12	=12	=12	=12	=12
1ryy	1ryy	1ryy	1ryy	1ryy	1ryy	.	.	1ryy	.	.	1ryy	.	.	1ryy	1ryy	1ryy	.	.	8D\	.	8r	.	8r	.	8r	.	1r	.	1r	.	1r	.	1r	.	16cccn'\LL	.
.	.	.	.	.	.	.	.	.	.	.	.	.	.	.	.	.	.	.	.	.	.	.	.	.	.	.	.	.	.	.	.	.	.	.	16ddd'\	.
!	!	!	!	!	!	!	!	!	!	!	!	!	!	!	!	!	!	!	!	!	!LO:TX:b:t=pizz	!	!	!	!LO:TX:b:t=pizz	!	!	!	!	!	!	!	!	!	!	!
.	.	.	.	.	.	.	.	.	.	.	.	.	.	.	.	.	.	.	8r	.	8A/	.	8e 8c/	.	8f#/	.	.	.	.	.	.	.	.	.	16aa'\	.
.	.	.	.	.	.	.	.	.	.	.	.	.	.	.	.	.	.	.	.	.	.	.	.	.	.	.	.	.	.	.	.	.	.	.	16ddd'\JJ	.
*	*	*	*	*	*	*	*	*	*	*	*	*	*	*	*	*	*	*	*rep	*	*rep	*	*rep	*	*rep	*	*	*	*	*	*	*	*	*	*	*
.	.	.	.	.	.	.	.	.	.	.	.	.	.	.	.	.	.	.	8D\	.	8r	.	8r	.	8r	.	.	.	.	.	.	.	.	.	16ff#'\LL	.
.	.	.	.	.	.	.	.	.	.	.	.	.	.	.	.	.	.	.	.	.	.	.	.	.	.	.	.	.	.	.	.	.	.	.	16ddd'\	.
.	.	.	.	.	.	.	.	.	.	.	.	.	.	.	.	.	.	.	8r	.	8A/	.	8e 8c/	.	8f#/	.	.	.	.	.	.	.	.	.	16dd'\	.
*	*	*	*	*	*	*	*	*	*	*	*	*	*	*	*	*	*	*	*Xrep	*	*Xrep	*	*Xrep	*	*Xrep	*	*	*	*	*	*	*	*	*	*	*
.	.	.	.	.	.	.	.	.	.	.	.	.	.	.	.	.	.	.	.	.	.	.	.	.	.	.	.	.	.	.	.	.	.	.	16ddd'\JJ	.
*	*	*	*	*	*	*	*	*	*	*	*	*	*	*	*	*	*	*	*rep	*	*rep	*	*rep	*	*rep	*	*	*	*	*	*	*	*	*	*	*
.	.	.	.	.	.	.	.	.	.	.	.	.	.	.	.	.	.	.	8D\	.	8r	.	8r	.	8r	.	.	.	.	.	.	.	.	.	16ccc'\LL	.
.	.	.	.	.	.	.	.	.	.	.	.	.	.	.	.	.	.	.	.	.	.	.	.	.	.	.	.	.	.	.	.	.	.	.	16ddd'\	.
.	.	.	.	.	.	.	.	.	.	.	.	.	.	.	.	.	.	.	8r	.	8A/	.	8e 8c/	.	8f#/	.	.	.	.	.	.	.	.	.	16aa'\	.
*	*	*	*	*	*	*	*	*	*	*	*	*	*	*	*	*	*	*	*Xrep	*	*Xrep	*	*Xrep	*	*Xrep	*	*	*	*	*	*	*	*	*	*	*
.	.	.	.	.	.	.	.	.	.	.	.	.	.	.	.	.	.	.	.	.	.	.	.	.	.	.	.	.	.	.	.	.	.	.	16ddd'\JJ	.
*	*	*	*	*	*	*	*	*	*	*	*	*	*	*	*	*	*	*	*rep	*	*rep	*	*rep	*	*rep	*	*	*	*	*	*	*	*	*	*	*
.	.	.	.	.	.	.	.	.	.	.	.	.	.	.	.	.	.	.	8D\	.	8r	.	8r	.	8r	.	.	.	.	.	.	.	.	.	16ff#'\LL	.
.	.	.	.	.	.	.	.	.	.	.	.	.	.	.	.	.	.	.	.	.	.	.	.	.	.	.	.	.	.	.	.	.	.	.	16ddd'\	.
.	.	.	.	.	.	.	.	.	.	.	.	.	.	.	.	.	.	.	8r	.	8A/	.	8e 8c/	.	8f#/	.	.	.	.	.	.	.	.	.	16dd'\	.
*	*	*	*	*	*	*	*	*	*	*	*	*	*	*	*	*	*	*	*Xrep	*	*Xrep	*	*Xrep	*	*Xrep	*	*	*	*	*	*	*	*	*	*	*
.	.	.	.	.	.	.	.	.	.	.	.	.	.	.	.	.	.	.	.	.	.	.	.	.	.	.	.	.	.	.	.	.	.	.	16ddd'\JJ	.
!!LO:PB:g=original
=13	=13	=13	=13	=13	=13	=13	=13	=13	=13	=13	=13	=13	=13	=13	=13	=13	=13	=13	=13	=13	=13	=13	=13	=13	=13	=13	=13	=13	=13	=13	=13	=13	=13	=13	=13	=13
1ryy	1ryy	1ryy	1ryy	1ryy	1ryy	.	.	1ryy	.	.	1ryy	.	.	1ryy	1ryy	1ryy	.	.	8G\	.	8r	.	8r	.	8r	.	1r	.	1r	.	1r	.	1r	.	(16bb\LL	.
.	.	.	.	.	.	.	.	.	.	.	.	.	.	.	.	.	.	.	.	.	.	.	.	.	.	.	.	.	.	.	.	.	.	.	16gg\)	.
.	.	.	.	.	.	.	.	.	.	.	.	.	.	.	.	.	.	.	8r	.	8G/	.	8d 8B/	.	8g/	.	.	.	.	.	.	.	.	.	16bb'\	.
.	.	.	.	.	.	.	.	.	.	.	.	.	.	.	.	.	.	.	.	.	.	.	.	.	.	.	.	.	.	.	.	.	.	.	16ddd'\JJ	.
*	*	*	*	*	*	*	*	*	*	*	*	*	*	*	*	*	*	*	*rep	*	*rep	*	*rep	*	*rep	*	*	*	*	*	*	*	*	*	*	*
.	.	.	.	.	.	.	.	.	.	.	.	.	.	.	.	.	.	.	8G\	.	8r	.	8r	.	8r	.	.	.	.	.	.	.	.	.	(16ggg\LL	.
.	.	.	.	.	.	.	.	.	.	.	.	.	.	.	.	.	.	.	.	.	.	.	.	.	.	.	.	.	.	.	.	.	.	.	16fff#\)	.
.	.	.	.	.	.	.	.	.	.	.	.	.	.	.	.	.	.	.	8r	.	8G/	.	8d 8B/	.	8g/	.	.	.	.	.	.	.	.	.	16eee'\	.
*	*	*	*	*	*	*	*	*	*	*	*	*	*	*	*	*	*	*	*Xrep	*	*Xrep	*	*Xrep	*	*Xrep	*	*	*	*	*	*	*	*	*	*	*
.	.	.	.	.	.	.	.	.	.	.	.	.	.	.	.	.	.	.	.	.	.	.	.	.	.	.	.	.	.	.	.	.	.	.	16ddd'\JJ	.
*	*	*	*	*	*	*	*	*	*	*	*	*	*	*	*	*	*	*	*rep	*	*rep	*	*rep	*	*rep	*	*	*	*	*	*	*	*	*	*	*
.	.	.	.	.	.	.	.	.	.	.	.	.	.	.	.	.	.	.	8G\	.	8r	.	8r	.	8r	.	.	.	.	.	.	.	.	.	(16eee\LL	.
.	.	.	.	.	.	.	.	.	.	.	.	.	.	.	.	.	.	.	.	.	.	.	.	.	.	.	.	.	.	.	.	.	.	.	16ddd\)	.
.	.	.	.	.	.	.	.	.	.	.	.	.	.	.	.	.	.	.	8r	.	8G/	.	8d 8B/	.	8g/	.	.	.	.	.	.	.	.	.	16ccc'\	.
*	*	*	*	*	*	*	*	*	*	*	*	*	*	*	*	*	*	*	*Xrep	*	*Xrep	*	*Xrep	*	*Xrep	*	*	*	*	*	*	*	*	*	*	*
.	.	.	.	.	.	.	.	.	.	.	.	.	.	.	.	.	.	.	.	.	.	.	.	.	.	.	.	.	.	.	.	.	.	.	16bb'\JJ	.
*	*	*	*	*	*	*	*	*	*	*	*	*	*	*	*	*	*	*	*rep	*	*rep	*	*rep	*	*rep	*	*	*	*	*	*	*	*	*	*	*
.	.	.	.	.	.	.	.	.	.	.	.	.	.	.	.	.	.	.	8G\	.	8r	.	8r	.	8r	.	.	.	.	.	.	.	.	.	(16ccc\LL	.
.	.	.	.	.	.	.	.	.	.	.	.	.	.	.	.	.	.	.	.	.	.	.	.	.	.	.	.	.	.	.	.	.	.	.	16bb\)	.
.	.	.	.	.	.	.	.	.	.	.	.	.	.	.	.	.	.	.	8r	.	8G/	.	8d 8B/	.	8g/	.	.	.	.	.	.	.	.	.	16aa'\	.
.	.	.	.	.	.	.	.	.	.	.	.	.	.	.	.	.	.	.	.	.	.	.	.	.	.	.	.	.	.	.	.	.	.	.	16gg'\JJ	.
*	*	*	*	*	*	*	*	*	*	*	*	*	*	*	*	*	*	*	*Xrep	*	*Xrep	*	*Xrep	*	*Xrep	*	*	*	*	*	*	*	*	*	*	*
=14	=14	=14	=14	=14	=14	=14	=14	=14	=14	=14	=14	=14	=14	=14	=14	=14	=14	=14	=14	=14	=14	=14	=14	=14	=14	=14	=14	=14	=14	=14	=14	=14	=14	=14	=14	=14
1ryy	1ryy	1ryy	1ryy	1ryy	1ryy	.	.	1ryy	.	.	1ryy	.	.	1ryy	1ryy	1ryy	.	.	8D\	.	8r	.	8r	.	8r	.	1ryy	.	1ryy	.	1r	.	1ryy	.	16ccc\LL	.
.	.	.	.	.	.	.	.	.	.	.	.	.	.	.	.	.	.	.	.	.	.	.	.	.	.	.	.	.	.	.	.	.	.	.	16ddd\	.
.	.	.	.	.	.	.	.	.	.	.	.	.	.	.	.	.	.	.	8r	.	8A/	.	8d 8c/	.	8f#/	.	.	.	.	.	.	.	.	.	16aa\	.
.	.	.	.	.	.	.	.	.	.	.	.	.	.	.	.	.	.	.	.	.	.	.	.	.	.	.	.	.	.	.	.	.	.	.	16ddd\JJ	.
*	*	*	*	*	*	*	*	*	*	*	*	*	*	*	*	*	*	*	*rep	*	*rep	*	*rep	*	*rep	*	*	*	*	*	*	*	*	*	*	*
.	.	.	.	.	.	.	.	.	.	.	.	.	.	.	.	.	.	.	8D\	.	8r	.	8r	.	8r	.	.	.	.	.	.	.	.	.	16ff#\LL	.
.	.	.	.	.	.	.	.	.	.	.	.	.	.	.	.	.	.	.	.	.	.	.	.	.	.	.	.	.	.	.	.	.	.	.	16ddd\	.
.	.	.	.	.	.	.	.	.	.	.	.	.	.	.	.	.	.	.	8r	.	8A/	.	8d 8c/	.	8f#/	.	.	.	.	.	.	.	.	.	16dd\	.
*	*	*	*	*	*	*	*	*	*	*	*	*	*	*	*	*	*	*	*Xrep	*	*Xrep	*	*Xrep	*	*Xrep	*	*	*	*	*	*	*	*	*	*	*
.	.	.	.	.	.	.	.	.	.	.	.	.	.	.	.	.	.	.	.	.	.	.	.	.	.	.	.	.	.	.	.	.	.	.	16ddd\JJ	.
*	*	*	*	*	*	*	*	*	*	*	*	*	*	*	*	*	*	*	*rep	*	*rep	*	*rep	*	*rep	*	*	*	*	*	*	*	*	*	*	*
.	.	.	.	.	.	.	.	.	.	.	.	.	.	.	.	.	.	.	8D\	.	8r	.	8r	.	8r	.	.	.	.	.	.	.	.	.	16ccc\LL	.
.	.	.	.	.	.	.	.	.	.	.	.	.	.	.	.	.	.	.	.	.	.	.	.	.	.	.	.	.	.	.	.	.	.	.	16ddd\	.
.	.	.	.	.	.	.	.	.	.	.	.	.	.	.	.	.	.	.	8r	.	8A/	.	8d 8c/	.	8f#/	.	.	.	.	.	.	.	.	.	16aa\	.
*	*	*	*	*	*	*	*	*	*	*	*	*	*	*	*	*	*	*	*Xrep	*	*Xrep	*	*Xrep	*	*Xrep	*	*	*	*	*	*	*	*	*	*	*
.	.	.	.	.	.	.	.	.	.	.	.	.	.	.	.	.	.	.	.	.	.	.	.	.	.	.	.	.	.	.	.	.	.	.	16ddd\JJ	.
*	*	*	*	*	*	*	*	*	*	*	*	*	*	*	*	*	*	*	*rep	*	*rep	*	*rep	*	*rep	*	*	*	*	*	*	*	*	*	*	*
.	.	.	.	.	.	.	.	.	.	.	.	.	.	.	.	.	.	.	8D\	.	8r	.	8r	.	8r	.	.	.	.	.	.	.	.	.	16ff#\LL	.
.	.	.	.	.	.	.	.	.	.	.	.	.	.	.	.	.	.	.	.	.	.	.	.	.	.	.	.	.	.	.	.	.	.	.	16ddd\	.
.	.	.	.	.	.	.	.	.	.	.	.	.	.	.	.	.	.	.	8r	.	8A/	.	8d 8c/	.	8f#/	.	.	.	.	.	.	.	.	.	16dd\	.
.	.	.	.	.	.	.	.	.	.	.	.	.	.	.	.	.	.	.	.	.	.	.	.	.	.	.	.	.	.	.	.	.	.	.	16ddd\JJ	.
*	*	*	*	*	*	*	*	*	*	*	*	*	*	*	*	*	*	*	*Xrep	*	*Xrep	*	*Xrep	*	*Xrep	*	*	*	*	*	*	*	*	*	*	*
=15	=15	=15	=15	=15	=15	=15	=15	=15	=15	=15	=15	=15	=15	=15	=15	=15	=15	=15	=15	=15	=15	=15	=15	=15	=15	=15	=15	=15	=15	=15	=15	=15	=15	=15	=15	=15
1ryy	1ryy	1ryy	1ryy	1ryy	1ryy	.	.	1ryy	.	.	1ryy	.	.	1ryy	1ryy	1ryy	.	.	8G\	.	8r	.	8r	.	8r	.	1ryy	.	1ryy	.	1ryy	.	1ryy	.	(16bb\LL	.
.	.	.	.	.	.	.	.	.	.	.	.	.	.	.	.	.	.	.	.	.	.	.	.	.	.	.	.	.	.	.	.	.	.	.	16gg\)	.
.	.	.	.	.	.	.	.	.	.	.	.	.	.	.	.	.	.	.	8r	.	8G/	.	8d 8B/	.	8g/	.	.	.	.	.	.	.	.	.	16bb'\	.
.	.	.	.	.	.	.	.	.	.	.	.	.	.	.	.	.	.	.	.	.	.	.	.	.	.	.	.	.	.	.	.	.	.	.	16ddd'\JJ	.
*	*	*	*	*	*	*	*	*	*	*	*	*	*	*	*	*	*	*	*rep	*	*rep	*	*rep	*	*rep	*	*	*	*	*	*	*	*	*	*	*
.	.	.	.	.	.	.	.	.	.	.	.	.	.	.	.	.	.	.	8G\	.	8r	.	8r	.	8r	.	.	.	.	.	.	.	.	.	(16ggg\LL	.
.	.	.	.	.	.	.	.	.	.	.	.	.	.	.	.	.	.	.	.	.	.	.	.	.	.	.	.	.	.	.	.	.	.	.	16fff#\)	.
.	.	.	.	.	.	.	.	.	.	.	.	.	.	.	.	.	.	.	8r	.	8G/	.	8d 8B/	.	8g/	.	.	.	.	.	.	.	.	.	16eee'\	.
*	*	*	*	*	*	*	*	*	*	*	*	*	*	*	*	*	*	*	*Xrep	*	*Xrep	*	*Xrep	*	*Xrep	*	*	*	*	*	*	*	*	*	*	*
.	.	.	.	.	.	.	.	.	.	.	.	.	.	.	.	.	.	.	.	.	.	.	.	.	.	.	.	.	.	.	.	.	.	.	16ddd'\JJ	.
*	*	*	*	*	*	*	*	*	*	*	*	*	*	*	*	*	*	*	*rep	*	*rep	*	*rep	*	*rep	*	*	*	*	*	*	*	*	*	*	*
.	.	.	.	.	.	.	.	.	.	.	.	.	.	.	.	.	.	.	8G\	.	8r	.	8r	.	8r	.	.	.	.	.	.	.	.	.	(16ccc#X\LL	.
.	.	.	.	.	.	.	.	.	.	.	.	.	.	.	.	.	.	.	.	.	.	.	.	.	.	.	.	.	.	.	.	.	.	.	16ddd\)	.
.	.	.	.	.	.	.	.	.	.	.	.	.	.	.	.	.	.	.	8r	.	8G/	.	8d 8B/	.	8g/	.	.	.	.	.	.	.	.	.	16eee'\	.
*	*	*	*	*	*	*	*	*	*	*	*	*	*	*	*	*	*	*	*Xrep	*	*Xrep	*	*Xrep	*	*Xrep	*	*	*	*	*	*	*	*	*	*	*
.	.	.	.	.	.	.	.	.	.	.	.	.	.	.	.	.	.	.	.	.	.	.	.	.	.	.	.	.	.	.	.	.	.	.	16ddd'\JJ	.
*	*	*	*	*	*	*	*	*	*	*	*	*	*	*	*	*	*	*	*rep	*	*rep	*	*rep	*	*rep	*	*	*	*	*	*	*	*	*	*	*
.	.	.	.	.	.	.	.	.	.	.	.	.	.	.	.	.	.	.	8G\	.	8r	.	8r	.	8r	.	.	.	.	.	.	.	.	.	(16cccn\LL	.
.	.	.	.	.	.	.	.	.	.	.	.	.	.	.	.	.	.	.	.	.	.	.	.	.	.	.	.	.	.	.	.	.	.	.	16bb\)	.
.	.	.	.	.	.	.	.	.	.	.	.	.	.	.	.	.	.	.	8r	.	8G/	.	8d 8B/	.	8g/	.	.	.	.	.	.	.	.	.	16aa'\	.
.	.	.	.	.	.	.	.	.	.	.	.	.	.	.	.	.	.	.	.	.	.	.	.	.	.	.	.	.	.	.	.	.	.	.	16gg'\JJ	.
*	*	*	*	*	*	*	*	*	*	*	*	*	*	*	*	*	*	*	*Xrep	*	*Xrep	*	*Xrep	*	*Xrep	*	*	*	*	*	*	*	*	*	*	*
!!LO:PB:g=original
=16	=16	=16	=16	=16	=16	=16	=16	=16	=16	=16	=16	=16	=16	=16	=16	=16	=16	=16	=16	=16	=16	=16	=16	=16	=16	=16	=16	=16	=16	=16	=16	=16	=16	=16	=16	=16
!	!	!	!	!	!	!	!	!	!	!	!	!	!	!	!	!	!	!	!	!	!	!LO:DY:rj	!LO:TX:b:t=arco	!	!	!LO:DY:rj	!	!LO:DY:a	!	!LO:DY:rj	!	!	!	!LO:DY:rj	!	!
1ryy	1ryy	1ryy	1ryy	1ryy	1ryy	.	.	1ryy	.	.	1ryy	.	.	1ryy	1ryy	1ryy	.	.	8.BB/L	.	8.B/L	f	8.ddL 8.g/	.	8.gg\L	f	8.B\L	.	8.ddL 8.g/	f	8.ggL 8.dd\	.	8.gg\L	f	8.ggg\L	.
.	.	.	.	.	.	.	.	.	.	.	.	.	.	.	.	.	.	.	16BB/Jk	.	16B/Jk	.	16ddJk 16g/	.	16gg\Jk	.	16B\Jk	.	16ddJk 16g/	.	16ggJk 16dd\	.	16gg\Jk	.	16ggg\Jk	.
.	.	.	.	.	.	.	.	.	.	.	.	.	.	.	.	.	.	.	4BB/	.	4B/	.	4dd 4g/	.	4gg\	.	4B\	.	4dd 4g/	.	4gg 4dd\	.	4gg\	.	4ggg\	.
.	.	.	.	.	.	.	.	.	.	.	.	.	.	.	.	.	.	.	2r	.	2r	.	2r	.	2r	.	2r	.	2r	.	2r	.	2r	.	(16ggg\LL	.
.	.	.	.	.	.	.	.	.	.	.	.	.	.	.	.	.	.	.	.	.	.	.	.	.	.	.	.	.	.	.	.	.	.	.	16fff#\)	.
.	.	.	.	.	.	.	.	.	.	.	.	.	.	.	.	.	.	.	.	.	.	.	.	.	.	.	.	.	.	.	.	.	.	.	16eee'\	.
.	.	.	.	.	.	.	.	.	.	.	.	.	.	.	.	.	.	.	.	.	.	.	.	.	.	.	.	.	.	.	.	.	.	.	16ddd'\JJ	.
.	.	.	.	.	.	.	.	.	.	.	.	.	.	.	.	.	.	.	.	.	.	.	.	.	.	.	.	.	.	.	.	.	.	.	(16ccc\LL	.
.	.	.	.	.	.	.	.	.	.	.	.	.	.	.	.	.	.	.	.	.	.	.	.	.	.	.	.	.	.	.	.	.	.	.	16bb\)	.
.	.	.	.	.	.	.	.	.	.	.	.	.	.	.	.	.	.	.	.	.	.	.	.	.	.	.	.	.	.	.	.	.	.	.	16aa'\	.
.	.	.	.	.	.	.	.	.	.	.	.	.	.	.	.	.	.	.	.	.	.	.	.	.	.	.	.	.	.	.	.	.	.	.	16gg'\JJ	.
=17	=17	=17	=17	=17	=17	=17	=17	=17	=17	=17	=17	=17	=17	=17	=17	=17	=17	=17	=17	=17	=17	=17	=17	=17	=17	=17	=17	=17	=17	=17	=17	=17	=17	=17	=17	=17
1ryy	1ryy	1ryy	1ryy	1ryy	1ryy	.	.	1ryy	.	.	1ryy	.	.	1ryy	1ryy	1ryy	.	.	8C/	p	8r	.	8r	.	8r	.	1r	.	1r	.	1r	.	1r	.	(16ff#\LL	.
.	.	.	.	.	.	.	.	.	.	.	.	.	.	.	.	.	.	.	.	.	.	.	.	.	.	p	.	.	.	.	.	.	.	.	16ee\	.
.	.	.	.	.	.	.	.	.	.	.	.	.	.	.	.	.	.	.	8r	.	8c\	.	8e 8c/	.	8a/	.	.	.	.	.	.	.	.	.	16dd#X\	.
.	.	.	.	.	.	.	.	.	.	.	.	.	.	.	.	.	.	.	.	.	.	.	.	.	.	.	.	.	.	.	.	.	.	.	16ee\JJ)	.
*	*	*	*	*	*	*	*	*	*	*	*	*	*	*	*	*	*	*	*rep	*	*rep	*	*rep	*	*rep	*	*	*	*	*	*	*	*	*	*	*
.	.	.	.	.	.	.	.	.	.	.	.	.	.	.	.	.	.	.	8C/	.	8r	.	8r	.	8r	.	.	.	.	.	.	.	.	.	(16bb\LL	.
.	.	.	.	.	.	.	.	.	.	.	.	.	.	.	.	.	.	.	.	.	.	.	.	.	.	.	.	.	.	.	.	.	.	.	16aa\	.
.	.	.	.	.	.	.	.	.	.	.	.	.	.	.	.	.	.	.	8r	.	8c\	.	8e 8c/	.	8a/	.	.	.	.	.	.	.	.	.	16gg#X\	.
*	*	*	*	*	*	*	*	*	*	*	*	*	*	*	*	*	*	*	*Xrep	*	*Xrep	*	*Xrep	*	*Xrep	*	*	*	*	*	*	*	*	*	*	*
.	.	.	.	.	.	.	.	.	.	.	.	.	.	.	.	.	.	.	.	.	.	.	.	.	.	.	.	.	.	.	.	.	.	.	16aa\JJ)	.
*	*	*	*	*	*	*	*	*	*	*	*	*	*	*	*	*	*	*	*rep	*	*rep	*	*rep	*	*rep	*	*	*	*	*	*	*	*	*	*	*
.	.	.	.	.	.	.	.	.	.	.	.	.	.	.	.	.	.	.	8C/	.	8r	.	8r	.	8r	.	.	.	.	.	.	.	.	.	(16ddd\LL	.
.	.	.	.	.	.	.	.	.	.	.	.	.	.	.	.	.	.	.	.	.	.	.	.	.	.	.	.	.	.	.	.	.	.	.	16ccc\	.
.	.	.	.	.	.	.	.	.	.	.	.	.	.	.	.	.	.	.	8r	.	8c\	.	8e 8c/	.	8a/	.	.	.	.	.	.	.	.	.	16bb\	.
*	*	*	*	*	*	*	*	*	*	*	*	*	*	*	*	*	*	*	*Xrep	*	*Xrep	*	*Xrep	*	*Xrep	*	*	*	*	*	*	*	*	*	*	*
.	.	.	.	.	.	.	.	.	.	.	.	.	.	.	.	.	.	.	.	.	.	.	.	.	.	.	.	.	.	.	.	.	.	.	16ccc\JJ)	.
*	*	*	*	*	*	*	*	*	*	*	*	*	*	*	*	*	*	*	*rep	*	*rep	*	*rep	*	*rep	*	*	*	*	*	*	*	*	*	*Xtuplet	*
.	.	.	.	.	.	.	.	.	.	.	.	.	.	.	.	.	.	.	8C/	.	8r	.	8r	.	8r	.	.	.	.	.	.	.	.	.	24fff#\LL	.
.	.	.	.	.	.	.	.	.	.	.	.	.	.	.	.	.	.	.	.	.	.	.	.	.	.	.	.	.	.	.	.	.	.	.	24eee\	.
.	.	.	.	.	.	.	.	.	.	.	.	.	.	.	.	.	.	.	.	.	.	.	.	.	.	.	.	.	.	.	.	.	.	.	24ddd#X\	.
.	.	.	.	.	.	.	.	.	.	.	.	.	.	.	.	.	.	.	8r	.	8c\	.	8e 8c/	.	8a/	.	.	.	.	.	.	.	.	.	24eee\	.
.	.	.	.	.	.	.	.	.	.	.	.	.	.	.	.	.	.	.	.	.	.	.	.	.	.	.	.	.	.	.	.	.	.	.	24fff#\	.
.	.	.	.	.	.	.	.	.	.	.	.	.	.	.	.	.	.	.	.	.	.	.	.	.	.	.	.	.	.	.	.	.	.	.	24ggg\JJ	.
*	*	*	*	*	*	*	*	*	*	*	*	*	*	*	*	*	*	*	*Xrep	*	*Xrep	*	*Xrep	*	*Xrep	*	*	*	*	*	*	*	*	*	*	*
=18	=18	=18	=18	=18	=18	=18	=18	=18	=18	=18	=18	=18	=18	=18	=18	=18	=18	=18	=18	=18	=18	=18	=18	=18	=18	=18	=18	=18	=18	=18	=18	=18	=18	=18	=18	=18
1ryy	1ryy	1ryy	1ryy	1ryy	1ryy	.	.	1ryy	.	.	1ryy	.	.	1ryy	1ryy	1ryy	.	.	8D\	.	8d\	.	8d 8B/	.	8g/	.	1r	.	1r	.	1r	.	1r	.	16ggg\LL	.
.	.	.	.	.	.	.	.	.	.	.	.	.	.	.	.	.	.	.	.	.	.	.	.	.	.	.	.	.	.	.	.	.	.	.	(16bb\	.
.	.	.	.	.	.	.	.	.	.	.	.	.	.	.	.	.	.	.	8r	.	8r	.	8r	.	8r	.	.	.	.	.	.	.	.	.	16ccc\	.
.	.	.	.	.	.	.	.	.	.	.	.	.	.	.	.	.	.	.	.	.	.	.	.	.	.	.	.	.	.	.	.	.	.	.	16ccc#X\JJ	.
*	*	*	*	*	*	*	*	*	*	*	*	*	*	*	*	*	*	*	*rep	*	*rep	*	*rep	*	*rep	*	*	*	*	*	*	*	*	*	*	*
.	.	.	.	.	.	.	.	.	.	.	.	.	.	.	.	.	.	.	8D\	.	8d\	.	8d 8B/	.	8g/	.	.	.	.	.	.	.	.	.	16ddd\LL)	.
.	.	.	.	.	.	.	.	.	.	.	.	.	.	.	.	.	.	.	.	.	.	.	.	.	.	.	.	.	.	.	.	.	.	.	(16gg\	.
.	.	.	.	.	.	.	.	.	.	.	.	.	.	.	.	.	.	.	8r	.	8r	.	8r	.	8r	.	.	.	.	.	.	.	.	.	16aa\	.
*	*	*	*	*	*	*	*	*	*	*	*	*	*	*	*	*	*	*	*Xrep	*	*Xrep	*	*Xrep	*	*Xrep	*	*	*	*	*	*	*	*	*	*	*
.	.	.	.	.	.	.	.	.	.	.	.	.	.	.	.	.	.	.	.	.	.	.	.	.	.	.	.	.	.	.	.	.	.	.	16aa#X\JJ	.
*	*	*	*	*	*	*	*	*	*	*	*	*	*	*	*	*	*	*	*rep	*	*rep	*	*rep	*	*rep	*	*	*	*	*	*	*	*	*	*	*
.	.	.	.	.	.	.	.	.	.	.	.	.	.	.	.	.	.	.	8D\	.	8d\	.	8d 8B/	.	8g/	.	.	.	.	.	.	.	.	.	16bb\LL)	.
.	.	.	.	.	.	.	.	.	.	.	.	.	.	.	.	.	.	.	.	.	.	.	.	.	.	.	.	.	.	.	.	.	.	.	(16dd\	.
.	.	.	.	.	.	.	.	.	.	.	.	.	.	.	.	.	.	.	8r	.	8r	.	8r	.	8r	.	.	.	.	.	.	.	.	.	16ee\	.
*	*	*	*	*	*	*	*	*	*	*	*	*	*	*	*	*	*	*	*Xrep	*	*Xrep	*	*Xrep	*	*Xrep	*	*	*	*	*	*	*	*	*	*	*
.	.	.	.	.	.	.	.	.	.	.	.	.	.	.	.	.	.	.	.	.	.	.	.	.	.	.	.	.	.	.	.	.	.	.	16ff#\JJ	.
*	*	*	*	*	*	*	*	*	*	*	*	*	*	*	*	*	*	*	*rep	*	*rep	*	*rep	*	*rep	*	*	*	*	*	*	*	*	*	*	*
!	!	!	!	!	!	!	!	!	!	!	!	!	!	!	!	!	!	!	!	!	!	!	!	!	!	!	!	!	!	!	!	!	!	!	!LO:SIC:v:s=16aan	!
.	.	.	.	.	.	.	.	.	.	.	.	.	.	.	.	.	.	.	8D\	.	8d\	.	8d 8B/	.	8g/	.	.	.	.	.	.	.	.	.	16aa#\LL	.
.	.	.	.	.	.	.	.	.	.	.	.	.	.	.	.	.	.	.	.	.	.	.	.	.	.	.	.	.	.	.	.	.	.	.	16gg\)	.
.	.	.	.	.	.	.	.	.	.	.	.	.	.	.	.	.	.	.	8r	.	8r	.	8r	.	8r	.	.	.	.	.	.	.	.	.	16ff#'\	.
.	.	.	.	.	.	.	.	.	.	.	.	.	.	.	.	.	.	.	.	.	.	.	.	.	.	.	.	.	.	.	.	.	.	.	16ee'\JJ	.
*	*	*	*	*	*	*	*	*	*	*	*	*	*	*	*	*	*	*	*Xrep	*	*Xrep	*	*Xrep	*	*Xrep	*	*	*	*	*	*	*	*	*	*	*
!!LO:PB:g=original
=19	=19	=19	=19	=19	=19	=19	=19	=19	=19	=19	=19	=19	=19	=19	=19	=19	=19	=19	=19	=19	=19	=19	=19	=19	=19	=19	=19	=19	=19	=19	=19	=19	=19	=19	=19	=19
1ryy	1ryy	1ryy	1ryy	1ryy	1ryy	.	.	1ryy	.	.	1ryy	.	.	1ryy	1ryy	1ryy	.	.	4C/	.	4c^<\	.	8r	.	8r	.	1r	.	1r	.	1r	.	1r	.	8ee-X'\L	.
!	!	!	!	!	!	!	!	!	!	!	!	!	!	!	!	!	!	!	!	!	!	!	!	!	!LO:TX:b:t=P:problem:diminuendolike accent	!	!	!	!	!	!	!	!	!	!	!
.	.	.	.	.	.	.	.	.	.	.	.	.	.	.	.	.	.	.	.	.	.	.	16e-XLL 16c/	.	16a^/LL	.	.	.	.	.	.	.	.	.	(16cc\L	.
.	.	.	.	.	.	.	.	.	.	.	.	.	.	.	.	.	.	.	.	.	.	.	16e-JJ 16c/	.	16a/JJ	.	.	.	.	.	.	.	.	.	16a\JJ)	.
*	*	*	*	*	*	*	*	*	*	*	*	*	*	*	*	*	*	*	*	*	*	*	*tremolo	*	*tremolo	*	*	*	*	*	*	*	*	*	*	*
.	.	.	.	.	.	.	.	.	.	.	.	.	.	.	.	.	.	.	4r	.	4r	.	8e-L 8c/	.	8a/L	.	.	.	.	.	.	.	.	.	2e-X^>/	.
.	.	.	.	.	.	.	.	.	.	.	.	.	.	.	.	.	.	.	.	.	.	.	8e- 8c/	.	8a/	.	.	.	.	.	.	.	.	.	.	.
.	.	.	.	.	.	.	.	.	.	.	.	.	.	.	.	.	.	.	2r	.	2r	.	8e- 8c/	.	8a/	.	.	.	.	.	.	.	.	.	.	.
.	.	.	.	.	.	.	.	.	.	.	.	.	.	.	.	.	.	.	.	.	.	.	8e- 8c/	.	8a/	.	.	.	.	.	.	.	.	.	.	.
.	.	.	.	.	.	.	.	.	.	.	.	.	.	.	.	.	.	.	.	.	.	.	8e- 8c/	.	8a/	.	.	.	.	.	.	.	.	.	4d^>/	.
.	.	.	.	.	.	.	.	.	.	.	.	.	.	.	.	.	.	.	.	.	.	.	8e-J 8c/	.	8a/J	.	.	.	.	.	.	.	.	.	.	.
*	*	*	*	*	*	*	*	*	*	*	*	*	*	*	*	*	*	*	*	*	*	*	*Xtremolo	*	*Xtremolo	*	*	*	*	*	*	*	*	*	*	*
=20	=20	=20	=20	=20	=20	=20	=20	=20	=20	=20	=20	=20	=20	=20	=20	=20	=20	=20	=20	=20	=20	=20	=20	=20	=20	=20	=20	=20	=20	=20	=20	=20	=20	=20	=20	=20
1ryy	1ryy	1ryy	1ryy	1ryy	1ryy	.	.	1ryy	.	.	1ryy	.	.	1ryy	1ryy	1ryy	.	.	8D\	.	8d\	.	8d 8B/	.	8g/	.	1ryy	.	1ryy	.	1ryy	.	1ryy	.	12d'/L	.
.	.	.	.	.	.	.	.	.	.	.	.	.	.	.	.	.	.	.	.	.	.	.	.	.	.	.	.	.	.	.	.	.	.	.	(12a#X/	.
.	.	.	.	.	.	.	.	.	.	.	.	.	.	.	.	.	.	.	8r	.	8r	.	8r	.	8r	.	.	.	.	.	.	.	.	.	.	.
.	.	.	.	.	.	.	.	.	.	.	.	.	.	.	.	.	.	.	.	.	.	.	.	.	.	.	.	.	.	.	.	.	.	.	12b/J)	.
*	*	*	*	*	*	*	*	*	*	*	*	*	*	*	*	*	*	*	*rep	*	*rep	*	*rep	*	*rep	*	*	*	*	*	*	*	*	*	*	*
.	.	.	.	.	.	.	.	.	.	.	.	.	.	.	.	.	.	.	8D\	.	8d\	.	8d 8B/	.	8g/	.	.	.	.	.	.	.	.	.	12g'/L	.
.	.	.	.	.	.	.	.	.	.	.	.	.	.	.	.	.	.	.	.	.	.	.	.	.	.	.	.	.	.	.	.	.	.	.	(12cc#X/	.
.	.	.	.	.	.	.	.	.	.	.	.	.	.	.	.	.	.	.	8r	.	8r	.	8r	.	8r	.	.	.	.	.	.	.	.	.	.	.
*	*	*	*	*	*	*	*	*	*	*	*	*	*	*	*	*	*	*	*Xrep	*	*Xrep	*	*Xrep	*	*Xrep	*	*	*	*	*	*	*	*	*	*	*
.	.	.	.	.	.	.	.	.	.	.	.	.	.	.	.	.	.	.	.	.	.	.	.	.	.	.	.	.	.	.	.	.	.	.	12dd/J)	.
*	*	*	*	*	*	*	*	*	*	*	*	*	*	*	*	*	*	*	*rep	*	*rep	*	*rep	*	*rep	*	*	*	*	*	*	*	*	*	*	*
.	.	.	.	.	.	.	.	.	.	.	.	.	.	.	.	.	.	.	8D\	.	8d\	.	8d 8B/	.	8g/	.	.	.	.	.	.	.	.	.	12b'\L	.
.	.	.	.	.	.	.	.	.	.	.	.	.	.	.	.	.	.	.	.	.	.	.	.	.	.	.	.	.	.	.	.	.	.	.	(12ff#\	.
.	.	.	.	.	.	.	.	.	.	.	.	.	.	.	.	.	.	.	8r	.	8r	.	8r	.	8r	.	.	.	.	.	.	.	.	.	.	.
*	*	*	*	*	*	*	*	*	*	*	*	*	*	*	*	*	*	*	*Xrep	*	*Xrep	*	*Xrep	*	*Xrep	*	*	*	*	*	*	*	*	*	*	*
.	.	.	.	.	.	.	.	.	.	.	.	.	.	.	.	.	.	.	.	.	.	.	.	.	.	.	.	.	.	.	.	.	.	.	12gg\J)	.
*	*	*	*	*	*	*	*	*	*	*	*	*	*	*	*	*	*	*	*rep	*	*rep	*	*rep	*	*rep	*	*	*	*	*	*	*	*	*	*	*
.	.	.	.	.	.	.	.	.	.	.	.	.	.	.	.	.	.	.	8D\	.	8d\	.	8d 8B/	.	8g/	.	.	.	.	.	.	.	.	.	12dd'\L	.
.	.	.	.	.	.	.	.	.	.	.	.	.	.	.	.	.	.	.	.	.	.	.	.	.	.	.	.	.	.	.	.	.	.	.	(12aa#X\	.
.	.	.	.	.	.	.	.	.	.	.	.	.	.	.	.	.	.	.	8r	.	8r	.	8r	.	8r	.	.	.	.	.	.	.	.	.	.	.
.	.	.	.	.	.	.	.	.	.	.	.	.	.	.	.	.	.	.	.	.	.	.	.	.	.	.	.	.	.	.	.	.	.	.	12bb\J)	.
*	*	*	*	*	*	*	*	*	*	*	*	*	*	*	*	*	*	*	*Xrep	*	*Xrep	*	*Xrep	*	*Xrep	*	*	*	*	*	*	*	*	*	*	*
=21	=21	=21	=21	=21	=21	=21	=21	=21	=21	=21	=21	=21	=21	=21	=21	=21	=21	=21	=21	=21	=21	=21	=21	=21	=21	=21	=21	=21	=21	=21	=21	=21	=21	=21	=21	=21
1ryy	1ryy	1ryy	1ryy	1ryy	1ryy	.	.	1ryy	.	.	1ryy	.	.	1ryy	1ryy	1ryy	.	.	8D\	.	8d\	.	8d 8B/	.	8g/	.	1ryy	.	1ryy	.	1ryy	.	1ryy	.	12gg'\L	.
.	.	.	.	.	.	.	.	.	.	.	.	.	.	.	.	.	.	.	.	.	.	.	.	.	.	.	.	.	.	.	.	.	.	.	(12ccc#X\	.
.	.	.	.	.	.	.	.	.	.	.	.	.	.	.	.	.	.	.	8r	.	8r	.	8r	.	8r	.	.	.	.	.	.	.	.	.	.	.
.	.	.	.	.	.	.	.	.	.	.	.	.	.	.	.	.	.	.	.	.	.	.	.	.	.	.	.	.	.	.	.	.	.	.	12ddd\J)	.
.	.	.	.	.	.	.	.	.	.	.	.	.	.	.	.	.	.	.	8D\	.	8d\	.	8d 8B/	.	8g/	.	.	.	.	.	.	.	.	.	12bb'\L	.
.	.	.	.	.	.	.	.	.	.	.	.	.	.	.	.	.	.	.	.	.	.	.	.	.	.	.	.	.	.	.	.	.	.	.	(12fff#\	.
.	.	.	.	.	.	.	.	.	.	.	.	.	.	.	.	.	.	.	8r	.	8r	.	8r	.	8r	.	.	.	.	.	.	.	.	.	.	.
.	.	.	.	.	.	.	.	.	.	.	.	.	.	.	.	.	.	.	.	.	.	.	.	.	.	.	.	.	.	.	.	.	.	.	12ggg\J)	.
.	.	.	.	.	.	.	.	.	.	.	.	.	.	.	.	.	.	.	4D\	.	4d\	.	4d 4B/	.	4g/	.	.	.	.	.	.	.	.	.	12ccc#X'\L	.
.	.	.	.	.	.	.	.	.	.	.	.	.	.	.	.	.	.	.	.	.	.	.	.	.	.	.	.	.	.	.	.	.	.	.	(12ddd\	.
.	.	.	.	.	.	.	.	.	.	.	.	.	.	.	.	.	.	.	.	.	.	.	.	.	.	.	.	.	.	.	.	.	.	.	12aa#X\J)	.
.	.	.	.	.	.	.	.	.	.	.	.	.	.	.	.	.	.	.	.	.	.	.	.	.	.	.	.	.	.	.	.	.	.	.	(>8qcccn/	.
.	.	.	.	.	.	.	.	.	.	.	.	.	.	.	.	.	.	.	4r	.	4r	.	4r	.	4r	.	.	.	.	.	.	.	.	.	12bb\L)	.
.	.	.	.	.	.	.	.	.	.	.	.	.	.	.	.	.	.	.	.	.	.	.	.	.	.	.	.	.	.	.	.	.	.	.	12aan'\	.
.	.	.	.	.	.	.	.	.	.	.	.	.	.	.	.	.	.	.	.	.	.	.	.	.	.	.	.	.	.	.	.	.	.	.	12gg'\J	.
*	*	*	*	*	*	*	*	*	*	*	*	*	*	*	*	*	*	*	*	*	*	*	*clefC3	*	*	*	*	*	*	*	*	*	*	*	*	*
!!LO:PB:g=original
=22	=22	=22	=22	=22	=22	=22	=22	=22	=22	=22	=22	=22	=22	=22	=22	=22	=22	=22	=22	=22	=22	=22	=22	=22	=22	=22	=22	=22	=22	=22	=22	=22	=22	=22	=22	=22
.	.	.	.	.	.	.	.	.	.	.	.	.	.	.	.	.	.	.	.	.	.	.	.	.	.	.	.	.	.	.	.	.	.	.	(8qgg#X/	.
*	*	*	*	*	*	*	*	*	*	*	*	*	*	*	*	*	*	*	*	*	*	*	*	*	*	*	*	*	*^	*	*	*	*	*	*	*
1ryy	1ryy	1ryy	1ryy	1ryy	1ryy	.	.	1ryy	.	.	1ryy	.	.	1ryy	1ryy	1ryy	.	.	4C/	.	4c\	.	8r	.	8r	.	4C/	.	8r	8ryy	.	8r	.	1r	.	1aaT)	.
!	!	!	!	!	!	!	!	!	!	!	!	!	!	!	!	!	!	!	!	!	!	!	!	!	!LO:TX:b:t=P:problem:diminuendolike accent	!	!	!	!	!	!	!	!	!	!	!	!
.	.	.	.	.	.	.	.	.	.	.	.	.	.	.	.	.	.	.	.	.	.	.	16eLL 16c\	.	16aLL 16g^/	.	.	.	16eeLL 16cc^\	8ryy	.	16aLL 16g^>/	.	.	.	.	.
.	.	.	.	.	.	.	.	.	.	.	.	.	.	.	.	.	.	.	.	.	.	.	16eJJ 16c\	.	16aJJ 16g/	.	.	.	16eeJJ 16cc\	.	.	16aJJ 16g/	.	.	.	.	.
*	*	*	*	*	*	*	*	*	*	*	*	*	*	*	*	*	*	*	*	*	*	*	*tremolo	*	*tremolo	*	*	*	*	*	*	*	*	*	*	*	*
*	*	*	*	*	*	*	*	*	*	*	*	*	*	*	*	*	*	*	*	*	*	*	*2\right	*	*	*	*	*	*	*	*	*	*	*	*	*	*
.	.	.	.	.	.	.	.	.	.	.	.	.	.	.	.	.	.	.	4r	.	4r	.	8eL 8c\	.	8aL 8g/	.	4r	.	2.ee/	2.cc\	.	2.a 2.g/	.	.	.	.	.
.	.	.	.	.	.	.	.	.	.	.	.	.	.	.	.	.	.	.	.	.	.	.	8e 8c\	.	8a 8g/	.	.	.	.	.	.	.	.	.	.	.	.
.	.	.	.	.	.	.	.	.	.	.	.	.	.	.	.	.	.	.	2r	.	2r	.	8e 8c\	.	8a 8g/	.	2r	.	.	.	.	.	.	.	.	.	.
.	.	.	.	.	.	.	.	.	.	.	.	.	.	.	.	.	.	.	.	.	.	.	8e 8c\	.	8a 8g/	.	.	.	.	.	.	.	.	.	.	.	.
.	.	.	.	.	.	.	.	.	.	.	.	.	.	.	.	.	.	.	.	.	.	.	8e 8c\	.	8a 8g/	.	.	.	.	.	.	.	.	.	.	.	.
.	.	.	.	.	.	.	.	.	.	.	.	.	.	.	.	.	.	.	.	.	.	.	8eJ 8c\	.	8aJ 8g/	.	.	.	.	.	.	.	.	.	.	.	.
*	*	*	*	*	*	*	*	*	*	*	*	*	*	*	*	*	*	*	*	*	*	*	*	*	*	*	*	*	*v	*v	*	*	*	*	*	*	*
*	*	*	*	*	*	*	*	*	*	*	*	*	*	*	*	*	*	*	*	*	*	*	*Xtremolo	*	*Xtremolo	*	*	*	*	*	*	*	*	*	*	*
*	*	*	*	*	*	*	*	*	*	*	*	*	*	*	*	*	*	*	*	*	*	*	*clefG2	*	*	*	*	*	*	*	*	*	*	*	*	*
=23	=23	=23	=23	=23	=23	=23	=23	=23	=23	=23	=23	=23	=23	=23	=23	=23	=23	=23	=23	=23	=23	=23	=23	=23	=23	=23	=23	=23	=23	=23	=23	=23	=23	=23	=23	=23
.	.	.	.	.	.	.	.	.	.	.	.	.	.	.	.	.	.	.	.	.	.	.	.	.	.	.	.	.	.	.	.	.	.	.	(8qccc#X/	.
1ryy	1ryy	1ryy	1ryy	1ryy	1ryy	.	.	1ryy	.	.	1ryy	.	.	1ryy	1ryy	1ryy	.	.	4D\	.	4d\	.	8r	.	8r	.	4C/	.	8r	.	8r	.	1r	.	2.dddT\)	.
!	!	!	!	!	!	!	!	!	!	!	!	!	!	!	!	!	!	!	!	!	!	!	!	!	!	!	!	!	!	!LO:DY:a	!	!	!	!	!	!
.	.	.	.	.	.	.	.	.	.	.	.	.	.	.	.	.	.	.	.	.	.	.	16aLL 16d/	.	16ddLL 16f#/	.	.	.	16dd\LL	.	16ddLL 16f#/	<	.	.	.	.
.	.	.	.	.	.	.	.	.	.	.	.	.	.	.	.	.	.	.	.	.	.	.	16aJJ 16d/	.	16ddJJ 16f#/	<	.	.	16dd\JJ	.	16ddJJ 16f#/	.	.	.	.	.
*	*	*	*	*	*	*	*	*	*	*	*	*	*	*	*	*	*	*	*	*	*	*	*tremolo	*	*tremolo	*	*	*	*	*	*	*	*	*	*	*
.	.	.	.	.	.	.	.	.	.	.	.	.	.	.	.	.	.	.	4r	.	4r	.	8aL 8d/	.	8ddL 8f#/	.	4r	.	2.dd\	.	2.dd 2.f#/	.	.	.	.	.
.	.	.	.	.	.	.	.	.	.	.	.	.	.	.	.	.	.	.	.	.	.	.	8a 8d/	.	8dd 8f#/	.	.	.	.	.	.	.	.	.	.	.
.	.	.	.	.	.	.	.	.	.	.	.	.	.	.	.	.	.	.	2r	.	2r	.	8a 8d/	.	8dd 8f#/	.	2r	.	.	.	.	.	.	.	.	.
.	.	.	.	.	.	.	.	.	.	.	.	.	.	.	.	.	.	.	.	.	.	.	8a 8d/	.	8dd 8f#/	.	.	.	.	.	.	.	.	.	.	.
.	.	.	.	.	.	.	.	.	.	.	.	.	.	.	.	.	.	.	.	.	.	.	8a 8d/	.	8dd 8f#/	.	.	.	.	.	.	.	.	.	(16ccc#X\LL	.
.	.	.	.	.	.	.	.	.	.	.	.	.	.	.	.	.	.	.	.	.	.	.	.	.	.	.	.	.	.	.	.	.	.	.	16ddd\	.
.	.	.	.	.	.	.	.	.	.	.	.	.	.	.	.	.	.	.	.	.	.	.	8aJ 8d/	.	8ddJ 8f#/	[	.	.	.	.	.	.	.	.	16eee\	.
.	.	.	.	.	.	.	.	.	.	.	.	.	.	.	.	.	.	.	.	.	.	.	.	.	.	.	.	.	.	.	.	[	.	.	16fff#\JJ	.
*	*	*	*	*	*	*	*	*	*	*	*	*	*	*	*	*	*	*	*	*	*	*	*Xtremolo	*	*Xtremolo	*	*	*	*	*	*	*	*	*	*	*
=24	=24	=24	=24	=24	=24	=24	=24	=24	=24	=24	=24	=24	=24	=24	=24	=24	=24	=24	=24	=24	=24	=24	=24	=24	=24	=24	=24	=24	=24	=24	=24	=24	=24	=24	=24	=24
1ryy	1ryy	1ryy	1ryy	1ryy	1ryy	.	.	1ryy	.	.	1ryy	.	.	1ryy	1ryy	1ryy	.	.	4GG/	.	4d 4G/	.	4g/	.	4b 4g/	.	4GG/	.	4dd 4g/	.	4b 4g/	.	2r	.	4ggg\)	.
.	.	.	.	.	.	.	.	.	.	.	.	.	.	.	.	.	.	.	4r	.	4r	f	4r	.	4r	f	4r	.	4r	.	4r	.	.	f	4r	.
.	.	.	.	.	.	.	.	.	.	.	.	.	.	.	.	.	.	.	4E\	.	4e\	.	4b 4g/	.	4gg 4b 4e\	.	4E\	.	4dd 4g/	.	4b 4g/	.	4gg\	.	4ggg\	.
.	.	.	.	.	.	.	.	.	.	.	.	.	.	.	.	.	.	.	4AA/	.	4e 4A/	.	4a 4g/	.	4cc#X 4e/	.	4AA/	.	4ee 4g/	.	4cc#X 4g/	.	4gg\	.	4ccc#X\	.
=25	=25	=25	=25	=25	=25	=25	=25	=25	=25	=25	=25	=25	=25	=25	=25	=25	=25	=25	=25	=25	=25	=25	=25	=25	=25	=25	=25	=25	=25	=25	=25	=25	=25	=25	=25	=25
*	*	*	*	*	*	*	*	*	*	*	*	*	*	*	*	*	*	*	*	*	*	*	*^	*	*^	*	*	*	*^	*	*	*	*	*	*	*
1ryy	1ryy	1ryy	1ryy	1ryy	2r	.	.	2r	.	.	2r	.	.	1ryy	1ryy	1ryy	.	.	4D\	.	4d\	.	4a 4f#/	4ryy	.	4dd 4f#/	4ryy	.	4D/	.	4dd/	4dd\	.	4dd 4f#/	.	4ff#\	.	4ddd\	.
.	.	.	.	.	.	.	.	.	.	.	.	.	.	.	.	.	.	.	8.r	.	8.r	.	8.r	8.ryy	.	8.r	8.ryy	.	4r	.	4r	4ryy	.	4r	.	4r	.	4r	.
.	.	.	.	.	.	.	.	.	.	.	.	.	.	.	.	.	.	.	16D\	.	16D/	.	16d/	16d\	.	16d/	16d\	.	.	.	.	.	.	.	.	.	.	.	.
.	.	.	.	.	4r	.	.	4r	.	.	4r	.	.	.	.	.	.	.	4D\	.	4D/	.	4d/	4d\	.	4d/	4d\	.	2r	.	2r	2ryy	.	2r	.	2r	.	2r	.
!	!	!	!	!	!	!	!	!	!	!	!LO:TX:a:i:t=Solo	!	!	!	!	!	!	!	!	!	!	!	!	!	!	!	!	!	!	!	!	!	!	!	!	!	!	!	!
.	.	.	.	.	4G\	.	.	4B\	.	.	4d\	O!	.	.	.	.	.	.	4G\;	.	4d 4B/	.	4r	4ryy	.	4r	4ryy	.	.	.	.	.	.	.	.	.	.	.	.
*	*	*	*	*	*	*	*	*	*	*	*	*	*	*	*	*	*	*	*	*	*	*	*v	*v	*	*	*	*	*	*	*v	*v	*	*	*	*	*	*	*
*	*	*	*	*	*	*	*	*	*	*	*	*	*	*	*	*	*	*	*	*	*	*	*	*	*v	*v	*	*	*	*	*	*	*	*	*	*	*
=26	=26	=26	=26	=26	=26	=26	=26	=26	=26	=26	=26	=26	=26	=26	=26	=26	=26	=26	=26	=26	=26	=26	=26	=26	=26	=26	=26	=26	=26	=26	=26	=26	=26	=26	=26	=26
*	*	*	*	*	*	*	*	*	*	*	*	*	*	*	*	*	*	*	*	*	*^	*	*	*	*	*	*	*	*	*	*	*	*	*	*	*
1ryy	1ryy	1ryy	1ryy	1ryy	4C/	.	.	4c\	.	.	4e\	Sa-	.	1ryy	1ryy	1ryy	.	.	4C/	.	4e/	4c\	.	1r	.	1r	.	1ryy	.	1ryy	.	1ryy	.	1ryy	.	1ryy	.
.	.	.	.	.	4G\	.	.	4B\	.	.	4d\	-lu-	.	.	.	.	.	.	4G\	.	4d/	4B\	.	.	.	.	.	.	.	.	.	.	.	.	.	.	.
.	.	.	.	.	4.A\	.	.	4.A\	.	.	4.c\	-ta-	.	.	.	.	.	.	4.A\	.	4.c/	4.A\	.	.	.	.	.	.	.	.	.	.	.	.	.	.	.
.	.	.	.	.	8G\	.	.	8B\	.	.	8d\	-ris	.	.	.	.	.	.	8G\	.	8d/	8B\	.	.	.	.	.	.	.	.	.	.	.	.	.	.	.
!!LO:PB:g=original
=27	=27	=27	=27	=27	=27	=27	=27	=27	=27	=27	=27	=27	=27	=27	=27	=27	=27	=27	=27	=27	=27	=27	=27	=27	=27	=27	=27	=27	=27	=27	=27	=27	=27	=27	=27	=27	=27
1ryy	1ryy	1ryy	1ryy	1ryy	4..C/	.	.	4..c\	.	.	4..e\	ho-	.	1ryy	1ryy	1ryy	.	.	4..C/	.	4..e/	4..c\	.	1r	.	1r	.	1r	.	1r	.	1r	.	1r	.	16r	.
.	.	.	.	.	.	.	.	.	.	.	.	.	.	.	.	.	.	.	.	.	.	.	.	.	.	.	.	.	.	.	.	.	.	.	.	(16g/LL	.
.	.	.	.	.	.	.	.	.	.	.	.	.	.	.	.	.	.	.	.	.	.	.	.	.	.	.	.	.	.	.	.	.	.	.	.	16cc/	.
.	.	.	.	.	.	.	.	.	.	.	.	.	.	.	.	.	.	.	.	.	.	.	.	.	.	.	.	.	.	.	.	.	.	.	.	16ee/JJ	.
.	.	.	.	.	.	.	.	.	.	.	.	.	.	.	.	.	.	.	.	.	.	.	.	.	.	.	.	.	.	.	.	.	.	.	.	16gg\LL	.
.	.	.	.	.	.	.	.	.	.	.	.	.	.	.	.	.	.	.	.	.	.	.	.	.	.	.	.	.	.	.	.	.	.	.	.	16ccc\	.
.	.	.	.	.	.	.	.	.	.	.	.	.	.	.	.	.	.	.	.	.	.	.	.	.	.	.	.	.	.	.	.	.	.	.	.	16eee\	.
.	.	.	.	.	16E\	.	.	16c\	.	.	16g\	-sti-	.	.	.	.	.	.	16E\	.	16g/	16c\	.	.	.	.	.	.	.	.	.	.	.	.	.	16ggg\JJ)	.
.	.	.	.	.	4G\	.	.	4B\	.	.	4d\	-a	.	.	.	.	.	.	4G\	.	4d/	4B\	.	.	.	.	.	.	.	.	.	.	.	.	.	4ddd\	.
.	.	.	.	.	4G\	.	.	4B\	.	.	4d\	que	.	.	.	.	.	.	4G\	.	4d/	4B\	.	.	.	.	.	.	.	.	.	.	.	.	.	4r	.
=28	=28	=28	=28	=28	=28	=28	=28	=28	=28	=28	=28	=28	=28	=28	=28	=28	=28	=28	=28	=28	=28	=28	=28	=28	=28	=28	=28	=28	=28	=28	=28	=28	=28	=28	=28	=28	=28
1ryy	1ryy	1ryy	1ryy	1ryy	4F#\	.	.	4A/	.	.	4d\	cael-	.	1ryy	1ryy	1ryy	.	.	2F#\	.	4d/	2A\	.	1r	.	1r	.	1r	.	1r	.	1r	.	1r	.	1r	.
.	.	.	.	.	4F#\	.	.	4A/	.	.	4c\	-li	.	.	.	.	.	.	.	.	4c/	.	.	.	.	.	.	.	.	.	.	.	.	.	.	.	.
.	.	.	.	.	4G\	.	.	4G/	.	.	4B\	pan-	.	.	.	.	.	.	4G\	.	4B/	4G\	.	.	.	.	.	.	.	.	.	.	.	.	.	.	.
.	.	.	.	.	4C/	.	.	4A/	.	.	8d\L	-dis	.	.	.	.	.	.	4C/	.	8d/L	4A\	.	.	.	.	.	.	.	.	.	.	.	.	.	.	.
.	.	.	.	.	.	.	.	.	.	.	8c\J	.	.	.	.	.	.	.	.	.	8c/J	.	.	.	.	.	.	.	.	.	.	.	.	.	.	.	.
=29	=29	=29	=29	=29	=29	=29	=29	=29	=29	=29	=29	=29	=29	=29	=29	=29	=29	=29	=29	=29	=29	=29	=29	=29	=29	=29	=29	=29	=29	=29	=29	=29	=29	=29	=29	=29	=29
1ryy	1ryy	1ryy	1ryy	1ryy	4..D\	.	.	(8G/L	.	.	(8B\L	ho-	.	1ryy	1ryy	1ryy	.	.	4..D\	.	4..B/	4..G\	.	1r	.	1r	.	1ryy	.	1r	.	1ryy	.	1ryy	.	1ryy	.
.	.	.	.	.	.	.	.	32G/LL	.	.	32B\LL	.	.	.	.	.	.	.	.	.	.	.	.	.	.	.	.	.	.	.	.	.	.	.	.	.	.
.	.	.	.	.	.	.	.	32A/	.	.	32c\	.	.	.	.	.	.	.	.	.	.	.	.	.	.	.	.	.	.	.	.	.	.	.	.	.	.
.	.	.	.	.	.	.	.	32G/	.	.	32B\	.	.	.	.	.	.	.	.	.	.	.	.	.	.	.	.	.	.	.	.	.	.	.	.	.	.
.	.	.	.	.	.	.	.	32F#/JJJ	.	.	32A\JJJ)	.	.	.	.	.	.	.	.	.	.	.	.	.	.	.	.	.	.	.	.	.	.	.	.	.	.
.	.	.	.	.	.	.	.	8.G/)	.	.	8.B\	.	.	.	.	.	.	.	.	.	.	.	.	.	.	.	.	.	.	.	.	.	.	.	.	.	.
.	.	.	.	.	16D\	.	.	16A/	.	.	16c\	-sti-	.	.	.	.	.	.	16D\	.	16c/	16A\	.	.	.	.	.	.	.	.	.	.	.	.	.	.	.
.	.	.	.	.	4D\	.	.	4F#/	.	.	4A\	-um	.	.	.	.	.	.	4D\	.	4A/	4F#\	.	.	.	.	.	.	.	.	.	.	.	.	.	.	.
.	.	.	.	.	4D\	.	.	8.F#/	.	.	8.A\	Bel-	.	.	.	.	.	.	4D\	.	8.A/L	4F#\	.	.	.	.	.	.	.	.	.	.	.	.	.	.	.
.	.	.	.	.	.	.	.	16F#/	.	.	16d\	-la	.	.	.	.	.	.	.	.	16d/Jk	.	.	.	.	.	.	.	.	.	.	.	.	.	.	.	.
*	*	*	*	*	*	*	*	*	*	*	*	*	*	*	*	*	*	*	*	*	*v	*v	*	*	*	*	*	*	*	*	*	*	*	*	*	*	*
!!LO:PB:g=original
=30	=30	=30	=30	=30	=30	=30	=30	=30	=30	=30	=30	=30	=30	=30	=30	=30	=30	=30	=30	=30	=30	=30	=30	=30	=30	=30	=30	=30	=30	=30	=30	=30	=30	=30	=30	=30
*	*	*	*	*	*	*	*	*	*	*	*2\right	*	*	*	*	*	*	*	*	*	*	*	*	*	*	*	*	*	*	*	*	*	*	*	*	*
!	!	!	!	!	!	!	!	!	!	!	!	!	!	!	!	!	!	!	!	!	!	!	!	!	!	!	!	!	!	!	!	!	!	!	!LO:TX:t=P:problem:fragment "vita sine termino" w wpisany w złym miejscu	!
1ryy	1ryy	1ryy	2r	2ee-X 2e-X/	2r	.	.	1r	.	.	(2e-X\	.	.	1ryy	1ryy	1ryy	.	.	1ryy	.	1ryy	.	1ryy	.	1ryy	.	1ryy	.	1ryy	.	1ryy	.	1ryy	.	1ryy	.
.	.	.	4r	4dd 4d/	4r	.	.	.	.	.	4d\)	.	.	.	.	.	.	.	.	.	.	.	.	.	.	.	.	.	.	.	.	.	.	.	.	.
.	.	.	4D\	4dd 4d/	(4D\	.	.	.	.	.	(4d\	.	.	.	.	.	.	.	.	.	.	.	.	.	.	.	.	.	.	.	.	.	.	.	.	.
=31	=31	=31	=31	=31	=31	=31	=31	=31	=31	=31	=31	=31	=31	=31	=31	=31	=31	=31	=31	=31	=31	=31	=31	=31	=31	=31	=31	=31	=31	=31	=31	=31	=31	=31	=31	=31
*	*	*	*2\right	*	*2\right	*	*	*	*	*	*	*	*	*	*	*	*	*	*	*	*	*	*	*	*	*	*	*	*	*	*	*	*	*	*	*
1ryy	1ryy	1ryy	2E-X\	2cc 2c/	2E-X\)	.	.	2r	.	.	2c\)	.	.	1ryy	1ryy	1ryy	.	.	1ryy	.	1ryy	.	1ryy	.	1ryy	.	1ryy	.	1ryy	.	1ryy	.	1ryy	.	1ryy	.
.	.	.	4D\	4b-X 4B-X/	4D\	.	.	4r	.	.	4B-X\	.	.	.	.	.	.	.	.	.	.	.	.	.	.	.	.	.	.	.	.	.	.	.	.	.
.	.	.	4D\	4b- 4g 4d/	(4D\	.	.	(4G/	.	.	(4B-\	.	.	.	.	.	.	.	.	.	.	.	.	.	.	.	.	.	.	.	.	.	.	.	.	.
=32	=32	=32	=32	=32	=32	=32	=32	=32	=32	=32	=32	=32	=32	=32	=32	=32	=32	=32	=32	=32	=32	=32	=32	=32	=32	=32	=32	=32	=32	=32	=32	=32	=32	=32	=32	=32
*	*	*	*	*^	*	*	*	*	*	*	*	*	*	*	*	*	*	*	*	*	*	*	*	*	*	*	*	*	*	*	*	*	*	*	*	*
!	!	!	!	!	!	!LO:N:vis=8..	!	!	!	!	!	!	!	!	!	!	!	!	!	!	!	!	!	!	!	!	!	!	!	!	!	!	!	!	!	!	!
1ryy	1ryy	1ryy	2c 2C\	2a 2f# 2d/	2ryy	8.C/)	.	.	8.F#/)	.	.	4..A/)	.	.	1ryy	1ryy	1ryy	.	.	1ryy	.	1ryy	.	1ryy	.	1ryy	.	1ryy	.	1ryy	.	1ryy	.	1ryy	.	1ryy	.
.	.	.	.	.	.	16C/	.	.	16F#/	.	.	.	.	.	.	.	.	.	.	.	.	.	.	.	.	.	.	.	.	.	.	.	.	.	.	.	.
.	.	.	.	.	.	4C/	.	.	4F#/	.	.	.	.	.	.	.	.	.	.	.	.	.	.	.	.	.	.	.	.	.	.	.	.	.	.	.	.
.	.	.	.	.	.	.	.	.	.	.	.	16A/	.	.	.	.	.	.	.	.	.	.	.	.	.	.	.	.	.	.	.	.	.	.	.	.	.
*	*	*	*	*	*2\right	*	*	*	*	*	*	*	*	*	*	*	*	*	*	*	*	*	*	*	*	*	*	*	*	*	*	*	*	*	*	*	*
.	.	.	4B-X 4BB-X\	4g/	2d\	(4BB-X/	.	.	2G/	.	.	4G/	.	.	.	.	.	.	.	.	.	.	.	.	.	.	.	.	.	.	.	.	.	.	.	.	.
.	.	.	4G 4GG\	4b-X/	.	4GG/)	.	.	.	.	.	4B-X\	.	.	.	.	.	.	.	.	.	.	.	.	.	.	.	.	.	.	.	.	.	.	.	.	.
*	*	*	*	*v	*v	*	*	*	*	*	*	*	*	*	*	*	*	*	*	*	*	*	*	*	*	*	*	*	*	*	*	*	*	*	*	*	*
=33	=33	=33	=33	=33	=33	=33	=33	=33	=33	=33	=33	=33	=33	=33	=33	=33	=33	=33	=33	=33	=33	=33	=33	=33	=33	=33	=33	=33	=33	=33	=33	=33	=33	=33	=33	=33
1ryy	1ryy	1ryy	2.D 2.DD/	2.dd 2.f# 2.d/	2.D\	.	.	2.F#/	.	.	2.d\	.	.	1ryy	1ryy	1ryy	.	.	1ryy	.	1ryy	.	1ryy	.	1ryy	.	1ryy	.	1ryy	.	1ryy	.	1ryy	.	1ryy	.
!	!	!	!	!	!	!	!LO:DY:a:rj	!	!	!	!	!	!LO:DY:a:rj	!	!	!	!	!	!	!	!	!	!	!	!	!	!	!	!	!	!	!	!	!	!	!
.	.	.	4c 4C\	4dd 4f# 4d/	4Cn/	.	f	(4F#/	.	.	[4d\	.	f	.	.	.	.	.	.	.	.	.	.	.	.	.	.	.	.	.	.	.	.	.	.	.
=34	=34	=34	=34	=34	=34	=34	=34	=34	=34	=34	=34	=34	=34	=34	=34	=34	=34	=34	=34	=34	=34	=34	=34	=34	=34	=34	=34	=34	=34	=34	=34	=34	=34	=34	=34	=34
*	*	*	*	*^	*	*	*	*	*	*	*	*	*	*	*	*	*	*	*	*	*	*	*	*	*	*	*	*	*	*	*	*	*	*	*	*
1ryy	1ryy	1ryy	2.B 2.BB\	[2dd/	1g	2BB/	.	.	2G/)	.	.	2d\]	.	.	1ryy	1ryy	1ryy	.	.	1ryy	.	1ryy	.	1ryy	.	1ryy	.	1ryy	.	1ryy	.	1ryy	.	1ryy	.	1ryy	.
.	.	.	.	4gg 4dd/]	.	4BB/	.	.	4G/	.	.	4g\	.	.	.	.	.	.	.	.	.	.	.	.	.	.	.	.	.	.	.	.	.	.	.	.	.
.	.	.	4c 4C\	4ee 4cc/	.	4C/	.	.	4c\	.	.	4e\	.	.	.	.	.	.	.	.	.	.	.	.	.	.	.	.	.	.	.	.	.	.	.	.	.
*	*	*	*	*v	*v	*	*	*	*	*	*	*	*	*	*	*	*	*	*	*	*	*	*	*	*	*	*	*	*	*	*	*	*	*	*	*	*
!!LO:PB:g=original
=35	=35	=35	=35	=35	=35	=35	=35	=35	=35	=35	=35	=35	=35	=35	=35	=35	=35	=35	=35	=35	=35	=35	=35	=35	=35	=35	=35	=35	=35	=35	=35	=35	=35	=35	=35	=35
!	!	!	!	!	!	!	!	!	!	!	!	!	!	!	!	!	!	!	!	!	!	!	!	!	!	!	!	!	!	!	!	!	!	!	!LO:TX:t=P:problem:zbędne 5 pustych taktów	!
1ryy	1ryy	1ryy	1ryy	1ryy	1ryy	.	.	1ryy	.	.	1ryy	.	.	1ryy	1ryy	1ryy	.	.	1ryy	.	1ryy	.	1ryy	.	1ryy	.	1ryy	.	1ryy	.	1ryy	.	1ryy	.	1ryy	.
=36	=36	=36	=36	=36	=36	=36	=36	=36	=36	=36	=36	=36	=36	=36	=36	=36	=36	=36	=36	=36	=36	=36	=36	=36	=36	=36	=36	=36	=36	=36	=36	=36	=36	=36	=36	=36
1ryy	1ryy	1ryy	1ryy	1ryy	1ryy	.	.	1ryy	.	.	1ryy	.	.	1ryy	1ryy	1ryy	.	.	1ryy	.	1ryy	.	1ryy	.	1ryy	.	1ryy	.	1ryy	.	1ryy	.	1ryy	.	1ryy	.
=37	=37	=37	=37	=37	=37	=37	=37	=37	=37	=37	=37	=37	=37	=37	=37	=37	=37	=37	=37	=37	=37	=37	=37	=37	=37	=37	=37	=37	=37	=37	=37	=37	=37	=37	=37	=37
1ryy	1ryy	1ryy	1ryy	1ryy	1ryy	.	.	1ryy	.	.	1ryy	.	.	1ryy	1ryy	1ryy	.	.	1ryy	.	1ryy	.	1ryy	.	1ryy	.	1ryy	.	1ryy	.	1ryy	.	1ryy	.	1ryy	.
=38	=38	=38	=38	=38	=38	=38	=38	=38	=38	=38	=38	=38	=38	=38	=38	=38	=38	=38	=38	=38	=38	=38	=38	=38	=38	=38	=38	=38	=38	=38	=38	=38	=38	=38	=38	=38
1ryy	1ryy	1ryy	1ryy	1ryy	1ryy	.	.	1ryy	.	.	1ryy	.	.	1ryy	1ryy	1ryy	.	.	1ryy	.	1ryy	.	1ryy	.	1ryy	.	1ryy	.	1ryy	.	1ryy	.	1ryy	.	1ryy	.
=39	=39	=39	=39	=39	=39	=39	=39	=39	=39	=39	=39	=39	=39	=39	=39	=39	=39	=39	=39	=39	=39	=39	=39	=39	=39	=39	=39	=39	=39	=39	=39	=39	=39	=39	=39	=39
1ryy	1ryy	1ryy	1ryy	1ryy	1ryy	.	.	1ryy	.	.	1ryy	.	.	1ryy	1ryy	1ryy	.	.	1ryy	.	1ryy	.	1ryy	.	1ryy	.	1ryy	.	1ryy	.	1ryy	.	1ryy	.	1ryy	.
!!LO:PB:g=original
=40	=40	=40	=40	=40	=40	=40	=40	=40	=40	=40	=40	=40	=40	=40	=40	=40	=40	=40	=40	=40	=40	=40	=40	=40	=40	=40	=40	=40	=40	=40	=40	=40	=40	=40	=40	=40
*	*	*	*	*^	*	*	*	*	*	*	*	*	*	*	*	*	*	*	*^	*	*^	*	*	*	*	*	*	*	*	*	*	*	*	*	*	*
!	!	!	!	!	!	!	!	!LO:DY:a	!	!	!	!	!	!LO:DY:a	!	!	!	!	!	!	!	!	!	!	!	!	!	!	!	!	!	!	!	!	!	!	!	!	!
1ryy	1ryy	1ryy	2.C 2.CC/	(4.dd/	2.g\	2E\	.	>	2G/	.	.	(4.d\	pre-	>	1r	1r	1r	.	.	2.E\	1r	.	(4.d/	2.G\	.	1r	.	1r	.	1ryy	.	1ryy	.	1ryy	.	1ryy	.	1ryy	.
.	.	.	.	16ee/LL)	.	.	.	]	.	.	.	16e\LL	.	]	.	.	.	.	.	.	.	.	16e/LL	.	.	.	.	.	.	.	.	.	.	.	.	.	.	.	.
.	.	.	.	16dd/JJ	.	.	.	.	.	.	.	16d\JJ)	.	.	.	.	.	.	.	.	.	.	16d/JJ)	.	.	.	.	.	.	.	.	.	.	.	.	.	.	.	.
.	.	.	.	4cc#X/	.	4E\	.	.	4G/	.	.	4c#X\	munt	.	.	.	.	.	.	.	.	.	4c#X/	.	.	.	.	.	.	.	.	.	.	.	.	.	.	.	.
.	.	.	4D 4DD/	4dd/	4a\	4F#\	.	.	4A\	.	.	4d\	ho-	.	.	.	.	.	.	4F#\	.	.	4d/	4A\	.	.	.	.	.	.	.	.	.	.	.	.	.	.	.
=41	=41	=41	=41	=41	=41	=41	=41	=41	=41	=41	=41	=41	=41	=41	=41	=41	=41	=41	=41	=41	=41	=41	=41	=41	=41	=41	=41	=41	=41	=41	=41	=41	=41	=41	=41	=41	=41	=41	=41
!	!	!	!	!	!	!	!	!	!	!	!	!	!	!	!	!	!	!	!	!	!LO:N:vis=2	!	!	!	!	!	!	!	!	!	!	!	!	!	!	!	!	!	!
1ryy	1ryy	1ryy	2.E 2.EE/	2a/	2g\	4..G\	.	.	4..B\	.	.	4..B\	-sti-	.	1r	1r	1r	.	.	4..G/	4..rGG	.	4..B/	4..G\	.	2r	.	2r	.	1ryy	.	1ryy	.	1ryy	.	1ryy	.	1ryy	.
!	!	!	!	!	!	!	!	!	!	!	!	!	!	!	!	!	!	!	!	!	!LO:N:vis=4	!	!	!	!	!	!	!	!	!	!	!	!	!	!	!	!	!	!
.	.	.	.	.	.	16G\	.	.	16B\	.	.	16e\	-li-	.	.	.	.	.	.	16G/	16rGG	.	16e/	16B\	.	.	.	.	.	.	.	.	.	.	.	.	.	.	.
.	.	.	.	4ee/	4b\	4G\	.	.	4B\	.	.	4e\	-a	.	.	.	.	.	.	4G/	8G\	p	4e/	4B\	.	4r	.	4r	.	.	.	.	.	.	.	.	.	.	.
.	.	.	.	.	.	.	.	.	.	.	.	.	.	.	.	.	.	.	.	.	8rGG	.	.	.	.	.	.	.	.	.	.	.	.	.	.	.	.	.	.
.	.	.	4F# 4FF#/	4cc#X/	4a\	4G\	.	.	4A\	.	.	4c#X\	da	.	.	.	.	.	.	4G/	4ryy	.	4c#X/	4A\	.	8r	.	8r	.	.	.	.	.	.	.	.	.	.	.
.	.	.	.	.	.	.	.	.	.	.	.	.	.	.	.	.	.	.	.	.	.	.	.	.	.	8A/	.	8c#X/	.	.	.	.	.	.	.	.	.	.	.
=42	=42	=42	=42	=42	=42	=42	=42	=42	=42	=42	=42	=42	=42	=42	=42	=42	=42	=42	=42	=42	=42	=42	=42	=42	=42	=42	=42	=42	=42	=42	=42	=42	=42	=42	=42	=42	=42	=42	=42
*	*	*	*	*	*	*	*	*	*2\right	*	*	*	*	*	*	*	*	*	*	*	*	*	*	*	*	*	*	*	*	*	*	*	*	*	*	*	*	*	*
1ryy	1ryy	1ryy	2.F# 2.FF#/	2.dd/	2.a\	2.F#\	.	.	2.A\	.	.	2.d\	ro-	<	1r	1r	1r	.	.	2.F#/	8F#\	.	2.d/	2.A\	.	8rd	.	8rf	<	1ryy	.	1ryy	.	1ryy	.	1ryy	.	1ryy	.
.	.	.	.	.	.	.	.	<	.	.	.	.	.	.	.	.	.	.	.	.	8rGG	.	.	.	.	8A/	.	8d/	.	.	.	.	.	.	.	.	.	.	.
.	.	.	.	.	.	.	.	.	.	.	.	.	.	.	.	.	.	.	.	.	8F#\	.	.	.	.	8rd	.	8rf	.	.	.	.	.	.	.	.	.	.	.
.	.	.	.	.	.	.	.	.	.	.	.	.	.	.	.	.	.	.	.	.	8rEE	.	.	.	.	8A/	.	8d/	.	.	.	.	.	.	.	.	.	.	.
.	.	.	.	.	.	.	.	.	.	.	.	.	.	.	.	.	.	.	.	.	8F#\	.	.	.	.	8rf	.	8rd	.	.	.	.	.	.	.	.	.	.	.
.	.	.	.	.	.	.	.	.	.	.	.	.	.	.	.	.	.	.	.	.	8rGG	.	.	.	.	8A/	.	8d/	.	.	.	.	.	.	.	.	.	.	.
.	.	.	4G 4GG/	4ee/	4b\	4G\	.	[	4B\	.	.	4e\	-bur	.	.	.	.	.	.	4G/	8G\	.	4e/	4B\	.	8ra	.	8rc	.	.	.	.	.	.	.	.	.	.	.
.	.	.	.	.	.	.	.	.	.	.	.	.	.	[	.	.	.	.	.	.	8rD	.	.	.	.	8B/	.	8e/	.	.	.	.	.	.	.	.	.	.	.
=43	=43	=43	=43	=43	=43	=43	=43	=43	=43	=43	=43	=43	=43	=43	=43	=43	=43	=43	=43	=43	=43	=43	=43	=43	=43	=43	=43	=43	=43	=43	=43	=43	=43	=43	=43	=43	=43	=43	=43
*	*	*	*^	*	*^	*	*	*	*	*	*	*	*	*	*	*	*	*	*	*	*	*	*	*	*	*	*	*	*	*	*	*	*	*	*	*	*	*	*
!	!	!	!	!	!	!	!	!	!	!LO:DY:a:rj	!	!	!	!	!	!LO:DY:a	!	!	!	!	!	!	!	!	!	!	!	!	!	!	!	!	!	!	!	!	!	!	!	!	!
1ryy	1ryy	1ryy	2A/	2AA\	2ff# 2cc/	2ryy	1a	4.A\	.	f	4.d\	.	.	4.f#\	fer	f	1r;	1r;	1r;	.	.	2A/	8A\	.	2f#/	2d\	.	8r	.	8r	[	1ryy	.	1ryy	.	1ryy	.	1ryy	.	1ryy	.
.	.	.	.	.	.	.	.	.	.	.	.	.	.	.	.	.	.	.	.	.	.	.	8rC	.	.	.	.	8d/	.	8f# 8A/	.	.	.	.	.	.	.	.	.	.	.
.	.	.	.	.	.	.	.	.	.	.	.	.	.	.	.	.	.	.	.	.	.	.	8A\	.	.	.	.	8r	.	8r	.	.	.	.	.	.	.	.	.	.	.
!	!	!	!	!	!	!	!	!	!	!	!	!	!	!	!	!	!	!	!	!	!	!	!LO:N:vis=8	!	!	!	!	!	!	!	!	!	!	!	!	!	!	!	!	!	!
.	.	.	.	.	.	.	.	8A\	.	.	8d\	.	.	8f#\	au-	.	.	.	.	.	.	.	16rC	.	.	.	.	8d/	.	8f# 8A/	.	.	.	.	.	.	.	.	.	.	.
!	!	!	!	!	!	!	!	!	!	!	!	!	!	!	!	!	!	!	!	!	!	!	!LO:N:vis=8	!	!	!	!	!	!	!	!	!	!	!	!	!	!	!	!	!	!
.	.	.	.	.	.	.	.	.	.	.	.	.	.	.	.	.	.	.	.	.	.	.	16AA\	.	.	.	.	.	.	.	.	.	.	.	.	.	.	.	.	.	.
.	.	.	.	.	8qff#/	.	.	.	.	.	.	.	.	(8qqf#/	.	.	.	.	.	.	.	.	.	.	8qf#/	.	.	.	.	.	.	.	.	.	.	.	.	.	.	.	.
.	.	.	4..G;/	4..AA\	4..ee 4..cc#X/	4..ryy	.	4..AA;/	.	.	4..c#X\	.	.	(4..e;\)	-xi-	.	.	.	.	.	.	(4..AA/;	8rCC	.	4..e/	4..c#X\	.	8r	.	8r	.	.	.	.	.	.	.	.	.	.	.
.	.	.	.	.	.	.	.	.	.	.	.	.	.	.	.	.	.	.	.	.	.	.	8ryy	.	.	.	.	8c#X/	.	8g 8A/	.	.	.	.	.	.	.	.	.	.	.
.	.	.	.	.	.	.	.	.	.	.	.	.	.	.	.	.	.	.	.	.	.	.	16AA\	.	.	.	.	8r	.	8r	.	.	.	.	.	.	.	.	.	.	.
.	.	.	.	.	.	.	.	.	.	.	.	.	.	.	.	.	.	.	.	.	.	.	8ryy	.	.	.	.	.	.	.	.	.	.	.	.	.	.	.	.	.	.
.	.	.	.	.	.	.	.	.	.	.	.	.	.	.	.	.	.	.	.	.	.	.	.	.	.	.	.	16c#/	.	16g 16A/	.	.	.	.	.	.	.	.	.	.	.
.	.	.	16F#/	16D\	16dd/	16dd\	.	16D/	.	.	16c#\	.	.	16d\)	-li-	.	.	.	.	.	.	16D/)	16rDD;	.	16d/	16d\	.	16r;	.	16r;	.	.	.	.	.	.	.	.	.	.	.
*	*	*	*	*	*v	*v	*v	*	*	*	*	*	*	*	*	*	*	*	*	*	*	*	*	*	*	*	*	*	*	*	*	*	*	*	*	*	*	*	*	*	*
=44	=44	=44	=44	=44	=44	=44	=44	=44	=44	=44	=44	=44	=44	=44	=44	=44	=44	=44	=44	=44	=44	=44	=44	=44	=44	=44	=44	=44	=44	=44	=44	=44	=44	=44	=44	=44	=44	=44	=44
*	*	*	*	*	*	*	*	*	*	*	*	*	*	*	*	*	*	*	*	*	*	*	*	*	*	*	*	*	*	*	*	*^	*	*	*	*	*	*	*
1ryy	1ryy	1ryy	8F#/	8D\	8eeL 8cc\	4D/	.	.	4d\	.	.	4d\	-um	.	2r	2r	2r	.	.	8D/	8D\	.	8d/	8d\	.	8d/	.	8f# 8A/	.	2r	.	2r	4ryy	.	2r	.	2r	.	8dd'\L	.
.	.	.	8r	8ryy	(16cc#X\L	.	.	.	.	.	.	.	.	.	.	.	.	.	.	8r	8ryy	.	8r	8ryy	.	8r	.	8r	.	.	.	.	.	.	.	.	.	.	(16cc#X\L	.
.	.	.	.	.	16dd\JJ	.	.	.	.	.	.	.	.	.	.	.	.	.	.	.	.	.	.	.	.	.	.	.	.	.	.	.	.	.	.	.	.	.	16dd\JJ)	.
.	.	.	4r	4ryy	16ee#X\LL	4r	.	.	4r	.	.	4r	.	.	.	.	.	.	.	4r	4ryy	f	4r	4ryy	f	4r	.	4r	f	.	.	.	4ryy	.	.	.	.	.	(16ee#X\LL	.
.	.	.	.	.	16ff#\	.	.	.	.	.	.	.	.	.	.	.	.	.	.	.	.	.	.	.	.	.	.	.	.	.	.	.	.	.	.	.	.	.	16ff#\)	.
!	!	!	!	!	!LO:TX:t=P:problem:♯ above	!	!	!	!	!	!	!	!	!	!	!	!	!	!	!	!	!	!	!	!	!	!	!	!	!	!	!	!	!	!	!	!	!	!LO:TX:a:t=P:problem:# above	!
.	.	.	.	.	16gg#X\	.	.	.	.	.	.	.	.	.	.	.	.	.	.	.	.	.	.	.	.	.	.	.	.	.	.	.	.	.	.	.	.	.	(16gg#X\	.
.	.	.	.	.	16aa\JJ)	.	.	.	.	.	.	.	.	.	.	.	.	.	.	.	.	.	.	.	.	.	.	.	.	.	.	.	.	.	.	.	.	.	16aa\JJ)	.
.	.	.	4d 4A 4F# 4D\	4ryy	4dd 4a 4f#\	4r	.	.	4r	.	.	4r	.	.	4r	4r	4r	.	.	4D\	2ryy	.	4f# 4A 4D/	4ryy	.	4ff# 4a 4d\	.	4dd 4f# 4A/	.	4D\	.	4dd/	4dd\	.	4dd 4f#/	.	4ff#\	.	4ddd\	.
.	.	.	4d 4B 4G\	4ryy	4dd 4b 4g/	4G\	.	.	4B\	.	.	4d\	U-	.	4g/	4b\	4dd\	.	.	4G\	.	.	4g\	4ryy	.	4b\	.	4dd\	.	4r	.	4r	4ryy	.	4r	.	4r	.	4r	.
*	*	*	*	*	*	*	*	*	*	*	*	*	*	*	*	*	*	*	*	*v	*v	*	*	*	*	*	*	*	*	*	*	*v	*v	*	*	*	*	*	*	*
*	*	*	*v	*v	*	*	*	*	*	*	*	*	*	*	*	*	*	*	*	*	*	*v	*v	*	*	*	*	*	*	*	*	*	*	*	*	*	*	*
!!LO:PB:g=original
=45	=45	=45	=45	=45	=45	=45	=45	=45	=45	=45	=45	=45	=45	=45	=45	=45	=45	=45	=45	=45	=45	=45	=45	=45	=45	=45	=45	=45	=45	=45	=45	=45	=45	=45	=45	=45
*	*	*	*	*^	*	*	*	*	*	*	*	*	*	*	*	*	*	*	*	*	*	*	*	*	*	*	*	*	*	*	*	*	*	*	*	*
1ryy	1ryy	1ryy	4e 4c\	4ee 4cc/	2g\	4C/	.	.	4c\	.	.	4e\	-ni-	.	2g/	4cc\	4ee\	-ni-	.	4C/	.	2g\	.	4cc\	.	4ee\	.	4C/	.	1r	.	4ee 4cc\	.	1r	.	1r	.
.	.	.	4d 4B 4G\	4dd 4b/	.	4G\	.	.	4B\	.	.	4d\	-tri-	.	.	4b\	4dd\	-tri-	.	4G\	.	.	.	4b\	.	4dd\	.	4G\	.	.	.	4dd 4b\	.	.	.	.	.
.	.	.	4.c 4.A\	4.cc 4.a 4.e/	2ryy	4.A\	.	.	4.A\	.	.	4.c\	-no-	.	4.e/	4.a\	4.cc\	-no-	.	4.A\	.	4.e\	.	4.a/	.	4.cc\	.	4.A\	.	.	.	4.cc 4.a\	.	.	.	.	.
.	.	.	8d 8B 8G\	8dd 8b 8g/	.	8G\	.	.	8B\	.	.	8d\	-que	.	8g/	8b\	8dd\	-que	.	8G\	.	8g\	.	8b/	.	8dd\	.	8G\	.	.	.	8dd 8b\	.	.	.	.	.
=46	=46	=46	=46	=46	=46	=46	=46	=46	=46	=46	=46	=46	=46	=46	=46	=46	=46	=46	=46	=46	=46	=46	=46	=46	=46	=46	=46	=46	=46	=46	=46	=46	=46	=46	=46	=46	=46
*	*	*	*^	*	*	*	*	*	*	*	*	*	*	*	*	*	*	*	*	*	*	*	*	*	*	*	*	*	*	*^	*	*^	*	*	*	*	*
!	!	!	!	!	!	!	!	!	!	!	!	!	!	!	!	!LO:N:vis=2..	!	!	!	!	!	!	!	!	!	!	!	!	!	!	!	!	!	!	!	!	!	!	!	!
1ryy	1ryy	1ryy	2c 2G/	4..C\	4..ee 4..cc/	2g\	4..C/	.	.	4..c\	.	.	4..e\	Do-	.	4..g/	4..cc\	4..ee\	Do-	.	4..C/	.	4..g\	.	4..cc\	.	4..ee\	.	4..C/	.	2r	2ryy	.	4..ee/	4..cc\	.	2r	.	16r	.
.	.	.	.	.	.	.	.	.	.	.	.	.	.	.	.	.	.	.	.	.	.	.	.	.	.	.	.	.	.	.	.	.	.	.	.	.	.	.	(16g/LL	.
.	.	.	.	.	.	.	.	.	.	.	.	.	.	.	.	.	.	.	.	.	.	.	.	.	.	.	.	.	.	.	.	.	.	.	.	.	.	.	16cc/	.
.	.	.	.	.	.	.	.	.	.	.	.	.	.	.	.	.	.	.	.	.	.	.	.	.	.	.	.	.	.	.	.	.	.	.	.	.	.	.	16ee/JJ	.
.	.	.	.	.	.	.	.	.	.	.	.	.	.	.	.	.	.	.	.	.	.	.	.	.	.	.	.	.	.	.	.	.	.	.	.	.	.	.	16gg\LL	.
.	.	.	.	.	.	.	.	.	.	.	.	.	.	.	.	.	.	.	.	.	.	.	.	.	.	.	.	.	.	.	.	.	.	.	.	.	.	.	16ccc\	.
.	.	.	.	.	.	.	.	.	.	.	.	.	.	.	.	.	.	.	.	.	.	.	.	.	.	.	.	.	.	.	.	.	.	.	.	.	.	.	16eee\	.
.	.	.	.	16E\	16gg 16cc/	.	16E\	.	.	16c\	.	.	16g\	-mi-	.	16g/	16cc\	16gg\	-mi-	.	16E\	.	16g\	.	16cc\	.	16gg\	.	16E\	.	.	.	.	16gg/	16cc\	.	.	.	16ggg\JJ	.
!	!	!	!	!	!	!	!	!	!	!	!	!	!	!	!	!	!	!	!	!	!	!	!	!	!	!	!	!	!	!	!	!	!	!	!	!	!LO:N:vis=4	!	!	!
.	.	.	4B/	4G\	4dd 4b/	4g\	4G\	.	.	4B\	.	.	4d\	-no	.	4g/	4b\	4dd\	-no	.	4G\	.	4g\	.	4b\	.	4dd\	.	4G\	.	4r	4ryy	.	4dd/	4b\	.	2r	.	4ddd\	.
.	.	.	4G 4GG/	4ryy	4cc#X 4a/	4e\	4G\	.	.	4A\	.	.	4c#X\	Sit	.	4e/	4a/	4cc#X\	Sit	.	4G\	.	4e\	.	4a/	.	4cc#X\	.	4G\	.	4ee/	4cc#X\	.	4cc#X/	4a\	.	.	.	4ccc#X\)	.
*	*	*	*v	*v	*	*	*	*	*	*	*	*	*	*	*	*	*	*	*	*	*	*	*	*	*	*	*	*	*	*	*	*	*	*	*	*	*	*	*	*
*	*	*	*	*v	*v	*	*	*	*	*	*	*	*	*	*	*	*	*	*	*	*	*	*	*	*	*	*	*	*	*	*	*	*	*	*	*	*	*	*
=47	=47	=47	=47	=47	=47	=47	=47	=47	=47	=47	=47	=47	=47	=47	=47	=47	=47	=47	=47	=47	=47	=47	=47	=47	=47	=47	=47	=47	=47	=47	=47	=47	=47	=47	=47	=47	=47	=47
*	*	*	*	*	*	*	*	*	*	*	*	*	*	*	*	*2\right	*	*	*	*	*	*	*	*	*	*	*2\right	*	*	*	*	*	*	*	*	*	*	*
!	!	!	!	!	!	!	!	!	!	!	!	!	!	!	!	!	!	!	!	!	!	!	!	!	!	!	!	!	!	!	!	!	!	!	!	!LO:HP:a	!	!
1ryy	1ryy	1ryy	4F# 4FF#/	8r	2F#\	.	.	2A\	.	.	2d\	sem-	.	2a/	2a/	2dd\	sem-	.	4F#\	.	8r	.	8r	.	8r	.	2F#\	.	2dd/	2dd\	.	2dd/	2a\	.	2aa\	<	2ddd\	.
.	.	.	.	8ddL 8b 8f#/	.	.	.	.	.	.	.	.	.	.	.	.	.	.	.	.	8f#\L	.	8a/L	.	8dd\L	.	.	.	.	.	.	.	.	.	.	.	.	.
.	.	.	4r	8dd 8b 8f#/	.	.	.	.	.	.	.	.	.	.	.	.	.	.	4r	.	8f#\	.	8a/	.	8dd\	.	.	.	.	.	.	.	.	<	.	.	.	.
.	.	.	.	8ddJ 8b 8f#/	.	.	.	.	.	.	.	.	.	.	.	.	.	.	.	.	8f#\J	.	8a/J	.	8dd\J	.	.	.	.	.	.	.	.	.	.	.	.	.
.	.	.	4G 4GG/	8r	2G\	.	.	2B\	.	.	2e\	-pi-	.	2b/	2b/	2ee\	-pi-	.	4G\	.	8r	.	8r	.	8r	.	2G\	.	2ee/	2ee\	.	2ee/	2a\	.	2bb\	.	2eee\	.
.	.	.	.	8eeL 8b 8g\	.	.	.	.	.	.	.	.	.	.	.	.	.	.	.	.	8g\L	.	8b/L	.	8ee\L	.	.	.	.	.	.	.	.	.	.	.	.	.
.	.	.	4r	8ee 8b 8g\	.	.	.	.	.	.	.	.	.	.	.	.	.	.	4r	.	8g\	.	8b/	.	8ee\	.	.	.	.	.	.	.	.	.	.	.	.	.
!	!	!	!	!	!	!	!	!	!	!	!	!	!	!	!	!	!	!	!	!	!	!	!	!	!	!	!	!	!	!	!	!	!	!	!	!	!LO:TX:a:t=vi	!
.	.	.	.	8eeJ 8b 8g\	.	.	.	.	.	.	.	.	.	.	.	.	.	.	.	.	8g\J	.	8b/J	.	8ee\J	.	.	.	.	.	.	.	.	.	.	.	.	.
=48	=48	=48	=48	=48	=48	=48	=48	=48	=48	=48	=48	=48	=48	=48	=48	=48	=48	=48	=48	=48	=48	=48	=48	=48	=48	=48	=48	=48	=48	=48	=48	=48	=48	=48	=48	=48	=48	=48
*	*	*	*	*	*	*	*	*	*	*	*	*	*	*	*2\right	*	*	*	*	*	*	*	*	*	*	*	*	*	*	*	*	*	*	*	*	*	*	*
!	!	!	!	!	!	!	!	!	!	!	!	!	!	!	!	!	!	!	!	!	!	!	!	!	!	!	!	!	!	!	!	!	!	!	!	!	!LO:TX:b:t=de	!
1ryy	1ryy	1ryy	4A 4AA/	8r	2A\	.	.	2d\	.	.	2f#\	-ter-	.	2a/	2dd\	2ff#\	-ter-	.	4A\	.	8r	<	8r	.	8r	<	2A\	.	2dd/	2dd\	.	2ff#/	2dd\	.	2ddd\	.	16r	.
.	.	.	.	.	.	.	.	.	.	.	.	.	.	.	.	.	.	.	.	.	.	.	.	.	.	.	.	.	.	.	.	.	.	.	.	.	16aaa\LL	.
.	.	.	.	8ff#L 8dd 8a\	.	.	.	.	.	.	.	.	.	.	.	.	.	.	.	.	8a\L	.	8dd\L	.	8ff#\L	.	.	.	.	.	.	.	.	.	.	.	16fff#\	.
.	.	.	.	.	.	.	.	.	.	.	.	.	.	.	.	.	.	.	.	.	.	.	.	.	.	.	.	.	.	.	.	.	.	.	.	.	16eee\JJ	.
.	.	.	4r	8ff# 8dd 8a\	.	.	.	.	.	.	.	.	.	.	.	.	.	.	4r	.	8a\	.	8dd\	.	8ff#\	.	.	.	.	.	.	.	.	.	.	.	16aa\LL	.
.	.	.	.	.	.	.	.	.	.	.	.	.	.	.	.	.	.	.	.	.	.	.	.	.	.	.	.	.	.	.	.	.	.	.	.	.	16fff#\	.
.	.	.	.	8ff#J 8dd 8a\	.	.	.	.	.	.	.	.	.	.	.	.	.	.	.	.	8a\J	.	8dd\J	.	8ff#\J	.	.	.	.	.	.	.	.	.	.	.	16eee\	.
.	.	.	.	.	.	.	.	.	.	.	.	.	.	.	.	.	.	.	.	.	.	.	.	.	.	.	.	.	.	.	.	.	.	.	.	.	16aa\JJ	.
.	.	.	4A 4AA/	8r	2A\	.	.	2d\	.	.	2f#\	-na	.	2a/	2dd\	2ff#\	-na	.	4A\	.	8r	.	8r	.	8r	.	2A\	.	2dd/	2dd\	.	2ff# 2dd\	2ryy	.	2ddd\	[[	16ff#\LL	.
.	.	.	.	.	.	.	.	.	.	.	.	.	.	.	.	.	.	.	.	.	.	.	.	.	.	.	.	.	.	.	.	.	.	[	.	.	16ddd\	.
*	*	*	*	*tremolo	*	*	*	*	*	*	*	*	*	*	*	*	*	*	*	*	*	*	*	*	*	*	*	*	*	*	*	*	*	*	*	*	*	*
.	.	.	.	8ff#L 8dd 8a\	.	.	.	.	.	.	.	.	.	.	.	.	.	.	.	.	8a\L	.	8dd\L	.	8ff#\L	.	.	.	.	.	.	.	.	.	.	.	16aa\	.
.	.	.	.	.	.	.	.	.	.	.	.	.	.	.	.	.	.	.	.	.	.	.	.	.	.	.	.	.	.	.	.	.	.	.	.	.	16ff#\JJ	.
.	.	.	4r	8ff# 8dd 8a\	.	.	.	.	.	.	.	.	.	.	.	.	.	.	4r	.	8a\	.	8dd\	.	8ff#\	.	.	.	.	.	.	.	.	.	.	.	16dd\LL	.
.	.	.	.	.	.	.	.	.	.	.	.	.	.	.	.	.	.	.	.	.	.	.	.	.	.	.	.	.	.	.	.	.	.	.	.	.	16aa\	.
.	.	.	.	8ff#J 8dd 8a\	.	.	.	.	.	.	.	.	.	.	.	.	.	.	.	.	8a\J	[[	8dd\J	.	8ff#\J	[[	.	.	.	.	.	.	.	.	.	.	16ff#\	.
.	.	.	.	.	.	.	.	.	.	f	.	.	.	.	.	.	.	.	.	.	.	.	.	.	.	.	.	f	.	.	.	.	.	.	.	f	16dd\JJ	.
*	*	*	*	*	*	*	*	*	*	*	*	*	*	*	*	*	*	*	*	*	*	*	*	*	*	*	*	*	*v	*v	*	*	*	*	*	*	*	*
*	*	*	*	*	*	*	*	*	*	*	*	*	*	*	*	*	*	*	*	*	*	*	*	*	*	*	*	*	*	*	*v	*v	*	*	*	*	*
*	*	*	*	*Xtremolo	*	*	*	*	*	*	*	*	*	*	*	*	*	*	*	*	*	*	*	*	*	*	*	*	*	*	*	*	*	*	*	*
=49	=49	=49	=49	=49	=49	=49	=49	=49	=49	=49	=49	=49	=49	=49	=49	=49	=49	=49	=49	=49	=49	=49	=49	=49	=49	=49	=49	=49	=49	=49	=49	=49	=49	=49	=49	=49
*	*	*	*	*	*	*	*	*	*	*	*	*	*	*	*	*	*	*	*	*	*	*	*	*	*	*	*	*	*^	*	*^	*	*	*	*	*
!	!	!	!	!	!	!	!LO:DY:a	!	!	!	!	!	!LO:DY:a	!	!	!	!	!LO:DY:a	!	!	!	!	!	!	!	!	!	!	!	!	!LO:DY:a	!	!	!	!	!LO:DY:a	!	!
1ryy	1ryy	1ryy	4A 4AA/	8r	2.A\	.	f	(4d\	.	.	2.e\	glo-	f	2.a/	(4dd\	2.ee\	glo-	f	4A\	.	4a\	f	8r	.	8r	f	2.A\	.	2.ee/	2.ee\	f	(2.ee/	4dd\	.	(4ddd\	f	8ee\L	.
.	.	.	.	8eeL 8dd\	.	.	.	.	.	.	.	.	.	.	.	.	.	.	.	.	.	.	(8dd\L	.	8ee\L	.	.	.	.	.	.	.	.	.	.	.	(8ddd\	.
.	.	.	4r	8ee 8cc#X\	.	.	.	8c#X\L	.	.	.	.	.	.	8cc#X\L	.	.	.	4r	.	4r	.	8cc#X\)	.	8ee\	.	.	.	.	.	.	.	8cc#X\L	.	8ccc#X\L	.	8ccc#X\	.
.	.	.	.	8eeJ 8b\	.	.	.	8B\J	.	.	.	.	.	.	8b\J	.	.	.	.	.	.	.	8b\J	.	8ee\J	.	.	.	.	.	.	.	8b\J	.	8bb\J)	.	8bb\J	.
.	.	.	8A 8AA/	8r	.	.	.	4c#\)	.	.	.	.	.	.	4cc#\)	.	.	.	8AA/	.	8A/	.	8r	.	8r	.	.	.	.	.	.	.	4cc#\	.	4ccc#\	.	4ccc#\)	.
.	.	.	8r	8ee 8cc#\	.	.	.	.	.	.	.	.	.	.	.	.	.	.	8r	.	8r	.	8cc#\	.	8ee\	.	.	.	.	.	.	.	.	.	.	.	.	.
.	.	.	8A 8AA/	8r	4AA/	.	.	4c#\	.	.	4e\	-ri-	.	4a/	4cc#\	4ee\	-ri-	.	8AA/	.	8A/	.	8r	.	8r	.	4AA/	.	4ee/	4ee\	.	4ee/	4cc#\	.	4ccc#\	.	4aaa\	.
!	!	!	!	!	!	!	!	!	!	!	!	!	!	!	!	!	!	!	!	!	!	!	!	!	!	!	!	!	!	!	!	!	!	!	!	!	!LO:TX:a:t=re	!
.	.	.	8r	8aa 8cc# 8a\	.	.	.	.	.	.	.	.	.	.	.	.	.	.	8r	.	8r	.	8cc#\	.	8ee\	.	.	.	.	.	.	.	.	.	.	.	.	.
=50	=50	=50	=50	=50	=50	=50	=50	=50	=50	=50	=50	=50	=50	=50	=50	=50	=50	=50	=50	=50	=50	=50	=50	=50	=50	=50	=50	=50	=50	=50	=50	=50	=50	=50	=50	=50	=50	=50
!	!	!	!	!	!	!	!	!	!	!	!	!	!	!	!	!	!	!	!	!	!	!	!LO:TX:t=P:problem:mixed beam	!	!	!	!	!	!	!	!	!	!	!	!	!	!LO:TX:a:t=tur	!
1ryy	1ryy	1ryy	8d 8D\	8dd\	4D/	.	.	4d\	.	.	4d\	-a	.	4d/	4dd\	4dd\	-a,	.	8D\L	.	8d'\L	.	8dd\L	.	8dd\L	.	8D/	.	8dd/	8dd\	.	8dd/)	8dd\	.	8ddd\L	.	8ddd\L	.
.	.	.	(16c#X\LL	(16cc#X\LL	.	.	.	.	.	.	.	.	.	.	.	.	.	.	(16c#X\L	.	(16c#X\L	.	(16c#X/L	.	(16cc#X\L	.	(16c#X\LL	.	8r	8ryy	.	8r	8ryy	.	(16cc#X\L	.	(16cc#X\L	.
.	.	.	16d\JJ)	16dd\JJ)	.	.	.	.	.	.	.	.	.	.	.	.	.	.	16d\JJ)	.	16d\JJ)	.	16d/JJ)	.	16dd\JJ)	.	16d\JJ)	.	.	.	.	.	.	.	16dd\JJ)	.	16dd\JJ)	.
.	.	.	(16G#X\LL	(16ee#X\LL	4r	.	.	4r	.	.	4r	.	.	4r	4r	4r	.	.	(16G#X\LL	.	(16G#X/LL	.	(16e#X/LL	.	(16ee#X\LL	.	(16G#X\LL	.	4r	4ryy	.	4r	4ryy	.	(16ee#X\LL	.	(16ee#X\LL	.
.	.	.	16A\JJ)	16ff#\JJ)	.	.	.	.	.	.	.	.	.	.	.	.	.	.	16A\)	.	16A/)	.	16f#/)	.	16ff#\)	.	16A\)	.	.	.	.	.	.	.	16ff#\)	.	16ff#\)	.
!	!	!	!	!	!	!	!	!	!	!	!	!	!	!	!	!	!	!	!	!	!	!	!	!	!LO:TX:a:t=P:problem:# above	!	!	!	!	!	!	!	!	!	!	!	!LO:TX:a:t=P:problem:# above	!
.	.	.	(16E#X\LL	(16gg#X\LL	.	.	.	.	.	.	.	.	.	.	.	.	.	.	(16E#X\	.	(16E#X/	.	(16g#X/	.	(16gg#X\	.	(16E#X\	.	.	.	.	.	.	.	(16gg#X\	.	(16gg#X\	.
.	.	.	16F#\JJ)	16aa\JJ)	.	.	.	.	.	.	.	.	.	.	.	.	.	.	16F#\JJ)	.	16F#/JJ)	.	16a/JJ)	.	16aa\JJ)	.	16F#\JJ)	.	.	.	.	.	.	.	16aa\JJ)	.	16aa\JJ)	.
.	.	.	4D\	4ddd\	2r	.	.	2r	.	.	4r	.	.	2r	2r	2r	.	.	4D\	.	4D/	.	4dd\	.	4ddd\	.	4D\	.	2r	2ryy	.	2r	2ryy	.	4dd\	.	4ddd\	.
.	.	.	4r	4dd 4d/	.	.	.	.	.	.	4d\	qui	.	.	.	.	.	.	4r	.	4d\	.	4r	.	4r	.	4r	.	.	.	.	.	.	.	4r	.	4r	.
*	*	*	*	*	*	*	*	*	*	*	*	*	*	*	*	*	*	*	*	*	*	*	*	*	*	*	*	*	*v	*v	*	*	*	*	*	*	*	*
*	*	*	*	*	*	*	*	*	*	*	*	*	*	*	*	*	*	*	*	*	*	*	*	*	*	*	*	*	*	*	*v	*v	*	*	*	*	*
!!LO:PB:g=original
=51	=51	=51	=51	=51	=51	=51	=51	=51	=51	=51	=51	=51	=51	=51	=51	=51	=51	=51	=51	=51	=51	=51	=51	=51	=51	=51	=51	=51	=51	=51	=51	=51	=51	=51	=51	=51
1ryy	1ryy	1ryy	2r	2ee-X 2e-X/	2r	.	.	1r	.	.	2e-X\	vi-	.	1ryy	1ryy	1ryy	.	.	2r	.	(2e-X\	.	1r	.	1r	.	1ryy	.	1ryy	.	1ryy	.	1ryy	.	1r	.
.	.	.	4r	4dd 4d/	4r	.	.	.	.	.	4d\	-tam	.	.	.	.	.	.	4r	.	4d\)	.	.	.	.	.	.	.	.	.	.	.	.	.	.	.
.	.	.	4D\	4dd 4d/	(4D\	si-	.	.	.	.	(4d\	si-	.	.	.	.	.	.	4D\	.	4d'\	.	.	.	.	.	.	.	.	.	.	.	.	.	.	.
=52	=52	=52	=52	=52	=52	=52	=52	=52	=52	=52	=52	=52	=52	=52	=52	=52	=52	=52	=52	=52	=52	=52	=52	=52	=52	=52	=52	=52	=52	=52	=52	=52	=52	=52	=52	=52
1ryy	1ryy	1ryy	2E-X\	2cc 2c/	2E-X\)	.	.	2r	.	.	2c\)	.	.	1ryy	1ryy	1ryy	.	.	2E-X\	.	(2c/	.	2r	.	1r	.	1ryy	.	1ryy	.	1ryy	.	1ryy	.	1r	.
.	.	.	4D\	4b-X 4B-X/	4D\	-ne	.	4r	.	.	4B-X\	-ne	.	.	.	.	.	.	4D\	.	4B-X/)	.	4r	.	.	.	.	.	.	.	.	.	.	.	.	.
.	.	.	4D\	4b- 4g 4d/	(4D\	ter-	.	(4G/	ter-	.	(4B-\	ter-	.	.	.	.	.	.	4D\	.	(4B-/	.	(4g/	.	.	.	.	.	.	.	.	.	.	.	.	.
=53	=53	=53	=53	=53	=53	=53	=53	=53	=53	=53	=53	=53	=53	=53	=53	=53	=53	=53	=53	=53	=53	=53	=53	=53	=53	=53	=53	=53	=53	=53	=53	=53	=53	=53	=53	=53
*	*	*	*	*^	*	*	*	*	*	*	*	*	*	*	*	*	*	*	*	*	*	*	*	*	*	*	*	*	*	*	*	*	*	*	*	*
1ryy	1ryy	1ryy	2c 2C\	2a 2f# 2d/	2ryy	8.C/)	.	.	8.F#/)	.	.	8.A\)	.	.	1ryy	1ryy	1ryy	.	.	8.C/L	.	8.A/L)	.	8.f#/L)	.	1r	.	1ryy	.	1ryy	.	1ryy	.	1ryy	.	1r	.
.	.	.	.	.	.	16C/	-mi-	.	16F#/	-mi-	.	16A\	-mi-	.	.	.	.	.	.	16C/Jk	.	16A/Jk	.	16f#/Jk	.	.	.	.	.	.	.	.	.	.	.	.	.
.	.	.	.	.	.	4C/	-no	.	4F#/	-no	.	4A\	-no	.	.	.	.	.	.	4C/	.	4A/	.	4f#/	.	.	.	.	.	.	.	.	.	.	.	.	.
.	.	.	4B-X 4BB-X\	4g/	2d\	(4BB-X/	no-	.	2G/	no-	.	(4G/	no-	.	.	.	.	.	.	4BB-X/	.	4G/	.	2g/	.	.	.	.	.	.	.	.	.	.	.	.	.
.	.	.	4G 4GG/	4b-X/	.	4GG/)	.	.	.	.	.	4B-X\	.	.	.	.	.	.	.	4GG/	.	4B-X/	.	.	.	.	.	.	.	.	.	.	.	.	.	.	.
*	*	*	*	*v	*v	*	*	*	*	*	*	*	*	*	*	*	*	*	*	*	*	*	*	*	*	*	*	*	*	*	*	*	*	*	*	*	*
=54	=54	=54	=54	=54	=54	=54	=54	=54	=54	=54	=54	=54	=54	=54	=54	=54	=54	=54	=54	=54	=54	=54	=54	=54	=54	=54	=54	=54	=54	=54	=54	=54	=54	=54	=54	=54
*	*	*	*	*	*	*	*	*	*	*	*	*	*	*	*	*	*	*	*	*	*	*	*	*	*	*	*	*	*^	*	*	*	*	*	*	*
1ryy	1ryy	1ryy	2.D 2.DD/	2.dd 2.f# 2.d/	2.D\	-bis	.	2.F#/	-bis	.	2.d\)	-bis	.	2r	2r	2r	.	.	2.D\	.	2.d\	.	2.f#/	.	2r	.	2r	.	2r	2ryy	.	2r	.	1ryy	.	16r	.
.	.	.	.	.	.	.	.	.	.	.	.	.	.	.	.	.	.	.	.	.	.	.	.	.	.	.	.	.	.	.	.	.	.	.	.	16fff#\LL	.
.	.	.	.	.	.	.	.	.	.	.	.	.	.	.	.	.	.	.	.	.	.	.	.	.	.	.	.	.	.	.	.	.	.	.	.	16ddd\	.
.	.	.	.	.	.	.	.	.	.	.	.	.	.	.	.	.	.	.	.	.	.	.	.	.	.	.	.	.	.	.	.	.	.	.	.	16aa\JJ	.
.	.	.	.	.	.	.	.	.	.	.	.	.	.	.	.	.	.	.	.	.	.	.	.	.	.	.	.	.	.	.	.	.	.	.	.	16ff#\LL	.
.	.	.	.	.	.	.	.	.	.	.	.	.	.	.	.	.	.	.	.	.	.	.	.	.	.	.	.	.	.	.	.	.	.	.	.	16dd\	.
.	.	.	.	.	.	.	.	.	.	.	.	.	.	.	.	.	.	.	.	.	.	.	.	.	.	.	.	.	.	.	.	.	.	.	.	16a\	.
.	.	.	.	.	.	.	.	.	.	.	.	.	.	.	.	.	.	.	.	.	.	.	.	.	.	.	.	.	.	.	.	.	.	.	.	16f#\JJ	.
.	.	.	.	.	.	.	.	.	.	.	.	.	.	4r	4r	4r	.	.	.	.	.	.	.	.	4r	.	4r	.	4r	4ryy	.	4r	.	.	.	4d/	.
!	!	!	!	!	!	!	!	!	!	!	!	!	!LO:DY:rj	!	!	!	!	!LO:DY:rj	!	!	!	!LO:DY:rj	!	!	!	!LO:DY:rj	!	!	!	!	!	!	!LO:DY:rj	!	!	!	!
.	.	.	4c 4C\	4dd 4f# 4d/	(>4C/	Do-	.	(4F#/	.	.	[4d\	Do-	f	4d/	4f#/	4dd\	.	f	4C/	.	4d\	f	4f#/	.	4dd\	f	4C/	.	4dd/	4dd\	.	4dd 4f#/	f	.	.	4r	.
*	*	*	*	*	*	*	*	*	*	*	*	*	*	*	*	*	*	*	*	*	*	*	*	*	*	*	*	*	*v	*v	*	*	*	*	*	*	*
=55	=55	=55	=55	=55	=55	=55	=55	=55	=55	=55	=55	=55	=55	=55	=55	=55	=55	=55	=55	=55	=55	=55	=55	=55	=55	=55	=55	=55	=55	=55	=55	=55	=55	=55	=55	=55
*	*	*	*	*^	*	*	*	*	*	*	*	*	*	*	*	*	*	*	*	*	*	*	*	*	*	*	*	*	*	*	*^	*	*	*	*	*
1ryy	1ryy	1ryy	2.B 2.BB\	[2dd/	1g	2BB/)	.	.	2G/)	.	.	2d\]	.	.	2d/	2g/	2dd\	.	.	4BB/	.	8r	.	8r	.	8r	.	2.BB/	.	2.dd 2.g/	.	(>2dd 2g/	4ryy	.	1ryy	.	1ryy	.
.	.	.	.	.	.	.	.	.	.	.	.	.	.	.	.	.	.	.	.	.	.	8d\L	.	8g/L	.	8dd\L	.	.	.	.	.	.	.	.	.	.	.	.
.	.	.	.	.	.	.	.	.	.	.	.	.	.	.	.	.	.	.	.	4r	.	8d\	.	8g/	.	8dd\	.	.	.	.	.	.	4ryy	.	.	.	.	.
.	.	.	.	.	.	.	.	.	.	.	.	.	.	.	.	.	.	.	.	.	.	8d\J	.	8g/J	.	8dd\J	.	.	.	.	.	.	.	.	.	.	.	.
.	.	.	.	4gg 4dd/]	.	4AA/	-net	.	4G/	.	.	4g\	-net	.	4d/	4g/	4gg\	.	.	8BB/	.	8r	.	8r	.	8r	.	.	.	.	.	4gg 4g/	4ryy	.	.	.	.	.
.	.	.	.	.	.	.	.	.	.	.	.	.	.	.	.	.	.	.	.	8r	.	8g\	.	8dd\	.	8gg\	.	.	.	.	.	.	.	.	.	.	.	.
.	.	.	4c 4C\	4ee 4cc/	.	4C/	in	.	4c\	.	.	4e\	in	.	4g/	4cc/	4ee\	.	.	8C/	.	8r	.	8r	.	8r	.	4C/	.	4ee 4g/	.	4ee/)	4cc\	.	.	.	.	.
.	.	.	.	.	.	.	.	.	.	.	.	.	.	.	.	.	.	.	.	8r	.	8g\	.	8cc\	.	8ee\	.	.	.	.	.	.	.	.	.	.	.	.
*	*	*	*	*v	*v	*	*	*	*	*	*	*	*	*	*	*	*	*	*	*	*	*	*	*	*	*	*	*	*	*	*	*v	*v	*	*	*	*	*
!!LO:PB:g=original
=56	=56	=56	=56	=56	=56	=56	=56	=56	=56	=56	=56	=56	=56	=56	=56	=56	=56	=56	=56	=56	=56	=56	=56	=56	=56	=56	=56	=56	=56	=56	=56	=56	=56	=56	=56	=56
*	*	*	*	*	*	*	*	*	*	*	*	*	*	*	*	*	*	*	*	*	*	*	*	*	*	*	*	*	*^	*	*	*	*	*	*	*
1ryy	1ryy	1ryy	2d 2D\	4a 4f#/	2.D\	.	.	4F#/	.	.	(4A\	pa-	.	4f#/	4f#/	(4a/	.	.	4D\	.	8r	.	8r	.	8r	.	2.D\	.	2.dd/	2.dd\	.	4a 4f#/	.	1ryy	.	1ryy	.
.	.	.	.	.	.	.	.	.	.	.	.	.	.	.	.	.	.	.	.	.	8d\L	.	(8f#/L	.	(8a/L	.	.	.	.	.	.	.	.	.	.	.	.
.	.	.	.	8bL 8g/	.	.	.	8G/L	.	.	8B\L	.	.	8g/L	8g/L	8b/L	.	.	4r	.	8d\	.	8g/	.	8b/	.	.	.	.	.	.	8bL 8g/	.	.	.	.	.
.	.	.	.	8ccJ 8a/	.	.	.	8A/J	.	.	8c\J	.	.	8a/J	8a/J	8cc/J	.	.	.	.	8d\J	.	8a/J)	.	8cc/J)	.	.	.	.	.	.	8ccJ 8a/	.	.	.	.	.
.	.	.	4D\	4dd 4b/	.	.	.	4B/	.	.	4d\	.	.	4b/	4b/	4dd\)	.	.	8D\	.	8r	.	8r	.	8r	.	.	.	.	.	.	4dd 4b/	.	.	.	.	.
.	.	.	.	.	.	.	.	.	.	.	.	.	.	.	.	.	.	.	8r	.	8d\	.	8b/	.	8dd\	.	.	.	.	.	.	.	.	.	.	.	.
.	.	.	4D#X\	4cc 4a/	4D#X\	.	.	4A/	.	.	4c\	tri-	.	4f/	4a/	4cc\	.	.	8D#X\	.	8r	.	8r	.	8r	.	4D#X\	.	4r	4ryy	.	4cc 4a/	.	.	.	.	.
.	.	.	.	.	.	.	.	.	.	.	.	.	.	.	.	.	.	.	8r	.	8d#X\	.	8a 8f#/	.	8cc\	.	.	.	.	.	.	.	.	.	.	.	.
=57	=57	=57	=57	=57	=57	=57	=57	=57	=57	=57	=57	=57	=57	=57	=57	=57	=57	=57	=57	=57	=57	=57	=57	=57	=57	=57	=57	=57	=57	=57	=57	=57	=57	=57	=57	=57	=57
*	*	*	*	*^	*	*	*	*	*	*	*	*	*	*	*	*	*	*	*	*	*	*	*	*	*	*	*	*	*	*	*	*	*	*	*	*	*
1ryy	1ryy	1ryy	2E\	2b/	1g	2E\	.	.	2G/	.	.	2B\)	-a	.	2g/	2g/	2b\	.	.	4E\	.	8r	.	8r	.	8r	.	2E\	.	2r	2ryy	.	2b 2f#/	.	1ryy	.	1ryy	.
.	.	.	.	.	.	.	.	.	.	.	.	.	.	.	.	.	.	.	.	.	.	8e\L	.	8g/L	.	8b\L	.	.	.	.	.	.	.	.	.	.	.	.
.	.	.	.	.	.	.	.	.	.	.	.	.	.	.	.	.	.	.	.	4r	.	8e\	.	8g/	.	8b\	.	.	.	.	.	.	.	.	.	.	.	.
.	.	.	.	.	.	.	.	.	.	.	.	.	.	.	.	.	.	.	.	.	.	8e\J	.	8g/J	.	8b\J	.	.	.	.	.	.	.	.	.	.	.	.
.	.	.	2C/	2ee 2cc/	.	2C/	.	.	2G/	.	.	2e\	in	.	2g/	2cc\	2ee\	.	.	4C/	.	8r	.	8r	.	8r	.	2C/	.	2ee/	2cc\	.	2ee 2g/	.	.	.	.	.
.	.	.	.	.	.	.	.	.	.	.	.	.	.	.	.	.	.	.	.	.	.	8g\L	.	8cc\L	.	8ee\L	.	.	.	.	.	.	.	.	.	.	.	.
.	.	.	.	.	.	.	.	.	.	.	.	.	.	.	.	.	.	.	.	4r	.	8g\	.	8cc\	.	8ee\	.	.	.	.	.	.	.	.	.	.	.	.
.	.	.	.	.	.	.	.	.	.	.	.	.	.	.	.	.	.	.	.	.	.	8g\J	.	8cc\J	.	8ee\J	.	.	.	.	.	.	.	.	.	.	.	.
=58	=58	=58	=58	=58	=58	=58	=58	=58	=58	=58	=58	=58	=58	=58	=58	=58	=58	=58	=58	=58	=58	=58	=58	=58	=58	=58	=58	=58	=58	=58	=58	=58	=58	=58	=58	=58	=58	=58
*	*	*	*	*	*	*	*	*	*	*	*	*	*	*	*	*	*	*	*	*	*	*	*	*	*	*	*	*	*	*	*	*	*^	*	*	*	*	*
1ryy	1ryy	1ryy	2D/	8ddL 8b/	4ryy	2.D\	.	.	(8B/L	.	.	(8d\L	pa-	.	2.d/	8b/L	(8dd\L	.	.	4D\	.	8r	.	(8b/L	.	(8dd\L	.	2D\	.	2.dd/	2.dd\	.	8ddL 8b/	4ryy	.	1ryy	.	1ryy	.
.	.	.	.	8ccJ 8a/	.	.	.	.	8A/J	.	.	8c\J	.	.	.	8a/J	8cc\J	.	.	.	.	8d\L	.	8a/J	.	8cc\J	.	.	.	.	.	.	8ccJ 8a/	.	.	.	.	.	.
.	.	.	.	4b/	2g\	.	.	.	2G/)	.	.	4B\	.	.	.	2g/	4b\	.	.	4r	.	8d\	.	4g/)	.	4b\)	.	.	.	.	.	.	4b/	2g\	.	.	.	.	.
.	.	.	.	.	.	.	.	.	.	.	.	.	.	.	.	.	.	.	.	.	.	8d\J	.	.	.	.	.	.	.	.	.	.	.	.	.	.	.	.	.
.	.	.	2D 2DD/	4a/	.	.	.	.	.	.	.	4A\)	.	.	.	.	4a/)	.	.	8D\	.	8r	.	8r	.	8r	.	2D\	.	.	.	.	4a/	.	.	.	.	.	.
.	.	.	.	.	.	.	.	.	.	.	.	.	.	.	.	.	.	.	.	8r	.	8d\	.	8g/	.	8a\	.	.	.	.	.	.	.	.	.	.	.	.	.
.	.	.	.	4dd/	4f#\	4D\	.	.	4F#/	.	.	4d\	-tri-	.	4d/	4f#/	4dd\	.	.	8D\	.	8r	.	8r	.	8r	.	.	.	4r	4ryy	.	4dd/	4ryy	.	.	.	.	.
.	.	.	.	.	.	.	.	.	.	.	.	.	.	.	.	.	.	.	.	8r	.	8a 8d\	.	8f#/	.	8dd\	.	.	.	.	.	.	.	.	.	.	.	.	.
*	*	*	*	*	*	*	*	*	*	*	*	*	*	*	*	*	*	*	*	*	*	*	*	*	*	*	*	*	*	*	*	*	*v	*v	*	*	*	*	*
=59	=59	=59	=59	=59	=59	=59	=59	=59	=59	=59	=59	=59	=59	=59	=59	=59	=59	=59	=59	=59	=59	=59	=59	=59	=59	=59	=59	=59	=59	=59	=59	=59	=59	=59	=59	=59	=59	=59
1ryy	1ryy	1ryy	2E 2EE/	2b/	2g\	2E\	.	.	2G/	.	.	2B\	-a	.	2g/	2g/	2b\	.	.	4E\	.	8r	.	8r	.	8r	.	2E\	.	2r	2ryy	.	2b 2g/	.	2r	.	2r	.
.	.	.	.	.	.	.	.	.	.	.	.	.	.	.	.	.	.	.	.	.	.	8e\L	.	8g/L	.	8b\L	.	.	.	.	.	.	.	.	.	.	.	.
.	.	.	.	.	.	.	.	.	.	.	.	.	.	.	.	.	.	.	.	4r	.	8e\	.	8g/	.	8b\	.	.	.	.	.	.	.	.	.	.	.	.
.	.	.	.	.	.	.	.	.	.	.	.	.	.	.	.	.	.	.	.	.	.	8e\J	.	8g/J	.	8b\J	.	.	.	.	.	.	.	.	.	.	.	.
.	.	.	2C#X 2CC#X/	2a#X/	2e\	2C#X/	.	.	2E/	.	.	2A#X\	in	.	2e/	2g/	2a#X/	.	.	4C#X/	.	8r	.	8r	.	8r	.	2C#X/	.	2ee^/	2cc#X\	.	2a#X 2e^>/	.	(2ee^\	.	(2aa#X\	.
.	.	.	.	.	.	.	.	.	.	.	.	.	.	.	.	.	.	.	.	.	.	8c#X\L	.	8e/L	.	8a#X/L	.	.	.	.	.	.	.	.	.	.	.	.
.	.	.	.	.	.	.	.	.	.	.	.	.	.	.	.	.	.	.	.	4r	.	8c#\	.	8e/	.	8a#/	.	.	.	.	.	.	.	.	.	.	.	.
.	.	.	.	.	.	.	.	.	.	.	.	.	.	.	.	.	.	.	.	.	.	8c#\J	.	8e/J	.	8a#/J	.	.	.	.	.	.	.	.	.	.	.	.
=60	=60	=60	=60	=60	=60	=60	=60	=60	=60	=60	=60	=60	=60	=60	=60	=60	=60	=60	=60	=60	=60	=60	=60	=60	=60	=60	=60	=60	=60	=60	=60	=60	=60	=60	=60	=60	=60	=60
!	!	!	!	!	!	!	!	!	!	!	!	!	!	!	!	!	!	!	!	!	!	!	!	!	!	!	!	!	!	!LO:TX:a:t=P:problem:dwie oddzielne główki nut	!	!	!	!	!	!	!	!
1ryy	1ryy	1ryy	1D 1DD	8bL 8g/	4ryy	2.D\	.	.	8G/L	.	.	(8B\L	pa-	.	2.d/	(8g/L	(8b\L	.	.	4D\	.	8r	.	8g'/L	.	8b\L	.	2.D\	.	2.dd/	2.dd\	.	(>8bL 8g/	.	8gg\L)	.	8bb\L)	.
.	.	.	.	8dd 8b/	.	.	.	.	8B/	.	.	8d\	.	.	.	8b/	8dd\	.	.	.	.	8d\L	.	(8b/	.	(8dd\	.	.	.	.	.	.	8dd 8b/	.	(8bb\	.	(8ddd\	.
.	.	.	.	8cc 8a/	4ryy	.	.	.	8A/	.	.	8c\	.	.	.	8a/	8cc\	.	.	4r	.	8d\	.	8a/	.	8cc\	.	.	.	.	.	.	8cc 8a/	.	8aa\	.	8ccc\	.
.	.	.	.	8bJ 8g/	.	.	.	.	8G/J	.	.	8B\J	.	.	.	8g/J	8b\J	.	.	.	.	8d\J	.	8g/J	.	8b\J	.	.	.	.	.	.	8bJ 8g/	.	8gg\J	.	8bb\J	.
.	.	.	.	4a/	4g\	.	.	.	4G/	.	.	4A\)	.	.	.	4g/)	4a/)	.	.	8D\	.	8r	.	8r)	.	8r)	.	.	.	.	.	.	4a 4g/)	.	4gg\)	.	4aa\)	.
.	.	.	.	.	.	.	.	.	.	.	.	.	.	.	.	.	.	.	.	8r	.	8d\	.	8g/	.	8a/	.	.	.	.	.	.	.	.	.	.	.	.
.	.	.	.	4dd/	4f#\	4D\	.	.	4F#/	.	.	4d\	-tri-	.	4a/	4f#/	4dd\	.	.	8D\	.	8r	.	8r	.	8r	.	4D\	.	4dd/	4dd\	.	4dd 4f#/	.	4ff#\	.	4ddd\	.
.	.	.	.	.	.	.	.	.	.	.	.	.	.	.	.	.	.	.	.	8r	.	8d\	.	8f#/	.	8dd\	.	.	.	.	.	.	.	.	.	.	.	.
*	*	*	*	*v	*v	*	*	*	*	*	*	*	*	*	*	*	*	*	*	*	*	*	*	*	*	*	*	*	*	*v	*v	*	*	*	*	*	*	*
!!LO:PB:g=original
=61	=61	=61	=61	=61	=61	=61	=61	=61	=61	=61	=61	=61	=61	=61	=61	=61	=61	=61	=61	=61	=61	=61	=61	=61	=61	=61	=61	=61	=61	=61	=61	=61	=61	=61	=61	=61
1ryy	1ryy	1ryy	4G 4GG/	8g/L	4G\	a	.	4G/	.	.	4G/	-a	.	4g/	4g/	4g/	.	.	8G\L	.	8g'\L	.	8g'/L	.	8g/L	f	(8G\L	.	8dd 8g/	f	8g'/L	.	8gg\L	.	8gg'\L	.
.	.	.	.	(16f#/L	.	.	.	.	.	.	.	.	.	.	.	.	.	.	(16F#\L	.	(16f#\L	.	(16f#/L	.	(16f#/L	.	16F#\L	.	8r	.	(16f#/L	.	(16ff#\L	.	(16ff#\L	.
.	.	.	.	16g/JJ)	.	.	.	.	.	.	.	.	.	.	.	.	.	.	16G\JJ)	.	16g\JJ)	.	16g/JJ)	.	16g/JJ)	.	16G\JJ)	.	.	.	16g/JJ)	.	16gg\JJ)	.	16gg\JJ)	.
.	.	.	4r	(16a#X/LL	4r	.	.	4r	.	.	4r	.	.	4r	4r	4r	.	.	(16C#X/LL	.	(16c#X\LL	.	(16a#X/LL	.	(16a#X/LL	.	(16C#X/LL	.	4r	.	(16a#X/LL	.	(16aa#X\LL	.	(16aa#X\LL	.
.	.	.	.	16b/JJ)	.	.	.	.	.	.	.	.	.	.	.	.	.	.	16D/JJ)	.	16d\JJ)	.	16b/JJ)	.	16b/JJ)	.	16D/JJ)	.	.	.	16b/JJ)	.	16bb\JJ)	.	16bb\JJ)	.
.	.	.	.	(16cc#X\LL	.	.	.	.	.	.	.	.	.	.	.	.	.	.	(16AA#X/LL	.	(16A#X/LL	.	(16cc#X\LL	.	(16cc#X\LL	.	(16AA#X/LL	.	.	f	(16cc#X/LL	.	(16ccc#X\LL	.	(16ccc#X\LL	.
.	.	.	.	16dd\JJ)	.	.	.	.	.	.	.	.	.	.	.	.	.	.	16BB/JJ)	.	16B/JJ)	.	16dd\JJ)	.	16dd\JJ)	.	16BB/JJ)	.	.	.	16dd/JJ)	.	16ddd\JJ)	.	16ddd\JJ)	.
.	.	.	4r	4gg\	4r	.	.	2r	.	.	2r	.	.	2r	2r	2r	.	.	4GG/	.	4G/	.	4gg 4b 4d\	.	4gg 4b 4d\	.	4GG/	.	4dd 4g/	.	4b 4g/	.	4gg\	.	4ggg\	.
!	!	!	!	!	!	!	!	!	!	!	!	!	!	!	!	!	!	!	!	!	!	!LO:DY:rj	!	!	!	!	!	!	!	!	!	!	!	!	!	!
.	.	.	4D\	4r	4D\	qui	.	.	.	.	.	.	.	.	.	.	.	.	4D\	.	4d\	p	4r	.	4r	.	4r	.	4r	.	4r	.	4r	.	4r	.
=62	=62	=62	=62	=62	=62	=62	=62	=62	=62	=62	=62	=62	=62	=62	=62	=62	=62	=62	=62	=62	=62	=62	=62	=62	=62	=62	=62	=62	=62	=62	=62	=62	=62	=62	=62	=62
*	*	*	*	*^	*	*	*	*	*	*	*	*	*	*	*	*	*	*	*	*	*	*	*	*	*	*	*	*	*	*	*	*	*	*	*	*
1ryy	1ryy	1ryy	2E-X\	2r	1re	(2E-X\	vi-	.	1r	.	.	2r	.	.	1r	1r	1r	.	.	(2E-X\	.	(2e-X^<\	.	1r	.	2r	.	1ryy	.	1ryy	.	1ryy	.	1ryy	.	1r	.
.	.	.	4D\	4r	.	4D\)	-tam	.	.	.	.	4r	.	.	.	.	.	.	.	4D\)	.	4d\)	.	.	.	4r	.	.	.	.	.	.	.	.	.	.	.
.	.	.	4D\	4dd/	.	(4D\	si-	.	.	.	.	(4d\	si-	.	.	.	.	.	.	4D\	.	4d\	.	.	.	4dd\	p	.	.	.	.	.	.	.	.	.	.
=63	=63	=63	=63	=63	=63	=63	=63	=63	=63	=63	=63	=63	=63	=63	=63	=63	=63	=63	=63	=63	=63	=63	=63	=63	=63	=63	=63	=63	=63	=63	=63	=63	=63	=63	=63	=63	=63
1ryy	1ryy	1ryy	2C/	2ee-X/	2rf	2C/)	.	.	2r	.	.	2e-X\)	.	.	1r	1r	1r	.	.	(2C/	.	(>2c^/	.	2r	.	(2ee-X^<\	.	1ryy	.	1ryy	.	1ryy	.	1ryy	.	1r	.
.	.	.	4BB-X/	4dd/	4r	4BB-X/	-ne	.	4r	.	.	4d\	-ne	.	.	.	.	.	.	4BB-X/)	.	4B-X/)	.	4r	.	4dd\)	.	.	.	.	.	.	.	.	.	.	.
.	.	.	4BB-/	4dd/	4g\	(4BB-/	ter-	.	(4G/	ter-	.	(4d\	ter-	.	.	.	.	.	.	(4BB-/	.	(4B-/	.	4g/	p	(4dd\	.	.	.	.	.	.	.	.	.	.	.
=64	=64	=64	=64	=64	=64	=64	=64	=64	=64	=64	=64	=64	=64	=64	=64	=64	=64	=64	=64	=64	=64	=64	=64	=64	=64	=64	=64	=64	=64	=64	=64	=64	=64	=64	=64	=64	=64
1ryy	1ryy	1ryy	2AA/	2cc/	2f#\	8.AA/)	.	.	8.F#/)	.	.	8.c\	.	.	1r	1r	1r	.	.	8.AA/L)	.	8.A/L)	.	8.f#/L	.	8.cc\L)	.	1ryy	.	1ryy	.	1ryy	.	1ryy	.	1r	.
.	.	.	.	.	.	16AA/	-mi-	.	16F#/	-mi-	.	16c\)	-mi-	.	.	.	.	.	.	16AA/Jk	.	16A/Jk	.	16f#/Jk	.	16cc\Jk	.	.	.	.	.	.	.	.	.	.	.
.	.	.	.	.	.	4AA/	-no	.	4F#/	-no	.	4c\	-no	.	.	.	.	.	.	4AA/	.	4A/	.	4f#/	.	4cc\	.	.	.	.	.	.	.	.	.	.	.
.	.	.	4GG/	4b-X/	4g\	(4GG/	no-	.	2G/	no-	.	(4B-X\	no-	.	.	.	.	.	.	4GG/	.	4G/	.	2g/	.	(4b-X/	.	.	.	.	.	.	.	.	.	.	.
.	.	.	4BB-X/	4g 4d/	4ryy	4BB-X/	.	.	.	.	.	4G/)	.	.	.	.	.	.	.	4BB-X/	.	4B-X/	.	.	.	4g/)	.	.	.	.	.	.	.	.	.	.	.
*	*	*	*	*v	*v	*	*	*	*	*	*	*	*	*	*	*	*	*	*	*	*	*	*	*	*	*	*	*	*	*	*	*	*	*	*	*	*
=65	=65	=65	=65	=65	=65	=65	=65	=65	=65	=65	=65	=65	=65	=65	=65	=65	=65	=65	=65	=65	=65	=65	=65	=65	=65	=65	=65	=65	=65	=65	=65	=65	=65	=65	=65	=65
*	*	*	*	*	*	*	*	*	*	*	*	*	*	*	*	*	*	*	*	*	*	*	*	*	*	*	*	*	*^	*	*	*	*	*	*	*
1ryy	1ryy	1ryy	2.D\	2.a 2.f# 2.d/	2.D\)	-bis.	.	2.F#/	-bis	.	2.A\	-bis	.	2r	2r	2r	.	.	2.D\	.	2.d\	.	2.f#/	.	2.dd\	.	2r	.	2r	2ryy	.	2r	.	1r	.	16r	.
.	.	.	.	.	.	.	.	.	.	.	.	.	.	.	.	.	.	.	.	.	.	.	.	.	.	.	.	.	.	.	.	.	.	.	.	16fff#\LL	.
.	.	.	.	.	.	.	.	.	.	.	.	.	.	.	.	.	.	.	.	.	.	.	.	.	.	.	.	.	.	.	.	.	.	.	.	16ddd\	.
.	.	.	.	.	.	.	.	.	.	.	.	.	.	.	.	.	.	.	.	.	.	.	.	.	.	.	.	.	.	.	.	.	.	.	.	16aa\JJ	.
.	.	.	.	.	.	.	.	.	.	.	.	.	.	.	.	.	.	.	.	.	.	.	.	.	.	.	.	.	.	.	.	.	.	.	.	16ff#\LL	.
.	.	.	.	.	.	.	.	.	.	.	.	.	.	.	.	.	.	.	.	.	.	.	.	.	.	.	.	.	.	.	.	.	.	.	.	16dd\	.
.	.	.	.	.	.	.	.	.	.	.	.	.	.	.	.	.	.	.	.	.	.	.	.	.	.	.	.	.	.	.	.	.	.	.	.	16a\	.
.	.	.	.	.	.	.	f	.	.	.	.	.	f	.	.	.	.	.	.	.	.	.	.	.	.	.	.	.	.	.	.	.	.	.	.	16f#\JJ	.
.	.	.	.	.	.	.	.	.	.	.	.	.	.	4r	4r	4r	.	.	.	.	.	.	.	.	.	.	4r	.	4r	4ryy	.	4r	.	.	.	4d/	.
!	!	!	!	!	!	!	!	!	!	!	!	!	!	!	!	!	!	!	!	!LO:DY:a	!	!	!	!	!	!	!	!	!	!	!	!	!LO:DY:rj	!	!	!	!
.	.	.	4Cn/	4dd 4f#/	4C/	Do	.	4F#/	.	.	[4d\	Do-	.	4d/	4f#/	[4dd\	.	f	4C/	f	4d\	.	4f#/	f	4dd\	.	4Cn/	.	4dd/	4dd\	.	4dd 4f#/	f	.	.	4r	.
*	*	*	*	*	*	*	*	*	*	*	*	*	*	*	*	*	*	*	*	*	*	*	*	*	*	*	*	*	*v	*v	*	*	*	*	*	*	*
!!LO:PB:g=original
=66	=66	=66	=66	=66	=66	=66	=66	=66	=66	=66	=66	=66	=66	=66	=66	=66	=66	=66	=66	=66	=66	=66	=66	=66	=66	=66	=66	=66	=66	=66	=66	=66	=66	=66	=66	=66
*	*	*	*	*^	*	*	*	*	*	*	*	*	*	*	*	*	*	*	*	*	*	*	*	*	*	*	*	*	*	*	*^	*	*	*	*	*
!	!	!	!	!	!	!	!	!	!	!	!	!	!	!	!	!	!LO:TX:a:t=P:problem:brak zakończenia ligatury	!	!	!	!	!	!	!	!	!	!	!	!	!	!	!	!	!	!	!	!	!
1ryy	1ryy	1ryy	2.BB/	2dd/	1g	2BB/	.	.	2G/	.	.	2d\]	.	.	2d/	2g/	2dd\]	.	.	4BB/	.	8r	.	8r	.	8r	.	2.BB/	.	2.dd 2.g/	.	2dd/	2.g\	.	1ryy	.	1ryy	.
.	.	.	.	.	.	.	.	.	.	.	.	.	.	.	.	.	.	.	.	.	.	8d\L	.	8g/L	.	8dd\L	.	.	.	.	.	.	.	.	.	.	.	.
.	.	.	.	.	.	.	.	.	.	.	.	.	.	.	.	.	.	.	.	4r	.	8d\	.	8g/	.	8dd\	.	.	.	.	.	.	.	.	.	.	.	.
.	.	.	.	.	.	.	.	.	.	.	.	.	.	.	.	.	.	.	.	.	.	8d\J	.	8g/J	.	8dd\J	.	.	.	.	.	.	.	.	.	.	.	.
.	.	.	.	4gg 4ee/	.	4BB/	.	.	4G/	.	.	4g\	-net	.	4d/	4g/	4gg\	.	.	8BB/	.	8r	.	8r	.	8r	.	.	.	.	.	4gg/	.	.	.	.	.	.
.	.	.	.	.	.	.	.	.	.	.	.	.	.	.	.	.	.	.	.	8r	.	8g\	.	8dd\	.	8gg\	.	.	.	.	.	.	.	.	.	.	.	.
.	.	.	4C/	4cc/	.	4C/	.	.	4c\	.	.	4e\	in	.	4g/	4cc\	4ee\	.	.	8C/	.	8r	.	8r	.	8r	.	4C/	.	4ee 4g\	.	4ee/	4cc\	.	.	.	.	.
.	.	.	.	.	.	.	.	.	.	.	.	.	.	.	.	.	.	.	.	8r	.	8g\	.	8cc\	.	8ee\	.	.	.	.	.	.	.	.	.	.	.	.
*	*	*	*	*v	*v	*	*	*	*	*	*	*	*	*	*	*	*	*	*	*	*	*	*	*	*	*	*	*	*	*	*	*v	*v	*	*	*	*	*
=67	=67	=67	=67	=67	=67	=67	=67	=67	=67	=67	=67	=67	=67	=67	=67	=67	=67	=67	=67	=67	=67	=67	=67	=67	=67	=67	=67	=67	=67	=67	=67	=67	=67	=67	=67	=67
*	*	*	*	*	*	*	*	*	*	*	*	*	*	*	*	*	*	*	*	*	*	*	*	*	*	*	*	*	*^	*	*	*	*	*	*	*
1ryy	1ryy	1ryy	2.D\	4a 4f#/	2.D\	.	.	(4F#/	.	.	(4A\	pa-	.	4f#/	4a 4f#/	(<4a/	.	.	4D\	.	8r	.	8r	.	8r	.	2.D\	.	2.dd/	2.dd\	.	4a 4f#/	.	1ryy	.	1ryy	.
.	.	.	.	.	.	.	.	.	.	.	.	.	.	.	.	.	.	.	.	.	8d\L	.	8f#/L	.	(8a/L	.	.	.	.	.	.	.	.	.	.	.	.
.	.	.	.	8bL 8g/	.	.	.	8G/L	.	.	8B\L	.	.	8g/L	8g/L	8b/L	.	.	4r	.	8d\	.	8g/	.	8b/	.	.	.	.	.	.	8bL 8g/	.	.	.	.	.
.	.	.	.	8ccJ 8a/	.	.	.	8A/J	.	.	8c\J	.	.	8a/J	8a/J	8cc/J	.	.	.	.	8d\J	.	8a/J	.	8cc/J)	.	.	.	.	.	.	8ccJ 8a/	.	.	.	.	.
.	.	.	.	4dd 4b/	.	.	.	4B/)	.	.	4d\)	.	.	4b/	4b/	4dd\)	.	.	8D\	.	8r	.	8r	.	8r	.	.	.	.	.	.	4dd 4b/	.	.	.	.	.
.	.	.	.	.	.	.	.	.	.	.	.	.	.	.	.	.	.	.	8r	.	8d\	.	8b\	.	8dd\	.	.	.	.	.	.	.	.	.	.	.	.
.	.	.	4D#X\	4cc 4a/	4D#X\	.	.	4A/	.	.	4c\	-tri-	.	4a/	4a/	4cc\	.	.	8D#X\	.	8r	.	8r	.	8r	.	4D#X\	.	4r	4ryy	.	4cc 4a/	.	.	.	.	.
.	.	.	.	.	.	.	.	.	.	.	.	.	.	.	.	.	.	.	8r	.	8d#X\	.	8a\	.	8cc\	.	.	.	.	.	.	.	.	.	.	.	.
=68	=68	=68	=68	=68	=68	=68	=68	=68	=68	=68	=68	=68	=68	=68	=68	=68	=68	=68	=68	=68	=68	=68	=68	=68	=68	=68	=68	=68	=68	=68	=68	=68	=68	=68	=68	=68	=68
1ryy	1ryy	1ryy	2E\	2b 2g/	2E\	.	.	2G/	.	.	2B\	-a	.	2g/	2g/	2b\	.	.	4E\	.	8r	.	8r	.	8r	.	2E\	.	2r	2ryy	.	2a 2f#/	.	1ryy	.	1ryy	.
.	.	.	.	.	.	.	.	.	.	.	.	.	.	.	.	.	.	.	.	.	8e\L	.	8g/L	.	8b/L	.	.	.	.	.	.	.	.	.	.	.	.
.	.	.	.	.	.	.	.	.	.	.	.	.	.	.	.	.	.	.	4r	.	8e\	.	8g/	.	8b/	.	.	.	.	.	.	.	.	.	.	.	.
.	.	.	.	.	.	.	.	.	.	.	.	.	.	.	.	.	.	.	.	.	8e\J	.	8g/J	.	8b/J	.	.	.	.	.	.	.	.	.	.	.	.
.	.	.	2C/	2ee 2g\	2C/	.	.	2G/	.	.	2e\	in	.	2g/	2cc\	2ee\	.	.	4C/	.	8r	.	8r	.	8r	.	2C/	.	2ee/	2cc\	.	2ee 2g/	.	.	.	.	.
.	.	.	.	.	.	.	.	.	.	.	.	.	.	.	.	.	.	.	.	.	8g\L	.	8cc\L	.	8ee\L	.	.	.	.	.	.	.	.	.	.	.	.
.	.	.	.	.	.	.	.	.	.	.	.	.	.	.	.	.	.	.	4r	.	8g\	.	8cc\	.	8ee\	.	.	.	.	.	.	.	.	.	.	.	.
.	.	.	.	.	.	.	.	.	.	.	.	.	.	.	.	.	.	.	.	.	8g\J	.	8cc\J	.	8ee\J	.	.	.	.	.	.	.	.	.	.	.	.
=69	=69	=69	=69	=69	=69	=69	=69	=69	=69	=69	=69	=69	=69	=69	=69	=69	=69	=69	=69	=69	=69	=69	=69	=69	=69	=69	=69	=69	=69	=69	=69	=69	=69	=69	=69	=69	=69
*	*	*	*	*^	*	*	*	*	*	*	*	*	*	*	*	*	*	*	*	*	*	*	*	*	*	*	*	*	*	*	*	*^	*	*	*	*	*
1ryy	1ryy	1ryy	2.D\	8ddL 8b/	4ryy	2.D\	.	.	(8B/L	.	.	(8d\L	pa-	.	2.d/	(8b/L	(8dd\L	.	.	4D\	.	8r	.	(8b/L	.	(8dd\L	.	2.D\	.	2.dd/	2.dd\	.	8ccL 8a/	4ryy	.	1ryy	.	1ryy	.
.	.	.	.	8ccJ 8a/	.	.	.	.	8A/J	.	.	8c\J	.	.	.	8a/J	8cc\J	.	.	.	.	8d\L	.	8a/J	.	8cc\J)	.	.	.	.	.	.	8bJ 8g/	.	.	.	.	.	.
!	!	!	!	!LO:N:vis=4	!	!	!	!	!	!	!	!	!	!	!	!	!	!	!	!	!	!	!	!	!	!	!	!	!	!	!	!	!	!	!	!	!	!	!
.	.	.	.	2b/	2g\	.	.	.	2G/)	.	.	4B\	.	.	.	2g/)	4b\	.	.	4r	.	8d\	.	4g/)	.	4b\	.	.	.	.	.	.	4b/	2g\	.	.	.	.	.
.	.	.	.	.	.	.	.	.	.	.	.	.	.	.	.	.	.	.	.	.	.	8d\J	.	.	.	.	.	.	.	.	.	.	.	.	.	.	.	.	.
.	.	.	.	.	.	.	.	.	.	.	.	4A\)	.	.	.	.	4a\)	.	.	8D\	.	8r	.	8r	.	8r	.	.	.	.	.	.	4a/	.	.	.	.	.	.
.	.	.	.	.	.	.	.	.	.	.	.	.	.	.	.	.	.	.	.	8r	.	8d\	.	8g/	.	8a\	.	.	.	.	.	.	.	.	.	.	.	.	.
.	.	.	4D\	4dd/	4f#\	4D\	.	.	4F#/	.	.	4d\	-tri-	.	4a/	4f#/	4dd\	.	.	8D\	.	8r	.	8r	.	8r	.	4D\	.	4r	4ryy	.	4dd/	4f#\	.	.	.	.	.
.	.	.	.	.	.	.	.	.	.	.	.	.	.	.	.	.	.	.	.	8r	.	8a 8d\	.	8f#/	.	8dd\	.	.	.	.	.	.	.	.	.	.	.	.	.
=70	=70	=70	=70	=70	=70	=70	=70	=70	=70	=70	=70	=70	=70	=70	=70	=70	=70	=70	=70	=70	=70	=70	=70	=70	=70	=70	=70	=70	=70	=70	=70	=70	=70	=70	=70	=70	=70	=70	=70
1ryy	1ryy	1ryy	2E\	2b/	2g\	2E\	.	.	2G/	.	.	2B\	-a	.	2g/	2g/	2b\	.	.	4E\	.	8r	.	8r	.	8r	.	2E\	.	2r	2ryy	.	2b 2g/	2ryy	.	2r	.	2r	.
.	.	.	.	.	.	.	.	.	.	.	.	.	.	.	.	.	.	.	.	.	.	8e\L	.	8g/L	.	8b/L	.	.	.	.	.	.	.	.	.	.	.	.	.
.	.	.	.	.	.	.	.	.	.	.	.	.	.	.	.	.	.	.	.	4r	.	8e\	.	8g/	.	8b/	.	.	.	.	.	.	.	.	.	.	.	.	.
.	.	.	.	.	.	.	.	.	.	.	.	.	.	.	.	.	.	.	.	.	.	8e\J	.	8g/J	.	8b/J	.	.	.	.	.	.	.	.	.	.	.	.	.
.	.	.	2C#X/	2a#X/	2e\	2C#X/	.	.	2E/	.	.	2A#X\	in	.	2e/	2g/	2a#X^>/	.	.	4C#X/	.	8r	.	8r	.	8r	.	2C#X^/	.	2ee/	2cc#X\	.	2a#X^/	2g\	.	(2ee^\	.	(2aa#X\	.
.	.	.	.	.	.	.	.	.	.	.	.	.	.	.	.	.	.	.	.	.	.	8c#X/L	.	8e/L	.	8a#X/L	.	.	.	.	.	.	.	.	.	.	.	.	.
.	.	.	.	.	.	.	.	.	.	.	.	.	.	.	.	.	.	.	.	4r	.	8c#/	.	8e/	.	8a#/	.	.	.	.	.	.	.	.	.	.	.	.	.
.	.	.	.	.	.	.	.	.	.	.	.	.	.	.	.	.	.	.	.	.	.	8c#/J	.	8e/J	.	8a#/J	.	.	.	.	.	.	.	.	.	.	.	.	.
=71	=71	=71	=71	=71	=71	=71	=71	=71	=71	=71	=71	=71	=71	=71	=71	=71	=71	=71	=71	=71	=71	=71	=71	=71	=71	=71	=71	=71	=71	=71	=71	=71	=71	=71	=71	=71	=71	=71	=71
1ryy	1ryy	1ryy	2.D\	8bL 8g/	4ryy	2.D\	.	.	(8G/L	.	.	(8B\L	[pa]-	.	2.d/	8g/L	(8b\L	.	.	4D\	.	8r	.	8g/L	.	8b/L	.	2.D\	.	2.dd/	2.dd\	.	(>8bL 8g/	4ryy	.	8gg\L	.	8bb\L	.
.	.	.	.	8dd 8b/	.	.	.	.	8B/	.	.	8d\	.	.	.	(8b/	8dd\	.	.	.	.	8d\L	.	(8b/	.	(8dd/	.	.	.	.	.	.	8dd 8b/	.	.	8bb\	.	8ddd\	.
.	.	.	.	8cc 8a/	4ryy	.	.	.	8A/	.	.	8c\	.	.	.	8a/	8cc\	.	.	4r	.	8d\	.	8a/	.	8cc/	.	.	.	.	.	.	8cc 8a/	4ryy	.	8aa\	.	8ccc\	.
.	.	.	.	8bJ 8g/	.	.	.	.	8G/J	.	.	8B\J	.	.	.	8g/J	8b\J	.	.	.	.	8d\J	.	8g/J)	.	8b/J)	.	.	.	.	.	.	8bJ 8g/	.	.	8gg\J	.	8bb\J	.
.	.	.	.	4a/	4g\	.	.	.	4G/)	.	.	4A\)	.	.	.	4g/)	4a/)	.	.	8D\	.	8r	.	8r	.	8r	.	.	.	.	.	.	4a/)	4g\	.	4gg\)	.	4aa\)	.
.	.	.	.	.	.	.	.	.	.	.	.	.	.	.	.	.	.	.	.	8r	.	8d\	.	8g/	.	8a/	.	.	.	.	.	.	.	.	.	.	.	.	.
.	.	.	4D 4DD/	4dd/	4f#\	4D\	.	.	4F#/	.	.	4d\	-tri-	.	4a/	4f#/	4dd\	.	.	8D\	.	8r	.	8r	.	8r	.	4D\	.	4dd/	4dd\	.	4dd/	4f#\	.	4ff#\	.	4ddd\	.
.	.	.	.	.	.	.	.	.	.	.	.	.	.	.	.	.	.	.	.	8r	.	8d\	.	8f#/	.	8dd\	.	.	.	.	.	.	.	.	.	.	.	.	.
*	*	*	*	*	*	*	*	*	*	*	*	*	*	*	*	*	*	*	*	*	*	*	*	*	*	*	*	*	*	*v	*v	*	*	*	*	*	*	*	*
*	*	*	*	*v	*v	*	*	*	*	*	*	*	*	*	*	*	*	*	*	*	*	*	*	*	*	*	*	*	*	*	*	*v	*v	*	*	*	*	*
=72	=72	=72	=72	=72	=72	=72	=72	=72	=72	=72	=72	=72	=72	=72	=72	=72	=72	=72	=72	=72	=72	=72	=72	=72	=72	=72	=72	=72	=72	=72	=72	=72	=72	=72	=72	=72
1ryy	1ryy	1ryy	4G 4GG/	8g'/L	4G\	.	.	4G/	.	.	4G/	-a	.	4g/	4g/	4g/	.	.	4G\	.	4g\	.	4g/	.	4g/	.	4G\	.	4g/	.	4g/	.	4gg\	.	8gg\L	.
.	.	.	.	(16f#/L	.	.	.	.	.	.	.	.	.	.	.	.	.	.	.	.	.	.	.	.	.	.	.	.	.	.	.	.	.	.	(16ff#\L	.
.	.	.	.	16g/JJ)	.	.	.	.	.	.	.	.	.	.	.	.	.	.	.	.	.	.	.	.	.	.	.	.	.	.	.	.	.	.	16gg\JJ)	.
.	.	.	4r	(16a#X/LL	4r	.	.	4r	.	.	4r	.	.	4r	4r	4r	.	.	4r	.	4r	.	4r	.	4r	.	4r	.	4r	.	4r	.	4r	.	(16aa#X\LL	.
.	.	.	.	16b/JJ)	.	.	.	.	.	.	.	.	.	.	.	.	.	.	.	.	.	.	.	.	.	.	.	.	.	.	.	.	.	.	16bb\)	.
.	.	.	.	(16cc#X/LL	.	.	.	.	.	.	.	.	.	.	.	.	.	.	.	.	.	.	.	.	.	.	.	.	.	.	.	.	.	.	(16ccc#X\	.
.	.	.	.	16dd/JJ)	.	.	.	.	.	.	.	.	.	.	.	.	.	.	.	.	.	.	.	.	.	.	.	.	.	.	.	.	.	.	16ddd\JJ	.
.	.	.	2r	8gg'\L	2r	.	.	2r	.	.	2r	.	.	2r	2r	2r	.	.	2r	.	2r	.	2r	.	2r	.	2r	.	2r	.	2r	.	8r	.	8eee\L)	.
.	.	.	.	(16ff#\L	.	.	.	.	.	.	.	.	.	.	.	.	.	.	.	.	.	.	.	.	.	.	.	.	.	.	.	.	(16f#/LL	.	(16ff#\L	.
.	.	.	.	16gg\JJ)	.	.	.	.	.	.	.	.	.	.	.	.	.	.	.	.	.	.	.	.	.	.	.	.	.	.	.	.	16g/JJ)	.	16gg\JJ)	.
!	!	!	!	!LO:TX:a:t=P:problem;# above	!	!	!	!	!	!	!	!	!	!	!	!	!	!	!	!	!	!	!	!	!	!	!	!	!	!	!	!	!	!	!	!
.	.	.	.	(16aa#X\LL	.	.	.	.	.	.	.	.	.	.	.	.	.	.	.	.	.	.	.	.	.	.	.	.	.	.	.	.	(16a#X/LL	.	(16aa#X\LL	.
.	.	.	.	16bb\JJ)	.	.	.	.	.	.	.	.	.	.	.	.	.	.	.	.	.	.	.	.	.	.	.	.	.	.	.	.	16b/JJ)	.	16bb\)	.
.	.	.	.	(16ccc#X\LL	.	.	.	.	.	.	.	.	.	.	.	.	.	.	.	.	.	.	.	.	.	.	.	.	.	.	.	.	(16cc#X/LL	.	(16ccc#\	.
.	.	.	.	16ddd\JJ)	.	.	.	.	.	.	.	.	.	.	.	.	.	.	.	.	.	.	.	.	.	.	.	.	.	.	.	.	16dd/JJ)	.	16ddd#X\JJ	.
=73	=73	=73	=73	=73	=73	=73	=73	=73	=73	=73	=73	=73	=73	=73	=73	=73	=73	=73	=73	=73	=73	=73	=73	=73	=73	=73	=73	=73	=73	=73	=73	=73	=73	=73	=73	=73
*	*	*	*	*	*	*	*	*^	*	*	*	*	*	*	*	*	*	*	*	*	*	*	*	*	*	*	*	*	*	*	*	*	*	*	*	*
1ryy	1ryy	1ryy	2r	4ggg\	2r	.	.	2r	2ryy	.	.	2r	.	.	2r	2r	2r	.	.	1r	.	1r	.	1r	.	1r	.	1r	.	1r	.	1r	.	4gg\	.	4ggg\)	.
.	.	.	.	4r	.	.	.	.	.	.	.	.	.	.	.	.	.	.	.	.	.	.	.	.	.	.	.	.	.	.	.	.	.	4r	.	4r	.
.	.	.	2c 2G 2E 2C\	2ee 2cc 2g/	[2C/	.	.	2c/	2G\	.	.	[2e\	A-	.	[>2g/	[2cc\	[2ee\	.	.	.	.	.	.	.	.	.	.	.	.	.	.	.	.	2r	.	2r	.
=74	=74	=74	=74	=74	=74	=74	=74	=74	=74	=74	=74	=74	=74	=74	=74	=74	=74	=74	=74	=74	=74	=74	=74	=74	=74	=74	=74	=74	=74	=74	=74	=74	=74	=74	=74	=74	=74
1ryy	1ryy	1ryy	1c 1G 1E 1C	8ee 8cc 8g/	1C]	.	.	1c	1G	.	.	1e]	.	.	1g]	1cc]	1ee]	.	.	1r	.	1r	.	1r	.	1r	.	2r	.	2r	.	8r	.	2r	.	8r	.
*	*	*	*	*	*	*	*	*	*	*	*	*	*	*	*	*	*	*	*	*	*	*	*	*	*	*	*	*	*	*	*	*	*	*	*	*tuplet	*
!	!	!	!	!LO:TUP:a	!	!	!	!	!	!	!	!	!	!	!	!	!	!	!	!	!	!	!	!	!	!	!	!	!	!	!	!	!	!	!	!LO:TUP:a	!
.	.	.	.	24gg\LL	.	.	.	.	.	.	.	.	.	.	.	.	.	.	.	.	.	.	.	.	.	.	.	.	.	.	.	24gg'/LL	.	.	.	24ggg'\LL	.
.	.	.	.	24ee\	.	.	.	.	.	.	.	.	.	.	.	.	.	.	.	.	.	.	.	.	.	.	.	.	.	.	.	24ee'/	.	.	.	24eee'\	.
.	.	.	.	24cc\JJ	.	.	.	.	.	.	.	.	.	.	.	.	.	.	.	.	.	.	.	.	.	.	.	.	.	.	.	24cc'/JJ	.	.	.	24ccc'\JJ	.
!	!	!	!	!	!	!	!	!	!	!	!	!	!	!	!	!	!	!	!	!	!	!	!	!	!	!	!	!	!	!	!	!	!	!	!	!LO:TUP:a	!
.	.	.	.	8g/L	.	.	.	.	.	.	.	.	.	.	.	.	.	.	.	.	.	.	.	.	.	.	.	.	.	.	.	8g'/L	.	.	.	8gg'\L	.
!	!	!	!	!LO:TUP:b	!	!	!	!	!	!	!	!	!	!	!	!	!	!	!	!	!	!	!	!	!	!	!	!	!	!	!	!	!	!	!	!	!
.	.	.	.	24ee/L	.	.	.	.	.	.	.	.	.	.	.	.	.	.	.	.	.	.	.	.	.	.	.	.	.	.	.	24ee'/L	.	.	.	24eee'\L	.
.	.	.	.	24cc/	.	.	.	.	.	.	.	.	.	.	.	.	.	.	.	.	.	.	.	.	.	.	.	.	.	.	.	24cc'/	.	.	.	24ccc'\	.
.	.	.	.	24g/JJ	.	.	.	.	.	.	.	.	.	.	.	.	.	.	.	.	.	.	.	.	.	.	.	.	.	.	.	24g'/JJ	.	.	.	24gg'\JJ	.
.	.	.	.	8e/L	.	.	.	.	.	.	.	.	.	.	.	.	.	.	.	.	.	.	.	.	.	.	.	4r	.	4r	.	8e'/L	.	4r	.	8ee'\L	.
!	!	!	!	!LO:TUP:b	!	!	!	!	!	!	!	!	!	!	!	!	!	!	!	!	!	!	!	!	!	!	!	!	!	!	!	!	!	!	!	!LO:TUP:a	!
.	.	.	.	24cc/L	.	.	.	.	.	.	.	.	.	.	.	.	.	.	.	.	.	.	.	.	.	.	.	.	.	.	.	24cc'/L	.	.	.	24ccc'\L	.
.	.	.	.	24g/	.	.	.	.	.	.	.	.	.	.	.	.	.	.	.	.	.	.	.	.	.	.	.	.	.	.	.	24g'/	.	.	.	24gg'\	.
.	.	.	.	24e/JJ	.	.	.	.	.	.	.	.	.	.	.	.	.	.	.	.	.	.	.	.	.	.	.	.	.	.	.	24e'/JJ	.	.	.	24ee'\JJ	.
!	!	!	!	!LO:TX:t=P:problem:mixed beam	!	!	!	!	!	!	!	!	!	!	!	!	!	!	!	!	!	!	!	!	!	!	!	!	!	!	!	!	!	!	!	!	!
.	.	.	.	8c/L	.	.	.	.	.	.	.	.	.	.	.	.	.	.	.	.	.	.	.	.	.	.	.	8r	.	8r	.	8c/L	.	8r	.	8cc'\L	.
.	.	.	.	8eeJ 8cc 8g\	.	.	.	.	.	.	.	.	.	.	.	.	.	.	.	.	.	.	.	.	.	.	.	8C/	.	8ee 8cc\	ff	8eeJ 8cc/	.	8ccc\	.	8eee\J	.
.	.	.	.	.	.	.	.	.	.	.	.	.	.	.	.	.	.	.	.	.	.	.	ff	.	.	.	ff	.	.	.	.	.	.	.	.	.	ff
*	*	*	*	*	*	*	*	*v	*v	*	*	*	*	*	*	*	*	*	*	*	*	*	*	*	*	*	*	*	*	*	*	*	*	*	*	*	*
=75	=75	=75	=75	=75	=75	=75	=75	=75	=75	=75	=75	=75	=75	=75	=75	=75	=75	=75	=75	=75	=75	=75	=75	=75	=75	=75	=75	=75	=75	=75	=75	=75	=75	=75	=75	=75
*	*	*	*	*	*	*	*	*	*	*	*	*	*	*	*	*	*	*	*tremolo	*	*tremolo	*	*tremolo	*	*tremolo	*	*	*	*	*	*	*	*	*	*	*
*	*	*	*	*	*	*	*	*^	*	*	*	*	*	*	*	*	*	*	*	*	*	*	*	*	*	*	*	*	*	*	*	*	*	*	*	*
1ryy	1ryy	1ryy	1d 1B 1G;<	1dd 1b 1g;	1G;	.	.	1B;	1G	.	.	1d;	-men.	.	1g;	1b;	1dd;	.	.	32G\LLL	.	32gLLL 32G\	.	32bLLL 32d/	.	32ggLLL 32b\	.	1GG;	.	1dd 1g;	.	1gg 1b;	.	1bb;	.	1ggg;	.
.	.	.	.	.	.	.	.	.	.	.	.	.	.	.	.	.	.	.	.	32G\	.	32g 32G\	.	32b 32d/	.	32gg 32b\	.	.	.	.	.	.	.	.	.	.	.
.	.	.	.	.	.	.	.	.	.	.	.	.	.	.	.	.	.	.	.	32G\	.	32g 32G\	.	32b 32d/	.	32gg 32b\	.	.	.	.	.	.	.	.	.	.	.
.	.	.	.	.	.	.	.	.	.	.	.	.	.	.	.	.	.	.	.	32G\	.	32g 32G\	.	32b 32d/	.	32gg 32b\	.	.	.	.	.	.	.	.	.	.	.
.	.	.	.	.	.	.	.	.	.	.	.	.	.	.	.	.	.	.	.	32G\	.	32g 32G\	.	32b 32d/	.	32gg 32b\	.	.	.	.	.	.	.	.	.	.	.
.	.	.	.	.	.	.	.	.	.	.	.	.	.	.	.	.	.	.	.	32G\	.	32g 32G\	.	32b 32d/	.	32gg 32b\	.	.	.	.	.	.	.	.	.	.	.
.	.	.	.	.	.	.	.	.	.	.	.	.	.	.	.	.	.	.	.	32G\	.	32g 32G\	.	32b 32d/	.	32gg 32b\	.	.	.	.	.	.	.	.	.	.	.
.	.	.	.	.	.	.	.	.	.	.	.	.	.	.	.	.	.	.	.	32G\	.	32g 32G\	.	32b 32d/	.	32gg 32b\	.	.	.	.	.	.	.	.	.	.	.
.	.	.	.	.	.	.	.	.	.	.	.	.	.	.	.	.	.	.	.	32G\	.	32g 32G\	.	32b 32d/	.	32gg 32b\	.	.	.	.	.	.	.	.	.	.	.
.	.	.	.	.	.	.	.	.	.	.	.	.	.	.	.	.	.	.	.	32G\	.	32g 32G\	.	32b 32d/	.	32gg 32b\	.	.	.	.	.	.	.	.	.	.	.
.	.	.	.	.	.	.	.	.	.	.	.	.	.	.	.	.	.	.	.	32G\	.	32g 32G\	.	32b 32d/	.	32gg 32b\	.	.	.	.	.	.	.	.	.	.	.
.	.	.	.	.	.	.	.	.	.	.	.	.	.	.	.	.	.	.	.	32G\	.	32g 32G\	.	32b 32d/	.	32gg 32b\	.	.	.	.	.	.	.	.	.	.	.
.	.	.	.	.	.	.	.	.	.	.	.	.	.	.	.	.	.	.	.	32G\	.	32g 32G\	.	32b 32d/	.	32gg 32b\	.	.	.	.	.	.	.	.	.	.	.
.	.	.	.	.	.	.	.	.	.	.	.	.	.	.	.	.	.	.	.	32G\	.	32g 32G\	.	32b 32d/	.	32gg 32b\	.	.	.	.	.	.	.	.	.	.	.
.	.	.	.	.	.	.	.	.	.	.	.	.	.	.	.	.	.	.	.	32G\	.	32g 32G\	.	32b 32d/	.	32gg 32b\	.	.	.	.	.	.	.	.	.	.	.
.	.	.	.	.	.	.	.	.	.	.	.	.	.	.	.	.	.	.	.	32G\JJJ	.	32gJJJ 32G\	.	32bJJJ 32d/	.	32ggJJJ 32b\	.	.	.	.	.	.	.	.	.	.	.
*	*	*	*	*	*	*	*	*	*	*	*	*	*	*	*	*	*	*	*	*Xtremolo	*	*Xtremolo	*	*Xtremolo	*	*Xtremolo	*	*	*	*	*	*	*	*	*	*	*
.	.	.	.	.	.	.	.	.	.	.	.	.	.	.	.	.	.	.	.	2G;\	.	2g 2G;\	.	2b 2d;/	.	2gg 2b;\	.	.	.	.	.	.	.	.	.	.	.
*	*	*	*	*	*	*	*	*v	*v	*	*	*	*	*	*	*	*	*	*	*	*	*	*	*	*	*	*	*	*	*	*	*	*	*	*	*	*
==	==	==	==	==	==	==	==	==	==	==	==	==	==	==	==	==	==	==	==	==	==	==	==	==	==	==	==	==	==	==	==	==	==	==	==	==
*-	*-	*-	*-	*-	*-	*-	*-	*-	*-	*-	*-	*-	*-	*-	*-	*-	*-	*-	*-	*-	*-	*-	*-	*-	*-	*-	*-	*-	*-	*-	*-	*-	*-	*-	*-	*-
!!!system-decoration: {(s1,s2,s3,s4,s5)}{(g1,s8,s9)}{(s10,s11,s12)}{(g2,s15)}{g3}{(s18,s19,s20)}
!!!RDF**kern: > = above
!!!RDF**kern: < = below
!!!AIN: 1 alto 1 clars 1 cor 7 empty 1 fagot 1 flt 1 oboe 2 soprn 1 timpa 1 tromp 1 tromt 1 viola
!!!ENC: Marta Lawrence
!!!END: 2021-04-24
!!!ENC: Krzysztof Stępień
!!!END: 2021-04-06
